;FLAVOR:Marlin
;TIME:1227
;Filament used: 0.398748m
;Layer height: 0.2
;MINX:139.205
;MINY:146.785
;MINZ:0.2
;MAXX:160.796
;MAXY:153.215
;MAXZ:22
;Generated with Cura_SteamEngine 4.13.1
M140 S60
M105
M190 S60
M104 S200
M105
M109 S200
M82 ;absolute extrusion mode

; Script based on an original created by tjjfvi (https://github.com/tjjfvi)
; An up-to-date version of the tjjfvi's original script can be found
; here:  https://csi.t6.fyi/
; Note - This script will not work in Cura V4.2 and above!
; max_feedrate_z_override = {max_feedrate_z_override}
; retraction_amount = 6.5
; retraction_hop = 0.2
; retraction_hop_enabled = False
; retraction_prime_speed = 25
; retraction_retract_speed = 25
; retraction_speed = 25
; speed_travel = 225.0
; retraction_enable = True
; layer_height = 0.2
; smooth_spiralized_contours = True


; Ender 3 Custom Start G-code
G92 E0 ; Reset Extruder
G28 ; Home all axes
G1 Z2.0 F3000 ; Move Z Axis up little to prevent scratching of Heat Bed
G1 X0.1 Y20 Z0.3 F5000.0 ; Move to start position
G1 X0.1 Y200.0 Z0.3 F1500.0 E15 ; Draw the first line
G1 X0.4 Y200.0 Z0.3 F5000.0 ; Move to side a little
G1 X0.4 Y20 Z0.3 F1500.0 E30 ; Draw the second line
G92 E0 ; Reset Extruder
G1 Z2.0 F3000 ; Move Z Axis up little to prevent scratching of Heat Bed
G1 X5 Y20 Z0.3 F5000.0 ; Move over to prevent blob squish
G92 E0
G92 E0
G1 F1500 E-6.5
;LAYER_COUNT:110
;LAYER:0
M107
G0 F6000 X143.364 Y148.85 Z0.2
;TYPE:SKIRT
G1 F1500 E0
G1 F1200 X143.433 Y148.85 E0.00229
G1 X143.434 Y151.15 E0.07879
G1 X143.365 Y151.15 E0.08109
G1 X143.364 Y148.85 E0.15759
G0 F6000 X142.964 Y148.45
G1 F1200 X143.833 Y148.45 E0.18649
G1 X143.834 Y151.55 E0.2896
G1 X142.965 Y151.55 E0.3185
G1 X142.964 Y148.45 E0.42161
G0 F6000 X142.564 Y148.05
G1 F1200 X144.233 Y148.05 E0.47712
G1 X144.234 Y151.95 E0.60683
G1 X142.565 Y151.95 E0.66234
G1 X142.564 Y148.05 E0.79206
G0 F6000 X142.164 Y147.65
G1 F1200 X144.633 Y147.65 E0.87418
G1 X144.634 Y152.35 E1.0305
G1 X142.18 Y152.35 E1.11212
G1 X142.165 Y152.335 E1.11282
G1 X142.164 Y147.65 E1.26865
G1 F1500 E-5.23135
G0 F6000 X144.18 Y146.797
G0 X155.819 Y146.797
G0 X155.831 Y147.649
G0 X155.366 Y147.65
G1 F1500 E1.26865
G1 F1200 X157.82 Y147.65 E1.35027
G1 X157.835 Y147.665 E1.35097
G1 X157.836 Y152.35 E1.5068
G1 X155.367 Y152.35 E1.58892
G1 X155.366 Y147.65 E1.74524
G0 F6000 X155.766 Y148.05
G1 F1200 X157.435 Y148.05 E1.80075
G1 X157.436 Y151.95 E1.93047
G1 X155.767 Y151.95 E1.98598
G1 X155.766 Y148.05 E2.11569
G0 F6000 X156.166 Y148.45
G1 F1200 X157.035 Y148.45 E2.14459
G1 X157.036 Y151.55 E2.2477
G1 X156.167 Y151.55 E2.2766
G1 X156.166 Y148.45 E2.37971
G0 F6000 X156.566 Y148.85
G1 F1200 X156.635 Y148.85 E2.38201
G1 X156.636 Y151.15 E2.4585
G1 X156.567 Y151.15 E2.4608
G1 X156.566 Y148.85 E2.5373
G1 F1500 E-3.9627
G0 F6000 X154.966 Y147.65
;TYPE:SUPPORT-INTERFACE
G1 F1500 E2.5373
G1 F1200 X154.967 Y152.35 E2.69362
G1 X152.712 Y152.35 E2.76862
G1 X152.711 Y147.65 E2.92494
G1 X154.966 Y147.65 E2.99995
G1 F1500 E-3.50005
G0 F6000 X154.966 Y146.785
G0 X148.44 Y146.789
G0 X148.156 Y147.092
G0 X147.288 Y147.65
G1 F1500 E2.99995
G1 F1200 X147.289 Y152.35 E3.15627
G1 X145.034 Y152.35 E3.23127
G1 X145.033 Y147.65 E3.38759
G1 X147.288 Y147.65 E3.46259
G0 F6000 X147.088 Y148.199
G1 F1200 X145.234 Y150.053 E3.5498
G0 F6000 X145.232 Y148.626
G1 F1200 X147.088 Y150.482 E3.6371
G0 F6000 X147.088 Y151.593
G1 F1200 X146.532 Y152.149 E3.66325
G0 F6000 X145.36 Y152.148
G1 F1200 X145.233 Y152.021 E3.66923
G1 F1500 E-2.83077
G0 F6000 X145.233 Y153.215
G0 X144.181 Y153.203
G0 X144.18 Y146.797
G0 X151.559 Y146.789
G0 X151.843 Y147.092
G0 X152.91 Y149.516
G1 F1500 E3.66923
G1 F1200 X154.766 Y151.372 E3.75653
G0 F6000 X154.765 Y150.704
G1 F1200 X153.319 Y152.15 E3.82454
G0 F6000 X152.911 Y149.164
G1 F1200 X154.226 Y147.849 E3.8864
G0 F6000 X154.638 Y147.85
G1 F1200 X154.765 Y147.977 E3.89237
G1 F1500 E-2.60763
;MESH:forceSensorHolder.STL
G0 F6000 X154.765 Y146.785
G0 X151.877 Y147.102
G0 X151.002 Y147.977
G0 X150.803 Y151.95
;TYPE:WALL-INNER
G1 F1500 E3.89237
G1 F1200 X149.198 Y151.95 E3.94575
G1 X149.197 Y148.05 E4.07547
G1 X150.802 Y148.05 E4.12885
G1 X150.803 Y151.95 E4.25856
G0 F6000 X151.203 Y152.35
;TYPE:WALL-OUTER
G1 F1200 X148.798 Y152.35 E4.33856
G1 X148.797 Y147.65 E4.49488
G1 X151.202 Y147.65 E4.57487
G1 X151.203 Y152.35 E4.73119
G0 F6000 X150.933 Y152.08
G0 X150.693 Y151.56
G0 X150.413 Y151.56
;TYPE:SKIN
G1 F1200 X149.588 Y151.56 E4.75863
G1 X149.587 Y148.44 E4.8624
G1 X150.412 Y148.44 E4.88984
G1 X150.413 Y151.56 E4.99361
G0 F6000 X150.252 Y151.383
G1 F1200 X149.746 Y150.878 E5.01739
G0 F6000 X150.252 Y150.818
G1 F1200 X149.746 Y150.312 E5.04119
G0 F6000 X150.252 Y150.252
G1 F1200 X149.746 Y149.746 E5.06499
G0 F6000 X150.252 Y149.686
G1 F1200 X149.746 Y149.181 E5.08877
G0 F6000 X150.252 Y149.121
G1 F1200 X149.746 Y148.615 E5.11257
G0 F6000 X149.398 Y148.616
G1 F1500 E-1.38743
;MESH:NONMESH
G0 F300 X149.398 Y148.616 Z0.4
G0 F6000 X149.307 Y148.615
G0 X149.011 Y147.864
G0 X148.156 Y147.092
G0 X148.045 Y146.792
G0 X144.18 Y146.797
G0 X142.164 Y147.65
;TIME_ELAPSED:20.228107
;LAYER:1
M106 S85
;TYPE:SUPPORT
G1 F1500 E5.11257
G1 F909.4 X144.241 Y147.65 E5.18165
G1 X144.242 Y152.35 E5.33797
G1 X142.179 Y152.35 E5.40659
G1 X142.165 Y152.336 E5.40725
G1 X142.164 Y147.65 E5.56311
G0 F9750 X142.444 Y147.93
G1 F909.4 X143.961 Y147.93 E5.61356
G1 X143.962 Y152.07 E5.75126
G1 X142.445 Y152.07 E5.80171
G1 X142.444 Y147.93 E5.93941
G1 F1500 E-0.56059
G0 F9750 X142.444 Y146.785
G0 X155.758 Y146.785
G0 X155.758 Y147.65
G1 F1500 E5.93941
G1 F909.4 X157.821 Y147.65 E6.00803
G1 X157.835 Y147.664 E6.00868
G1 X157.836 Y152.35 E6.16454
G1 X155.759 Y152.35 E6.23362
G1 X155.758 Y147.65 E6.38995
G0 F9750 X156.038 Y147.93
G1 F909.4 X157.555 Y147.93 E6.4404
G1 X157.556 Y152.07 E6.5781
G1 X156.039 Y152.07 E6.62855
G1 X156.038 Y147.93 E6.76625
G0 F9750 X155.557 Y148.769
;TYPE:SUPPORT-INTERFACE
G1 F909.4 X154.238 Y147.45 E6.82829
G0 F9750 X154.625 Y147.45
G1 F909.4 X153.311 Y148.764 E6.8901
G0 F9750 X153.31 Y149.916
G1 F909.4 X155.557 Y152.163 E6.99579
G0 F9750 X153.311 Y152.158
G1 F909.4 X155.557 Y149.912 E7.10144
G1 F1500 E0.60144
G0 F9750 X155.557 Y153.215
G0 X147.328 Y153.179
G0 X146.688 Y150.082
G1 F1500 E7.10144
G1 F909.4 X144.441 Y147.835 E7.20713
G0 F9750 X146.687 Y148.599
G1 F909.4 X144.442 Y150.845 E7.31275
G0 F9750 X144.441 Y151.229
G1 F909.4 X145.76 Y152.549 E7.37481
G0 F9750 X146.132 Y152.549
G1 F909.4 X146.687 Y151.994 E7.40092
G1 F1500 E0.90092
;MESH:forceSensorHolder.STL
G0 F9750 X147.889 Y151.994
G0 X151.912 Y151.95
;TYPE:WALL-INNER
G1 F1500 E7.40092
G1 F909.4 X148.089 Y151.95 E7.52807
G1 X148.088 Y148.05 E7.65779
G1 X151.911 Y148.05 E7.78494
G1 X151.912 Y151.95 E7.91466
G0 F9750 X152.312 Y152.35
;TYPE:WALL-OUTER
G1 F909.4 X147.689 Y152.35 E8.06842
G1 X147.688 Y147.65 E8.22474
G1 X152.311 Y147.65 E8.3785
G1 X152.312 Y152.35 E8.53482
G0 F9750 X152.042 Y152.08
G0 X151.802 Y151.56
G0 X151.522 Y151.56
;TYPE:SKIN
G1 F909.4 X148.479 Y151.56 E8.63603
G1 X148.478 Y148.44 E8.73981
G1 X151.521 Y148.44 E8.84102
G1 X151.522 Y151.56 E8.94479
G0 F9750 X151.242 Y151.399
G1 F909.4 X151.361 Y151.279 E8.95041
G0 F9750 X151.361 Y150.714
G1 F909.4 X150.676 Y151.399 E8.98263
G0 F9750 X150.11 Y151.399
G1 F909.4 X151.361 Y150.149 E9.04145
G0 F9750 X151.361 Y149.583
G1 F909.4 X149.545 Y151.399 E9.12687
G0 F9750 X148.979 Y151.399
G1 F909.4 X151.36 Y149.018 E9.23886
G0 F9750 X151.213 Y148.599
G1 F909.4 X148.638 Y151.174 E9.35998
G0 F9750 X148.638 Y150.608
G1 F909.4 X150.647 Y148.599 E9.45448
G0 F9750 X150.082 Y148.599
G1 F909.4 X148.638 Y150.043 E9.5224
G0 F9750 X148.638 Y149.478
G1 F909.4 X149.516 Y148.599 E9.56372
G0 F9750 X148.95 Y148.599
G1 F909.4 X148.638 Y148.912 E9.57842
G0 F9750 X148.289 Y148.913
G1 F1500 E3.07842
;MESH:NONMESH
G0 F300 X148.289 Y148.913 Z0.6
G0 F9750 X148.198 Y148.912
G0 X147.902 Y147.864
G0 X147.327 Y146.821
G0 X142.164 Y146.785
G0 X142.164 Y147.65
;TIME_ELAPSED:34.792972
;LAYER:2
M106 S170
;TYPE:SUPPORT
G1 F1500 E9.57842
G1 F1000.6 X145.742 Y147.65 E9.69743
G1 X145.743 Y152.35 E9.85375
G1 X142.178 Y152.35 E9.97232
G1 X142.165 Y152.337 E9.97293
G1 X142.164 Y147.65 E10.12882
G0 F13500 X144 Y147.93
G1 F1000.6 X142.444 Y147.93 E10.18058
G1 X142.445 Y152.07 E10.31827
G1 X144 Y152.07 E10.36999
G1 X144 Y147.93 E10.50769
G1 X145.462 Y147.93 E10.55632
G1 X145.463 Y152.07 E10.69401
G1 X144 Y152.07 E10.74267
G1 F1500 E4.24267
G0 F13500 X144 Y153.215
G0 X154.258 Y153.215
G0 X154.258 Y152.35
G1 F1500 E10.74267
G1 F1000.6 X154.257 Y147.65 E10.899
G1 X157.822 Y147.65 E11.01757
G1 X157.835 Y147.663 E11.01818
G1 X157.836 Y152.35 E11.17407
G1 X154.258 Y152.35 E11.29308
G0 F13500 X156 Y152.07
G1 F1000.6 X154.538 Y152.07 E11.3417
G1 X154.537 Y147.93 E11.4794
G1 X156 Y147.93 E11.52806
G1 X156 Y152.07 E11.66576
G1 X157.556 Y152.07 E11.71751
G1 X157.555 Y147.93 E11.85521
G1 X156 Y147.93 E11.90692
G1 F1500 E5.40692
;MESH:forceSensorHolder.STL
G0 F13500 X156 Y146.785
G0 X153.418 Y146.821
G0 X152.857 Y147.93
G0 X152.658 Y151.95
;TYPE:WALL-INNER
G1 F1500 E11.90692
G1 F1000.6 X147.343 Y151.95 E12.0837
G1 X147.342 Y148.05 E12.21342
G1 X152.657 Y148.05 E12.39019
G1 X152.658 Y151.95 E12.51991
G0 F13500 X153.058 Y152.35
;TYPE:WALL-OUTER
G1 F1000.6 X146.943 Y152.35 E12.72329
G1 X146.942 Y147.65 E12.87962
G1 X153.057 Y147.65 E13.083
G1 X153.058 Y152.35 E13.23933
G0 F13500 X152.788 Y152.08
G0 X152.548 Y151.56
G0 X152.268 Y151.56
;TYPE:SKIN
G1 F1000.6 X147.733 Y151.56 E13.39016
G1 X147.732 Y148.44 E13.49393
G1 X152.267 Y148.44 E13.64477
G1 X152.268 Y151.56 E13.74854
G0 F13500 X152.548 Y151.56
G0 X152.548 Y148.712
G0 X152.106 Y148.712
G1 F1000.6 X151.994 Y148.599 E13.75383
G0 F13500 X151.428 Y148.599
G1 F1000.6 X152.106 Y149.278 E13.78574
G0 F13500 X152.106 Y149.843
G1 F1000.6 X150.862 Y148.599 E13.84426
G0 F13500 X150.296 Y148.599
G1 F1000.6 X152.107 Y150.41 E13.92944
G0 F13500 X152.107 Y150.975
G1 F1000.6 X149.731 Y148.599 E14.0412
G0 F13500 X149.165 Y148.599
G1 F1000.6 X151.965 Y151.399 E14.17291
G0 F13500 X151.399 Y151.399
G1 F1000.6 X148.599 Y148.599 E14.30461
G0 F13500 X148.034 Y148.599
G1 F1000.6 X150.833 Y151.399 E14.43629
G0 F13500 X150.267 Y151.399
G1 F1000.6 X147.892 Y149.023 E14.54803
G0 F13500 X147.892 Y149.589
G1 F1000.6 X149.702 Y151.399 E14.63316
G0 F13500 X149.136 Y151.399
G1 F1000.6 X147.892 Y150.155 E14.69168
G0 F13500 X147.892 Y150.721
G1 F1000.6 X148.57 Y151.399 E14.72357
G0 F13500 X148.005 Y151.399
G1 F1000.6 X147.892 Y151.286 E14.72888
G0 F13500 X147.543 Y151.287
G1 F1500 E8.22888
;MESH:NONMESH
G0 F300 X147.543 Y151.287 Z0.8
G0 F13500 X147.452 Y151.286
G0 X147.156 Y147.864
G0 X146.581 Y146.821
G0 X142.164 Y146.785
G0 X142.164 Y147.65
;TIME_ELAPSED:48.939018
;LAYER:3
M106 S255
;TYPE:SUPPORT
G1 F1500 E14.72888
G1 F1063.9 X145.179 Y147.65 E14.82916
G1 X145.18 Y152.35 E14.98548
G1 X142.177 Y152.35 E15.08536
G1 X142.165 Y152.338 E15.08593
G1 X142.164 Y147.65 E15.24185
G0 F13500 X144 Y147.93
G1 F1063.9 X142.444 Y147.93 E15.2936
G1 X142.445 Y152.07 E15.4313
G1 X144 Y152.07 E15.48302
G1 X144 Y147.93 E15.62072
G1 X144.899 Y147.93 E15.65062
G1 X144.9 Y152.07 E15.78832
G1 X144 Y152.07 E15.81825
G1 F1500 E9.31825
G0 F13500 X144 Y153.215
G0 X154.821 Y153.215
G0 X154.821 Y152.35
G1 F1500 E15.81825
G1 F1063.9 X154.82 Y147.65 E15.97457
G1 X157.823 Y147.65 E16.07445
G1 X157.835 Y147.662 E16.07502
G1 X157.836 Y152.35 E16.23094
G1 X154.821 Y152.35 E16.33122
G0 F13500 X156 Y152.07
G1 F1063.9 X155.101 Y152.07 E16.36112
G1 X155.1 Y147.93 E16.49882
G1 X156 Y147.93 E16.52875
G1 X156 Y152.07 E16.66645
G1 X157.556 Y152.07 E16.7182
G1 X157.555 Y147.93 E16.8559
G1 X156 Y147.93 E16.90762
G1 F1500 E10.40762
;MESH:forceSensorHolder.STL
G0 F13500 X153.42 Y147.93
G0 X153.221 Y151.95
;TYPE:WALL-INNER
G1 F1500 E16.90762
G1 F1063.9 X146.78 Y151.95 E17.12185
G1 X146.779 Y148.05 E17.25156
G1 X153.22 Y148.05 E17.46579
G1 X153.221 Y151.95 E17.5955
G0 F13500 X153.621 Y152.35
;TYPE:WALL-OUTER
G1 F1063.9 X146.38 Y152.35 E17.83634
G1 X146.379 Y147.65 E17.99266
G1 X153.62 Y147.65 E18.2335
G1 X153.621 Y152.35 E18.38982
G0 F13500 X153.351 Y152.08
G0 X153.111 Y151.56
G0 X152.831 Y151.56
;TYPE:SKIN
G1 F1063.9 X147.17 Y151.56 E18.57811
G1 X147.169 Y148.44 E18.68188
G1 X152.83 Y148.44 E18.87017
G1 X152.831 Y151.56 E18.97394
G0 F13500 X152.669 Y151.103
G1 F1063.9 X152.373 Y151.4 E18.98788
G0 F13500 X151.807 Y151.4
G1 F1063.9 X152.669 Y150.538 E19.02843
G0 F13500 X152.669 Y149.972
G1 F1063.9 X151.241 Y151.4 E19.0956
G0 F13500 X150.675 Y151.4
G1 F1063.9 X152.669 Y149.406 E19.18939
G0 F13500 X152.669 Y148.841
G1 F1063.9 X150.11 Y151.4 E19.30976
G0 F13500 X149.544 Y151.4
G1 F1063.9 X152.344 Y148.599 E19.44148
G0 F13500 X151.779 Y148.599
G1 F1063.9 X148.978 Y151.4 E19.57324
G0 F13500 X148.413 Y151.4
G1 F1063.9 X151.213 Y148.599 E19.70496
G0 F13500 X150.647 Y148.599
G1 F1063.9 X147.847 Y151.4 E19.83669
G0 F13500 X147.33 Y151.351
G1 F1063.9 X150.082 Y148.599 E19.96613
G0 F13500 X149.517 Y148.599
G1 F1063.9 X147.33 Y150.785 E20.06898
G0 F13500 X147.33 Y150.219
G1 F1063.9 X148.951 Y148.599 E20.1452
G0 F13500 X148.385 Y148.599
G1 F1063.9 X147.329 Y149.654 E20.19485
G0 F13500 X147.329 Y149.089
G1 F1063.9 X147.819 Y148.599 E20.2179
G0 F13500 X147.819 Y148.25
G1 F1500 E13.7179
;MESH:NONMESH
G0 F300 X147.819 Y148.25 Z1
G0 F13500 X147.819 Y148.16
G0 X146.593 Y147.864
G0 X146.018 Y146.821
G0 X142.164 Y146.785
G0 X142.164 Y147.65
;TIME_ELAPSED:62.938815
;LAYER:4
;TYPE:SUPPORT
G1 F1500 E20.2179
G1 F1102.5 X144.658 Y147.65 E20.30085
G1 X144.659 Y152.35 E20.45717
G1 X142.176 Y152.35 E20.53976
G1 X142.165 Y152.339 E20.54028
G1 X142.164 Y147.65 E20.69623
G0 F13500 X144 Y147.93
G1 F1102.5 X142.444 Y147.93 E20.74799
G1 X142.445 Y152.07 E20.88568
G1 X144 Y152.07 E20.9374
G1 X144 Y147.93 E21.0751
G1 X144.378 Y147.93 E21.08767
G1 X144.379 Y152.07 E21.22537
G1 X144 Y152.07 E21.23797
G1 F1500 E14.73797
G0 F13500 X144 Y153.215
G0 X155.342 Y153.215
G0 X155.342 Y152.35
G1 F1500 E21.23797
G1 F1102.5 X155.341 Y147.65 E21.3943
G1 X157.824 Y147.65 E21.47688
G1 X157.835 Y147.661 E21.4774
G1 X157.836 Y152.35 E21.63336
G1 X155.342 Y152.35 E21.71631
G0 F13500 X156 Y152.07
G1 F1102.5 X155.622 Y152.07 E21.72888
G1 X155.621 Y147.93 E21.86658
G1 X156 Y147.93 E21.87918
G1 X156 Y152.07 E22.01688
G1 X157.556 Y152.07 E22.06863
G1 X157.555 Y147.93 E22.20633
G1 X156 Y147.93 E22.25805
G1 F1500 E15.75805
;MESH:forceSensorHolder.STL
G0 F13500 X153.941 Y147.93
G0 X153.742 Y151.95
;TYPE:WALL-INNER
G1 F1500 E22.25805
G1 F1102.5 X146.259 Y151.95 E22.50693
G1 X146.258 Y148.05 E22.63665
G1 X153.741 Y148.05 E22.88553
G1 X153.742 Y151.95 E23.01525
G0 F13500 X154.142 Y152.35
;TYPE:WALL-OUTER
G1 F1102.5 X145.859 Y152.35 E23.29074
G1 X145.858 Y147.65 E23.44706
G1 X154.141 Y147.65 E23.72256
G1 X154.142 Y152.35 E23.87888
G0 F13500 X153.872 Y152.08
G0 X150.575 Y151.768
G0 X150.502 Y150.537
G0 X150.721 Y150.537
;TYPE:FILL
G1 F2205.1 X149.277 Y150.924 E23.9286
G0 F13500 X149.277 Y149.962
G1 F2205.1 X149.473 Y149.229 E23.95384
G0 F13500 X150.229 Y149.229
G1 F2205.1 X150.722 Y149.722 E23.97703
G0 F13500 X150.792 Y149.16
;TYPE:SKIN
G1 F1102.5 X149.207 Y149.16 E24.02975
G1 X149.208 Y151.56 E24.10957
G1 X146.649 Y151.56 E24.19468
G1 X146.648 Y148.44 E24.29845
G1 X153.351 Y148.44 E24.5214
G1 X153.352 Y151.56 E24.62517
G1 X150.793 Y151.56 E24.71028
G1 X150.792 Y149.16 E24.79011
G0 F13500 X150.532 Y149.42
G0 X150.575 Y151.768
G0 X153.56 Y151.768
G0 X153.632 Y148.665
G0 X153.191 Y148.665
G1 F1102.5 X153.125 Y148.599 E24.79321
G0 F13500 X152.559 Y148.599
G1 F1102.5 X153.191 Y149.231 E24.82294
G0 F13500 X153.191 Y149.797
G1 F1102.5 X151.994 Y148.599 E24.87926
G0 F13500 X151.428 Y148.599
G1 F1102.5 X153.191 Y150.363 E24.96221
G0 F13500 X153.191 Y150.929
G1 F1102.5 X150.862 Y148.599 E25.07179
G0 F13500 X150.697 Y149
G1 F1102.5 X150.296 Y148.599 E25.09065
G0 F13500 X150.131 Y149
G1 F1102.5 X149.731 Y148.599 E25.10949
G0 F13500 X149.565 Y149
G1 F1102.5 X149.165 Y148.599 E25.12832
G0 F13500 X149.047 Y149.047
G1 F1102.5 X148.599 Y148.599 E25.1494
G0 F13500 X148.034 Y148.599
G1 F1102.5 X149.047 Y149.613 E25.19707
G0 F13500 X149.047 Y150.178
