;FLAVOR:Marlin
;TIME:1236
;Filament used: 0.376627m
;Layer height: 0.2
;MINX:139.204
;MINY:146.541
;MINZ:0.2
;MAXX:160.795
;MAXY:153.485
;MAXZ:22
;Generated with Cura_SteamEngine 4.13.1
M140 S60
M105
M190 S60
M104 S200
M105
M109 S200
M82 ;absolute extrusion mode

; Script based on an original created by tjjfvi (https://github.com/tjjfvi)
; An up-to-date version of the tjjfvi's original script can be found
; here:  https://csi.t6.fyi/
; Note - This script will not work in Cura V4.2 and above!
; max_feedrate_z_override = {max_feedrate_z_override}
; retraction_amount = 6.5
; retraction_hop = 0.2
; retraction_hop_enabled = False
; retraction_prime_speed = 25
; retraction_retract_speed = 25
; retraction_speed = 25
; speed_travel = 225.0
; retraction_enable = True
; layer_height = 0.2
; smooth_spiralized_contours = True


; Ender 3 Custom Start G-code
G92 E0 ; Reset Extruder
G28 ; Home all axes
G1 Z2.0 F3000 ; Move Z Axis up little to prevent scratching of Heat Bed
G1 X0.1 Y20 Z0.3 F5000.0 ; Move to start position
G1 X0.1 Y200.0 Z0.3 F1500.0 E15 ; Draw the first line
G1 X0.4 Y200.0 Z0.3 F5000.0 ; Move to side a little
G1 X0.4 Y20 Z0.3 F1500.0 E30 ; Draw the second line
G92 E0 ; Reset Extruder
G1 Z2.0 F3000 ; Move Z Axis up little to prevent scratching of Heat Bed
G1 X5 Y20 Z0.3 F5000.0 ; Move over to prevent blob squish
G92 E0
G92 E0
G1 F1500 E-6.5
;LAYER_COUNT:110
;LAYER:0
M107
G0 F6000 X143.364 Y148.606 Z0.2
;TYPE:SKIRT
G1 F1500 E0
G1 F1200 X143.433 Y148.606 E0.00229
G1 X143.433 Y151.273 E0.091
G1 X143.364 Y151.27 E0.0933
G1 X143.364 Y148.606 E0.1819
G0 F6000 X142.964 Y148.206
G1 F1200 X143.833 Y148.206 E0.2108
G1 X143.833 Y151.694 E0.32682
G1 X142.964 Y151.649 E0.35576
G1 X142.964 Y148.206 E0.47027
G0 F6000 X142.564 Y147.806
G1 F1200 X144.233 Y147.806 E0.52578
G1 X144.233 Y152.116 E0.66914
G1 X142.564 Y152.029 E0.72472
G1 X142.564 Y147.806 E0.86518
G0 F6000 X142.164 Y147.406
G1 F1200 X144.633 Y147.406 E0.9473
G1 X144.633 Y152.537 E1.11796
G1 X142.478 Y152.425 E1.18973
G1 X142.268 Y152.443 E1.19674
G1 X142.164 Y152.38 E1.20078
G1 X142.164 Y147.406 E1.36622
G1 F1500 E-5.13378
G0 F6000 X144.18 Y146.553
G0 X155.819 Y146.553
G0 X155.831 Y147.405
G0 X155.366 Y147.406
G1 F1500 E1.36622
G1 F1200 X157.82 Y147.406 E1.44784
G1 X157.835 Y147.421 E1.44854
G1 X157.836 Y152.378 E1.61342
G1 X157.728 Y152.445 E1.61764
G1 X157.521 Y152.427 E1.62455
G1 X155.367 Y152.562 E1.69634
G1 X155.366 Y147.406 E1.86783
G0 F6000 X155.766 Y147.806
G1 F1200 X157.435 Y147.806 E1.92334
G1 X157.436 Y152.032 E2.06389
G1 X155.767 Y152.136 E2.11951
G1 X155.766 Y147.806 E2.26353
G0 F6000 X156.166 Y148.206
G1 F1200 X157.035 Y148.206 E2.29243
G1 X157.036 Y151.656 E2.40718
G1 X156.167 Y151.711 E2.43614
G1 X156.166 Y148.206 E2.55272
G0 F6000 X156.566 Y148.606
G1 F1200 X156.635 Y148.606 E2.55501
G1 X156.636 Y151.281 E2.64398
G1 X156.567 Y151.285 E2.64628
G1 X156.566 Y148.606 E2.73539
G1 F1500 E-3.76461
G0 F6000 X154.966 Y147.406
;TYPE:SUPPORT-INTERFACE
G1 F1500 E2.73539
G1 F1200 X154.967 Y152.587 E2.90771
G1 X154.902 Y152.591 E2.90987
G1 X154.425 Y152.272 E2.92896
G1 X153.894 Y152.3 E2.94664
G1 X153.618 Y152.531 E2.95861
G1 X153.518 Y152.513 E2.96199
G1 X153.123 Y152.563 E2.97524
G1 X152.712 Y152.488 E2.98913
G1 X152.711 Y147.406 E3.15816
G1 X154.966 Y147.406 E3.23316
G1 F1500 E-3.26684
G0 F6000 X154.966 Y146.541
G0 X148.44 Y146.545
G0 X148.156 Y146.848
G0 X147.288 Y147.406
G1 F1500 E3.23316
G1 F1200 X147.289 Y152.486 E3.40212
G1 X146.881 Y152.562 E3.41593
G1 X146.486 Y152.51 E3.42918
G1 X145.966 Y152.607 E3.44677
G1 X145.033 Y152.558 E3.47785
G1 X145.033 Y147.406 E3.6492
G1 X147.288 Y147.406 E3.7242
G0 F6000 X147.088 Y148.199
G1 F1200 X145.233 Y150.054 E3.81146
G0 F6000 X145.232 Y148.626
G1 F1200 X147.088 Y150.482 E3.89876
G0 F6000 X147.088 Y151.593
G1 F1200 X146.35 Y152.331 E3.93347
G0 F6000 X145.597 Y152.385
G1 F1200 X145.232 Y152.02 E3.95064
G1 F1500 E-2.54936
G0 F6000 X144.168 Y152.02
G0 X144.179 Y153.368
G0 X146.024 Y153.475
G0 X147.576 Y153.471
G0 X152.921 Y153.406
G0 X153.111 Y152.358
G1 F1500 E3.95064
G1 F1200 X154.765 Y150.704 E4.02844
G0 F6000 X154.765 Y151.371
G1 F1200 X152.91 Y149.516 E4.11569
G0 F6000 X152.911 Y149.164
G1 F1200 X154.47 Y147.605 E4.18902
G1 X154.394 Y147.606
G1 X154.765 Y147.977 E4.20647
G1 F1500 E-2.29353
;MESH:ball_cut_sensor_holder.stl
G0 F6000 X155.831 Y147.976
G0 X155.819 Y146.553
G0 X151.954 Y146.548
G0 X151.843 Y146.848
G0 X151.002 Y147.977
G0 X150.803 Y152.13
;TYPE:WALL-INNER
G1 F1500 E4.20647
G1 F1200 X149.201 Y152.129 E4.25976
G1 X149.197 Y147.806 E4.40354
G1 X150.802 Y147.806 E4.45692
G1 X150.803 Y152.13 E4.60074
G0 F6000 X151.203 Y152.567
;TYPE:WALL-OUTER
G1 F1200 X150.807 Y152.53 E4.61397
G1 X149.189 Y152.529 E4.66778
G1 X149.111 Y152.539 E4.6704
G1 X148.801 Y152.566 E4.68075
G1 X148.797 Y147.406 E4.85237
G1 X151.202 Y147.406 E4.93236
G1 X151.203 Y152.567 E5.10402
G0 F6000 X150.936 Y152.274
G0 X150.412 Y152.019
G0 X150.413 Y151.74
;TYPE:SKIN
G1 F1200 X149.591 Y151.739 E5.13136
G1 X149.587 Y148.196 E5.2492
G1 X150.412 Y148.196 E5.27664
G1 X150.413 Y151.74 E5.39451
G0 F6000 X149.881 Y151.578
G1 F1200 X149.75 Y151.447 E5.40067
G0 F6000 X150.253 Y151.384
G1 F1200 X149.749 Y150.881 E5.42436
G0 F6000 X150.253 Y150.818
G1 F1200 X149.748 Y150.314 E5.44809
G0 F6000 X150.252 Y150.252
G1 F1200 X149.748 Y149.748 E5.47179
G0 F6000 X150.252 Y149.686
G1 F1200 X149.746 Y149.181 E5.49557
G0 F6000 X150.251 Y149.12
G1 F1200 X149.746 Y148.614 E5.51935
G0 F6000 X150.053 Y148.355
G1 F1200 X150.251 Y148.554 E5.52868
G0 F6000 X150.602 Y148.553
G1 F1500 E-0.97132
;MESH:NONMESH
G0 F300 X150.602 Y148.553 Z0.4
G0 F6000 X150.693 Y148.554
G0 X150.62 Y147.988
G0 X149.011 Y147.62
G0 X148.156 Y146.848
G0 X148.045 Y146.548
G0 X144.18 Y146.553
G0 X142.164 Y147.406
;TIME_ELAPSED:20.866012
;LAYER:1
M106 S85
;TYPE:SUPPORT
G1 F1500 E5.52868
G1 F974.5 X144.241 Y147.406 E5.59777
G1 X144.241 Y152.518 E5.76779
G1 X142.465 Y152.426 E5.82694
G1 X142.27 Y152.444 E5.83345
G1 X142.164 Y152.379 E5.83759
G1 X142.164 Y147.406 E6.00299
G0 F9750 X142.444 Y147.686
G1 F974.5 X143.961 Y147.686 E6.05345
G1 X143.961 Y152.223 E6.20435
G1 X142.459 Y152.146 E6.25437
G1 X142.444 Y152.147 E6.25487
G1 X142.444 Y147.686 E6.40324
G1 F1500 E-0.09676
G0 F9750 X142.444 Y146.541
G0 X155.758 Y146.541
G0 X155.758 Y147.406
G1 F1500 E6.40324
G1 F974.5 X157.821 Y147.406 E6.47186
G1 X157.835 Y147.42 E6.47252
G1 X157.836 Y152.378 E6.63742
G1 X157.729 Y152.445 E6.64162
G1 X157.536 Y152.426 E6.64807
G1 X155.759 Y152.537 E6.70729
G1 X155.758 Y147.406 E6.87795
G0 F9750 X156.038 Y147.686
G1 F974.5 X157.555 Y147.686 E6.9284
G1 X157.556 Y152.146 E7.07674
G1 X157.542 Y152.145 E7.07721
G1 X156.039 Y152.239 E7.1273
G1 X156.038 Y147.686 E7.27873
G0 F9750 X155.557 Y148.769
;TYPE:SUPPORT-INTERFACE
G1 F974.5 X153.994 Y147.206 E7.35225
G0 F9750 X154.869 Y147.206
G1 F974.5 X153.31 Y148.765 E7.42558
G0 F9750 X153.309 Y149.915
G1 F974.5 X155.558 Y152.164 E7.53137
G0 F9750 X153.311 Y152.158
G1 F974.5 X155.557 Y149.913 E7.63699
G1 F1500 E1.13699
G0 F9750 X155.774 Y153.402
G0 X154.577 Y153.476
G0 X147.389 Y153.437
G0 X147.192 Y153.257
G0 X146.689 Y150.083
G1 F1500 E7.63699
G1 F974.5 X144.44 Y147.834 E7.74277
G0 F9750 X144.441 Y147.452
G1 F974.5 X144.688 Y147.205 E7.75439
G0 F9750 X146.687 Y148.599
G1 F974.5 X144.441 Y150.846 E7.86006
G0 F9750 X144.44 Y151.228
G1 F974.5 X146.013 Y152.801 E7.93405
G1 X145.879 Y152.802
G1 X146.688 Y151.993 E7.9721
G1 F1500 E1.4721
;MESH:ball_cut_sensor_holder.stl
G0 F9750 X147.889 Y151.993
G0 X151.912 Y152.109
;TYPE:WALL-INNER
G1 F1500 E7.9721
G1 F974.5 X150.832 Y152.01 E8.00817
G1 X149.168 Y152.01 E8.06352
G1 X148.089 Y152.108 E8.09955
G1 X148.088 Y147.806 E8.24264
G1 X151.911 Y147.806 E8.36979
G1 X151.912 Y152.109 E8.51291
G0 F9750 X152.312 Y152.547
;TYPE:WALL-OUTER
G1 F974.5 X150.814 Y152.41 E8.56294
G1 X149.186 Y152.41 E8.61709
G1 X147.689 Y152.546 E8.66709
G1 X147.688 Y147.406 E8.83804
G1 X152.311 Y147.406 E8.9918
G1 X152.312 Y152.547 E9.1628
G0 F9750 X152.045 Y152.255
G0 X151.496 Y151.959
G0 X151.522 Y151.682
;TYPE:SKIN
G1 F974.5 X150.85 Y151.62 E9.18524
G1 X149.15 Y151.62 E9.24178
G1 X148.479 Y151.681 E9.26419
G1 X148.478 Y148.196 E9.3801
G1 X151.521 Y148.196 E9.48131
G1 X151.522 Y151.682 E9.59726
G0 F9750 X151.154 Y151.487
G1 F974.5 X151.361 Y151.28 E9.607
G0 F9750 X151.361 Y150.714
G1 F974.5 X150.617 Y151.458 E9.64199
G0 F9750 X150.051 Y151.458
G1 F974.5 X151.36 Y150.149 E9.70356
G0 F9750 X151.36 Y149.584
G1 F974.5 X149.485 Y151.458 E9.79173
G0 F9750 X148.896 Y151.482
G1 F974.5 X151.359 Y149.019 E9.90759
G0 F9750 X151.359 Y148.453
G1 F974.5 X148.638 Y151.174 E10.03557
G0 F9750 X148.638 Y150.608
G1 F974.5 X150.891 Y148.355 E10.14155
G0 F9750 X150.325 Y148.355
G1 F974.5 X148.638 Y150.043 E10.22092
G0 F9750 X148.638 Y149.478
G1 F974.5 X149.76 Y148.355 E10.27372
G0 F9750 X149.194 Y148.355
G1 F974.5 X148.638 Y148.912 E10.2999
G0 F9750 X148.289 Y148.913
G1 F1500 E3.7999
;MESH:NONMESH
G0 F300 X148.289 Y148.913 Z0.6
G0 F9750 X148.198 Y148.912
G0 X147.902 Y147.62
G0 X147.327 Y146.577
G0 X142.164 Y146.541
G0 X142.164 Y147.406
;TIME_ELAPSED:35.574535
;LAYER:2
M106 S170
;TYPE:SUPPORT
G1 F1500 E10.2999
G1 F1054.8 X143.859 Y147.406 E10.35627
G1 X143.859 Y152.498 E10.52563
G1 X142.466 Y152.427 E10.57203
G1 X142.271 Y152.445 E10.57854
G1 X142.164 Y152.38 E10.5827
G1 X142.164 Y147.406 E10.74814
G0 F13500 X142.444 Y147.686
G1 F1054.8 X143.579 Y147.686 E10.78589
G1 X143.579 Y152.203 E10.93613
G1 X142.46 Y152.147 E10.97339
G1 X142.444 Y152.148 E10.97392
G1 X142.444 Y147.686 E11.12233
G1 F1500 E4.62233
G0 F13500 X142.444 Y146.541
G0 X156.14 Y146.541
G0 X156.14 Y147.406
G1 F1500 E11.12233
G1 F1054.8 X157.822 Y147.406 E11.17827
G1 X157.835 Y147.419 E11.17888
G1 X157.836 Y152.378 E11.34382
G1 X157.729 Y152.445 E11.34802
G1 X157.536 Y152.426 E11.35447
G1 X156.141 Y152.513 E11.40096
G1 X156.14 Y147.406 E11.57082
G0 F13500 X156.42 Y147.686
G1 F1054.8 X157.555 Y147.686 E11.60857
G1 X157.556 Y152.146 E11.75691
G1 X157.542 Y152.145 E11.75738
G1 X156.421 Y152.215 E11.79473
G1 X156.42 Y147.686 E11.94537
G0 F13500 X155.939 Y149.151
;TYPE:SUPPORT-INTERFACE
G1 F1054.8 X154.056 Y147.268 E12.03394
G0 F13500 X154.057 Y148.018
G1 F1054.8 X154.869 Y147.206 E12.07213
G0 F13500 X155.938 Y149.531
G1 F1054.8 X154.057 Y151.412 E12.16061
G0 F13500 X154.056 Y150.662
G1 F1054.8 X155.94 Y152.546 E12.24923
G1 F1500 E5.74923
G0 F13500 X155.993 Y153.388
G0 X154.438 Y153.485
G0 X146.702 Y153.47
G0 X146.416 Y153.23
G0 X145.912 Y152.701
G1 F1500 E12.24923
G1 F1054.8 X144.058 Y150.847 E12.33643
G0 F13500 X144.058 Y151.228
G1 F1054.8 X145.941 Y149.345 E12.425
G1 X145.942 Y149.336
G1 X144.058 Y147.452 E12.51362
G0 F13500 X144.058 Y147.834
G1 F1054.8 X144.688 Y147.204 E12.54325
G1 F1500 E6.04325
;MESH:ball_cut_sensor_holder.stl
G0 F13500 X147.156 Y147.62
G0 X147.527 Y151.854
G0 X152.658 Y152.071
;TYPE:WALL-INNER
G1 F1500 E12.54325
G1 F1054.8 X152.502 Y152.042 E12.54853
G1 X150.837 Y151.89 E12.60414
G1 X149.163 Y151.89 E12.65982
G1 X147.497 Y152.041 E12.71546
G1 X147.343 Y152.07 E12.72067
G1 X147.342 Y147.806 E12.86249
G1 X152.657 Y147.806 E13.03927
G1 X152.658 Y152.071 E13.18112
G0 F13500 X153.058 Y152.551
;TYPE:WALL-OUTER
G1 F1054.8 X152.448 Y152.439 E13.20175
G1 X150.819 Y152.29 E13.25616
G1 X149.181 Y152.29 E13.31064
G1 X147.551 Y152.438 E13.36507
G1 X146.943 Y152.55 E13.38564
G1 X146.942 Y147.406 E13.55673
G1 X153.057 Y147.406 E13.76011
G1 X153.058 Y152.551 E13.93124
G0 F13500 X152.794 Y152.235
G0 X152.242 Y151.907
G0 X152.268 Y151.629
;TYPE:SKIN
G1 F1054.8 X150.855 Y151.5 E13.97843
G1 X149.145 Y151.5 E14.0353
G1 X147.733 Y151.628 E14.08246
G1 X147.732 Y148.196 E14.19661
G1 X152.267 Y148.196 E14.34744
G1 X152.268 Y151.629 E14.46162
G0 F13500 X152.242 Y151.907
G0 X152.548 Y148.713
G0 X152.107 Y148.713
G1 F1054.8 X151.75 Y148.355 E14.47844
G0 F13500 X151.184 Y148.355
G1 F1054.8 X152.107 Y149.278 E14.52185
G0 F13500 X152.107 Y149.844
G1 F1054.8 X150.618 Y148.355 E14.59189
G0 F13500 X150.053 Y148.355
G1 F1054.8 X152.107 Y150.41 E14.68853
G0 F13500 X152.107 Y150.975
G1 F1054.8 X149.487 Y148.355 E14.81177
G0 F13500 X148.921 Y148.355
G1 F1054.8 X152.01 Y151.444 E14.95706
G0 F13500 X151.387 Y151.387
G1 F1054.8 X148.355 Y148.355 E15.09968
G0 F13500 X147.891 Y148.457
G1 F1054.8 X150.773 Y151.339 E15.23524
G0 F13500 X150.207 Y151.339
G1 F1054.8 X147.891 Y149.022 E15.3442
G0 F13500 X147.891 Y149.588
G1 F1054.8 X149.642 Y151.339 E15.42656
G0 F13500 X149.081 Y151.344
G1 F1054.8 X147.892 Y150.154 E15.48251
G0 F13500 X147.892 Y150.72
G1 F1054.8 X148.563 Y151.391 E15.51408
G0 F13500 X148.044 Y151.438
G1 F1054.8 X147.892 Y151.286 E15.52122
G0 F13500 X147.543 Y151.287
G1 F1500 E9.02122
;MESH:NONMESH
G0 F300 X147.543 Y151.287 Z0.8
G0 F13500 X147.452 Y151.286
G0 X147.156 Y147.62
G0 X146.581 Y146.577
G0 X142.164 Y146.541
G0 X142.164 Y147.406
;TIME_ELAPSED:50.891616
;LAYER:3
M106 S255
;TYPE:SUPPORT
G1 F1500 E15.52122
G1 F1114.7 X145.179 Y147.406 E15.6215
G1 X145.18 Y150.913 E15.73815
G1 X145.178 Y152.567 E15.79316
G1 X142.467 Y152.428 E15.88345
G1 X142.273 Y152.446 E15.88993
G1 X142.164 Y152.379 E15.89418
G1 X142.164 Y147.406 E16.05958
G0 F13500 X144 Y147.686
G1 F1114.7 X142.444 Y147.686 E16.11134
G1 X142.444 Y152.149 E16.25978
G1 X142.461 Y152.148 E16.26034
G1 X144 Y152.226 E16.3116
G1 X144 Y147.686 E16.4626
G1 X144.899 Y147.686 E16.4925
G1 X144.9 Y150.913 E16.59983
G1 X144.898 Y152.272 E16.64503
G1 X144 Y152.226 E16.67494
G1 F1500 E10.17494
G0 F13500 X143.941 Y153.369
G0 X146.137 Y153.452
G0 X153.863 Y153.452
G0 X154.089 Y153.263
G0 X154.822 Y152.579
G1 F1500 E16.67494
G1 F1114.7 X154.82 Y147.406 E16.84699
G1 X157.823 Y147.406 E16.94687
G1 X157.835 Y147.418 E16.94744
G1 X157.836 Y152.378 E17.11241
G1 X157.729 Y152.445 E17.11661
G1 X157.537 Y152.426 E17.12302
G1 X154.869 Y152.592 E17.21193
G1 X154.822 Y152.579 E17.21355
G0 F13500 X156 Y152.242
G1 F1114.7 X155.102 Y152.297 E17.24348
G1 X155.1 Y147.686 E17.39684
G1 X156 Y147.686 E17.42677
G1 X156 Y152.242 E17.57831
G1 X157.543 Y152.145 E17.62973
G1 X157.556 Y152.146 E17.63016
G1 X157.555 Y147.686 E17.7785
G1 X156 Y147.686 E17.83022
G1 F1500 E11.33022
;MESH:ball_cut_sensor_holder.stl
G0 F13500 X153.42 Y147.687
G0 X153.222 Y152.052
;TYPE:WALL-INNER
G1 F1500 E17.83022
G1 F1114.7 X152.52 Y151.922 E17.85397
G1 X150.843 Y151.77 E17.90997
G1 X149.157 Y151.77 E17.96605
G1 X147.48 Y151.922 E18.02206
G1 X146.779 Y152.052 E18.04577
G1 X146.779 Y147.806 E18.18699
G1 X153.22 Y147.806 E18.40122
G1 X153.222 Y152.052 E18.54244
G0 F13500 X153.622 Y152.532
;TYPE:WALL-OUTER
G1 F1114.7 X152.466 Y152.319 E18.58154
G1 X150.825 Y152.17 E18.63634
G1 X149.175 Y152.17 E18.69122
G1 X147.534 Y152.319 E18.74603
G1 X146.378 Y152.532 E18.78512
G1 X146.38 Y150.914 E18.83894
G1 X146.379 Y147.406 E18.95561
G1 X153.62 Y147.406 E19.19645
G1 X153.622 Y152.532 E19.36694
G0 F13500 X153.359 Y152.216
G0 X153.112 Y151.583
G0 X152.832 Y151.583
;TYPE:SKIN
G1 F1114.7 X152.573 Y151.536 E19.3757
G1 X150.861 Y151.38 E19.43287
G1 X149.139 Y151.38 E19.49015
G1 X147.427 Y151.536 E19.54733
G1 X147.169 Y151.583 E19.55605
G1 X147.169 Y148.196 E19.6687
G1 X152.83 Y148.196 E19.85699
G1 X152.832 Y151.583 E19.96964
G0 F13500 X152.411 Y151.361
G1 F1114.7 X152.67 Y151.102 E19.98182
G0 F13500 X152.67 Y150.536
G1 F1114.7 X151.892 Y151.314 E20.01842
G0 F13500 X151.375 Y151.266
G1 F1114.7 X152.67 Y149.971 E20.07933
G0 F13500 X152.67 Y149.406
G1 F1114.7 X150.856 Y151.219 E20.16463
G0 F13500 X150.29 Y151.219
G1 F1114.7 X152.669 Y148.841 E20.27651
G0 F13500 X152.589 Y148.355
G1 F1114.7 X149.724 Y151.219 E20.41124
G0 F13500 X149.159 Y151.219
G1 F1114.7 X152.023 Y148.355 E20.54596
G0 F13500 X151.458 Y148.355
G1 F1114.7 X148.539 Y151.274 E20.68326
G0 F13500 X147.916 Y151.33
G1 F1114.7 X150.892 Y148.355 E20.82322
G0 F13500 X150.326 Y148.355
G1 F1114.7 X147.329 Y151.352 E20.96419
G0 F13500 X147.329 Y150.786
G1 F1114.7 X149.76 Y148.355 E21.07853
G0 F13500 X149.195 Y148.355
G1 F1114.7 X147.329 Y150.221 E21.1663
G0 F13500 X147.329 Y149.655
G1 F1114.7 X148.629 Y148.355 E21.22745
G0 F13500 X148.063 Y148.355
G1 F1114.7 X147.329 Y149.089 E21.26198
