;FLAVOR:Marlin
;TIME:14813
;Filament used: 16.3075m
;Layer height: 0.2
;MINX:17.7
;MINY:116.835
;MINZ:0.2
;MAXX:282.3
;MAXY:183.165
;MAXZ:10
;Generated with Cura_SteamEngine 4.13.1
M140 S60
M105
M190 S60
M104 S200
M105
M109 S200
M82 ;absolute extrusion mode

; Script based on an original created by tjjfvi (https://github.com/tjjfvi)
; An up-to-date version of the tjjfvi's original script can be found
; here:  https://csi.t6.fyi/
; Note - This script will not work in Cura V4.2 and above!
; max_feedrate_z_override = {max_feedrate_z_override}
; retraction_amount = 6.5
; retraction_hop = 0.2
; retraction_hop_enabled = False
; retraction_prime_speed = 25
; retraction_retract_speed = 25
; retraction_speed = 25
; speed_travel = 225.0
; retraction_enable = True
; layer_height = 0.2
; smooth_spiralized_contours = True


; Ender 3 Custom Start G-code
G92 E0 ; Reset Extruder
G28 ; Home all axes
G1 Z2.0 F3000 ; Move Z Axis up little to prevent scratching of Heat Bed
G1 X0.1 Y20 Z0.3 F5000.0 ; Move to start position
G1 X0.1 Y200.0 Z0.3 F1500.0 E15 ; Draw the first line
G1 X0.4 Y200.0 Z0.3 F5000.0 ; Move to side a little
G1 X0.4 Y20 Z0.3 F1500.0 E30 ; Draw the second line
G92 E0 ; Reset Extruder
G1 Z2.0 F3000 ; Move Z Axis up little to prevent scratching of Heat Bed
G1 X5 Y20 Z0.3 F5000.0 ; Move over to prevent blob squish
G92 E0
G92 E0
G1 F1500 E-6.5
;LAYER_COUNT:50
;LAYER:0
M107
;MESH:armcap.STL
G0 F6000 X109.4 Y138.6 Z0.2
;TYPE:WALL-INNER
G1 F1500 E0
G1 F1200 X200.6 Y138.6 E3.03332
G1 X200.6 Y127.9 E3.38921
G1 X109.4 Y127.9 E6.42253
G1 X109.4 Y138.6 E6.77842
G0 F6000 X109.8 Y138.2
;TYPE:WALL-OUTER
G1 F1200 X200.2 Y138.2 E9.78513
G1 X200.2 Y128.3 E10.11441
G1 X109.8 Y128.3 E13.12112
G1 X109.8 Y138.2 E13.4504
G1 F1500 E6.9504
G0 F6000 X109.5 Y138.2
G0 X109.23 Y136.673
G0 X110.665 Y136.673
G0 X109.204 Y145.915
G0 X109.204 Y144.46
G0 X99.572 Y144.822
G0 X99.4 Y155.35
;TYPE:WALL-INNER
G1 F1500 E13.4504
G1 F1200 X215.6 Y155.35 E17.31523
G1 X215.6 Y144.65 E17.67111
G1 X99.4 Y144.65 E21.53594
G1 X99.4 Y155.35 E21.89182
G0 F6000 X99.8 Y154.95
;TYPE:WALL-OUTER
G1 F1200 X215.2 Y154.95 E25.73004
G1 X215.2 Y145.05 E26.05932
G1 X99.8 Y145.05 E29.89754
G1 X99.8 Y154.95 E30.22681
G1 F1500 E23.72681
G0 F6000 X99.5 Y154.95
G0 X109.4 Y155.54
G0 X109.4 Y154.085
G0 X110.653 Y162.653
G0 X109.4 Y161.21
G0 X109.4 Y172.1
;TYPE:WALL-INNER
G1 F1500 E30.22681
G1 F1200 X200.6 Y172.1 E33.26014
G1 X200.6 Y161.4 E33.61602
G1 X109.4 Y161.4 E36.64934
G1 X109.4 Y172.1 E37.00523
G0 F6000 X109.8 Y171.7
;TYPE:WALL-OUTER
G1 F1200 X200.2 Y171.7 E40.01194
G1 X200.2 Y161.8 E40.34122
G1 X109.8 Y161.8 E43.34793
G1 X109.8 Y171.7 E43.67721
G1 F1500 E37.17721
G0 F6000 X109.5 Y171.7
G0 X115.33 Y172.27
G0 X115.33 Y170.835
G0 X200.79 Y183.165
G0 X200.79 Y181.69
G0 X249.982 Y181.9
;TYPE:WALL-INNER
G1 F1500 E43.67721
G1 F1200 X50.018 Y181.9 E50.32804
G1 X44.463 Y181.414 E50.5135
G1 X39.094 Y179.976 E50.69837
G1 X34.051 Y177.624 E50.88345
G1 X29.493 Y174.432 E51.06853
G1 X25.568 Y170.507 E51.25315
G1 X22.376 Y165.949 E51.43822
G1 X20.024 Y160.906 E51.6233
G1 X18.586 Y155.537 E51.80817
G1 X18.101 Y150 E51.99303
G1 X18.586 Y144.463 E52.1779
G1 X20.024 Y139.094 E52.36277
G1 X22.376 Y134.051 E52.54785
G1 X25.568 Y129.493 E52.73292
G1 X29.493 Y125.568 E52.91754
G1 X34.051 Y122.376 E53.10262
G1 X39.094 Y120.024 E53.2877
G1 X44.463 Y118.586 E53.47256
G1 X50.018 Y118.1 E53.65803
G1 X249.982 Y118.1 E60.30886
G1 X255.537 Y118.586 E60.49433
G1 X260.906 Y120.024 E60.67919
G1 X265.949 Y122.376 E60.86427
G1 X270.507 Y125.568 E61.04935
G1 X274.432 Y129.493 E61.23397
G1 X277.624 Y134.051 E61.41905
G1 X279.976 Y139.094 E61.60412
G1 X281.414 Y144.463 E61.78899
G1 X281.899 Y150 E61.97386
G1 X281.414 Y155.537 E62.15872
G1 X279.976 Y160.906 E62.34359
G1 X277.624 Y165.949 E62.52867
G1 X274.432 Y170.507 E62.71374
G1 X270.507 Y174.432 E62.89836
G1 X265.949 Y177.624 E63.08344
G1 X260.906 Y179.976 E63.26852
G1 X255.537 Y181.414 E63.45339
G1 X249.982 Y181.9 E63.63885
G0 F6000 X249.994 Y182.3
;TYPE:WALL-OUTER
G1 F1200 X50.006 Y182.3 E70.29048
G1 X44.392 Y181.809 E70.47791
G1 X38.953 Y180.352 E70.66519
G1 X33.852 Y177.973 E70.8524
G1 X29.234 Y174.739 E71.03991
G1 X25.261 Y170.766 E71.22679
G1 X22.027 Y166.148 E71.4143
G1 X19.648 Y161.047 E71.60151
G1 X18.191 Y155.608 E71.78879
G1 X17.7 Y150 E71.97602
G1 X18.191 Y144.392 E72.16326
G1 X19.648 Y138.953 E72.35054
G1 X22.027 Y133.852 E72.53775
G1 X25.261 Y129.234 E72.72526
G1 X29.234 Y125.261 E72.91214
G1 X33.852 Y122.027 E73.09965
G1 X38.953 Y119.648 E73.28685
G1 X44.392 Y118.191 E73.47414
G1 X50.006 Y117.7 E73.66157
G1 X249.994 Y117.7 E80.3132
G1 X255.608 Y118.191 E80.50063
G1 X261.047 Y119.648 E80.68791
G1 X266.148 Y122.027 E80.87512
G1 X270.766 Y125.261 E81.06263
G1 X274.739 Y129.234 E81.24951
G1 X277.973 Y133.852 E81.43702
G1 X280.352 Y138.953 E81.62423
G1 X281.809 Y144.392 E81.81151
G1 X282.3 Y150 E81.99874
G1 X281.809 Y155.608 E82.18598
G1 X280.352 Y161.047 E82.37326
G1 X277.973 Y166.148 E82.56046
G1 X274.739 Y170.766 E82.74798
G1 X270.766 Y174.739 E82.93486
G1 X266.148 Y177.973 E83.12237
G1 X261.047 Y180.352 E83.30957
G1 X255.608 Y181.809 E83.49685
G1 X249.994 Y182.3 E83.68429
G0 F6000 X249.975 Y181.861
G0 X249.97 Y181.51
;TYPE:SKIN
G1 F1200 X50.03 Y181.51 E90.33432
G1 X44.536 Y181.03 E90.51775
G1 X39.224 Y179.607 E90.70065
G1 X34.251 Y177.288 E90.88316
G1 X29.737 Y174.126 E91.06646
G1 X25.874 Y170.263 E91.24817
G1 X22.712 Y165.749 E91.43147
G1 X20.393 Y160.776 E91.61398
G1 X18.97 Y155.464 E91.79688
G1 X18.491 Y150 E91.97931
G1 X18.97 Y144.536 E92.16174
G1 X20.393 Y139.224 E92.34465
G1 X22.712 Y134.251 E92.52715
G1 X25.874 Y129.737 E92.71046
G1 X29.737 Y125.874 E92.89216
G1 X34.251 Y122.712 E93.07547
G1 X39.224 Y120.393 E93.25797
G1 X44.536 Y118.97 E93.44088
G1 X50.03 Y118.49 E93.62431
G1 X249.97 Y118.49 E100.27434
G1 X255.464 Y118.97 E100.45777
G1 X260.776 Y120.393 E100.64067
G1 X265.749 Y122.712 E100.82318
G1 X270.263 Y125.874 E101.00648
G1 X274.126 Y129.737 E101.18819
G1 X277.288 Y134.251 E101.37149
G1 X279.607 Y139.224 E101.554
G1 X281.03 Y144.536 E101.7369
G1 X281.509 Y150 E101.91933
G1 X281.03 Y155.464 E102.10176
G1 X279.607 Y160.776 E102.28467
G1 X277.288 Y165.749 E102.46717
G1 X274.126 Y170.263 E102.65048
G1 X270.263 Y174.126 E102.83218
G1 X265.749 Y177.288 E103.01549
G1 X260.776 Y179.607 E103.19799
G1 X255.464 Y181.03 E103.3809
G1 X249.97 Y181.51 E103.56433
G1 F1500 E97.06433
G0 F6000 X249.97 Y181.79
G0 X215.71 Y181.69
G0 X215.71 Y183.165
G0 X214.347 Y154.097
G0 X215.71 Y155.54
G1 F1500 E103.56433
G0 F6000 X215.99 Y155.74
G1 F1200 X215.99 Y144.26 E103.94615
G1 X99.01 Y144.26 E107.83692
G1 X99.01 Y155.74 E108.21875
G1 X215.99 Y155.74 E112.10952
G1 F1500 E105.60952
G0 F6000 X215.71 Y155.49
G0 X200.71 Y155.54
G0 X200.71 Y154.085
G0 X199.347 Y162.653
G0 X200.71 Y161.21
G0 X200.71 Y172.24
G1 F1500 E112.10952
G0 F6000 X200.99 Y172.49
G1 F1200 X200.99 Y161.01 E112.49135
G1 X109.01 Y161.01 E115.55062
G1 X109.01 Y172.49 E115.93244
G1 X200.99 Y172.49 E118.99171
G1 F1500 E112.49171
G0 F6000 X200.71 Y172.24
G0 X200.71 Y161.21
G0 X199.347 Y162.653
G0 X199.347 Y154.165
G0 X214.347 Y154.097
G0 X214.347 Y145.903
G0 X199.347 Y145.835
G0 X199.347 Y137.347
G0 X200.71 Y138.79
G1 F1500 E118.99171
G0 F6000 X200.99 Y138.99
G1 F1200 X200.99 Y127.51 E119.37354
G1 X109.01 Y127.51 E122.4328
G1 X109.01 Y138.99 E122.81463
G1 X200.99 Y138.99 E125.8739
G1 F1500 E119.3739
G0 F6000 X200.71 Y138.74
G0 X200.77 Y136.238
G0 X199.335 Y136.238
G0 X266.466 Y121.221
G0 X265.844 Y122.559
G0 X268.818 Y124.521
G1 F1500 E125.8739
G0 F6000 X268.564 Y124.88
G1 F1200 X275.12 Y131.436 E126.18227
G0 F6000 X275.481 Y131.184
G0 X276.802 Y133.071
G0 X276.441 Y133.323
G1 F1200 X266.676 Y123.558 E126.64159
G0 F6000 X266.929 Y123.198
G0 X265.359 Y122.223
G0 X265.173 Y122.62
G1 F1200 X277.379 Y134.826 E127.21572
G0 F6000 X277.777 Y134.641
G0 X278.271 Y135.701
G0 X277.873 Y135.886
G1 F1200 X264.113 Y122.126 E127.86295
G0 F6000 X264.299 Y121.729
G0 X263.238 Y121.234
G0 X263.052 Y121.631
G1 F1200 X278.368 Y136.947 E128.58336
G0 F6000 X278.766 Y136.762
G0 X279.261 Y137.822
G0 X278.863 Y138.007
G1 F1200 X261.992 Y121.137 E129.3769
G0 F6000 X262.178 Y120.74
G0 X261.118 Y120.246
G0 X260.932 Y120.642
G1 F1200 X279.358 Y139.068 E130.2436
G0 F6000 X279.622 Y139.898
G1 F1200 X260.102 Y120.377 E131.16179
G0 F6000 X259.329 Y120.17
G1 F1200 X279.829 Y140.671 E132.12607
G0 F6000 X280.036 Y141.443
G1 F1200 X258.557 Y119.964 E133.13637
G0 F6000 X257.784 Y119.757
G1 F1200 X280.243 Y142.216 E134.19278
G0 F6000 X280.45 Y142.989
G1 F1200 X257.011 Y119.549 E135.2953
G0 F6000 X256.238 Y119.342
G1 F1200 X280.657 Y143.761 E136.44389
G0 F6000 X280.864 Y144.534
G1 F1200 X255.465 Y119.135 E137.63859
G0 F6000 X254.839 Y119.075
G1 F1200 X280.925 Y145.16 E138.86557
G0 F6000 X280.979 Y145.78
G1 F1200 X254.22 Y119.021 E140.12423
G0 F6000 X253.6 Y118.967
G1 F1200 X281.033 Y146.4 E141.41459
G0 F6000 X281.087 Y147.02
G1 F1200 X252.98 Y118.913 E142.73666
G0 F6000 X252.36 Y118.858
G1 F1200 X281.142 Y147.64 E144.09048
G0 F6000 X281.195 Y148.259
G1 F1200 X251.741 Y118.805 E145.4759
G0 F6000 X251.121 Y118.75
G1 F1200 X281.25 Y148.879 E146.89308
G0 F6000 X281.304 Y149.5
G1 F1200 X250.501 Y118.697 E148.34196
G0 F6000 X249.888 Y118.649
G1 F1200 X281.339 Y150.1 E149.82132
G0 F6000 X281.294 Y150.62
G1 F1200 X249.323 Y118.649 E151.32513
G0 F6000 X248.757 Y118.649
G1 F1200 X281.248 Y151.14 E152.85341
G0 F6000 X281.202 Y151.66
G1 F1200 X248.191 Y118.649 E154.40615
G0 F6000 X247.625 Y118.649
G1 F1200 X281.157 Y152.181 E155.98339
G0 F6000 X281.112 Y152.701
G1 F1200 X247.06 Y118.649 E157.58509
G0 F6000 X246.494 Y118.649
G1 F1200 X281.066 Y153.221 E159.21125
G0 F6000 X281.021 Y153.741
G1 F1200 X245.928 Y118.649 E160.8619
G0 F6000 X245.363 Y118.649
G1 F1200 X280.975 Y154.262 E162.537
G0 F6000 X280.929 Y154.782
G1 F1200 X244.797 Y118.649 E164.23656
G0 F6000 X244.231 Y118.649
G1 F1200 X280.884 Y155.302 E165.96061
G0 F6000 X280.784 Y155.767
G1 F1200 X243.666 Y118.649 E167.70652
G0 F6000 X243.1 Y118.649
G1 F1200 X280.664 Y156.213 E169.47342
G0 F6000 X280.544 Y156.659
G1 F1200 X242.534 Y118.649 E171.26129
G0 F6000 X241.969 Y118.649
G1 F1200 X280.425 Y157.105 E173.07014
G0 F6000 X280.305 Y157.551
G1 F1200 X241.403 Y118.649 E174.89997
G0 F6000 X240.837 Y118.649
G1 F1200 X280.186 Y157.998 E176.75083
G0 F6000 X280.066 Y158.444
G1 F1200 X240.272 Y118.649 E178.62264
G0 F6000 X239.706 Y118.649
G1 F1200 X279.947 Y158.89 E180.51546
G0 F6000 X279.827 Y159.336
G1 F1200 X239.14 Y118.649 E182.42925
G0 F6000 X238.574 Y118.649
G1 F1200 X279.708 Y159.782 E184.36404
G0 F6000 X279.588 Y160.228
G1 F1200 X238.009 Y118.649 E186.31979
G0 F6000 X237.443 Y118.649
G1 F1200 X279.469 Y160.675 E188.29656
G0 F6000 X279.295 Y161.066
G1 F1200 X236.877 Y118.649 E190.29175
G0 F6000 X236.312 Y118.649
G1 F1200 X279.115 Y161.452 E192.30508
G0 F6000 X278.935 Y161.838
G1 F1200 X235.746 Y118.649 E194.33655
G0 F6000 X235.18 Y118.649
G1 F1200 X278.755 Y162.224 E196.38619
G0 F6000 X278.575 Y162.609
G1 F1200 X234.615 Y118.649 E198.45393
G0 F6000 X234.049 Y118.649
G1 F1200 X278.395 Y162.995 E200.53983
G0 F6000 X278.215 Y163.381
G1 F1200 X233.483 Y118.649 E202.64389
G0 F6000 X232.918 Y118.649
G1 F1200 X278.035 Y163.767 E204.76608
G0 F6000 X277.855 Y164.152
G1 F1200 X232.352 Y118.649 E206.9064
G0 F6000 X231.786 Y118.649
G1 F1200 X277.675 Y164.538 E209.06488
G0 F6000 X277.495 Y164.924
G1 F1200 X231.221 Y118.649 E211.24149
G0 F6000 X230.655 Y118.649
G1 F1200 X277.315 Y165.31 E213.43625
G0 F6000 X277.132 Y165.692
G1 F1200 X230.089 Y118.649 E215.64901
G0 F6000 X229.524 Y118.649
G1 F1200 X276.898 Y166.024 E217.87736
G0 F6000 X276.666 Y166.357
G1 F1200 X228.958 Y118.649 E220.1214
G0 F6000 X228.392 Y118.649
G1 F1200 X276.432 Y166.689 E222.38106
G0 F6000 X276.2 Y167.022
G1 F1200 X227.826 Y118.649 E224.6564
G0 F6000 X227.261 Y118.649
G1 F1200 X275.966 Y167.355 E226.94735
G0 F6000 X275.734 Y167.688
G1 F1200 X226.695 Y118.649 E229.254
G0 F6000 X226.129 Y118.649
G1 F1200 X275.5 Y168.02 E231.57626
G0 F6000 X275.268 Y168.353
G1 F1200 X225.564 Y118.649 E233.91418
G0 F6000 X224.998 Y118.649
G1 F1200 X275.034 Y168.685 E236.26772
G0 F6000 X274.802 Y169.019
G1 F1200 X224.432 Y118.649 E238.63697
G0 F6000 X223.867 Y118.649
G1 F1200 X274.568 Y169.351 E241.02182
G0 F6000 X274.336 Y169.684
G1 F1200 X223.301 Y118.649 E243.42235
G0 F6000 X222.735 Y118.649
G1 F1200 X274.102 Y170.016 E245.83849
G0 F6000 X273.841 Y170.321
G1 F1200 X222.17 Y118.649 E248.26896
G0 F6000 X221.604 Y118.649
G1 F1200 X273.559 Y170.604 E250.71276
G0 F6000 X273.276 Y170.887
G1 F1200 X221.038 Y118.649 E253.16988
G0 F6000 X220.473 Y118.649
G1 F1200 X272.993 Y171.17 E255.64028
G0 F6000 X272.71 Y171.452
G1 F1200 X219.907 Y118.649 E258.12397
G0 F6000 X219.341 Y118.649
G1 F1200 X272.427 Y171.735 E260.62098
G0 F6000 X272.144 Y172.018
G1 F1200 X218.776 Y118.649 E263.13127
G0 F6000 X218.21 Y118.649
G1 F1200 X271.862 Y172.301 E265.65489
G0 F6000 X271.579 Y172.584
G1 F1200 X217.644 Y118.649 E268.19183
G0 F6000 X217.078 Y118.649
G1 F1200 X271.296 Y172.867 E270.74208
G0 F6000 X271.013 Y173.149
G1 F1200 X216.513 Y118.649 E273.30559
G0 F6000 X215.947 Y118.649
G1 F1200 X270.73 Y173.432 E275.88242
G0 F6000 X270.447 Y173.715
G1 F1200 X215.381 Y118.649 E278.47255
G0 F6000 X214.816 Y118.649
G1 F1200 X270.164 Y173.998 E281.07598
G0 F6000 X269.831 Y174.231
G1 F1200 X214.25 Y118.649 E283.69036
G0 F6000 X213.684 Y118.649
G1 F1200 X269.499 Y174.464 E286.31573
G0 F6000 X269.166 Y174.697
G1 F1200 X213.119 Y118.649 E288.95203
G0 F6000 X212.553 Y118.649
G1 F1200 X268.834 Y174.93 E291.59931
G0 F6000 X268.501 Y175.163
G1 F1200 X211.987 Y118.649 E294.25756
G0 F6000 X211.422 Y118.649
G1 F1200 X268.168 Y175.396 E296.92674
G0 F6000 X267.835 Y175.629
G1 F1200 X210.856 Y118.649 E299.60688
G0 F6000 X210.29 Y118.649
G1 F1200 X267.503 Y175.862 E302.29801
G0 F6000 X267.17 Y176.095
G1 F1200 X209.725 Y118.649 E305.00007
G0 F6000 X209.159 Y118.649
G1 F1200 X266.838 Y176.328 E307.71311
G0 F6000 X266.505 Y176.561
G1 F1200 X208.593 Y118.649 E310.43711
G0 F6000 X208.027 Y118.649
G1 F1200 X266.172 Y176.794 E313.17207
G0 F6000 X265.84 Y177.027
G1 F1200 X207.462 Y118.649 E315.918
G0 F6000 X206.896 Y118.649
G1 F1200 X265.481 Y177.234 E318.67366
G0 F6000 X265.096 Y177.415
G1 F1200 X206.33 Y118.649 E321.43783
G0 F6000 X205.765 Y118.649
G1 F1200 X264.71 Y177.594 E324.21042
G0 F6000 X264.325 Y177.775
G1 F1200 X205.199 Y118.649 E326.99153
G0 F6000 X204.633 Y118.649
G1 F1200 X263.938 Y177.954 E329.78105
G0 F6000 X263.553 Y178.135
G1 F1200 X204.068 Y118.649 E332.57907
G0 F6000 X203.502 Y118.649
G1 F1200 X263.167 Y178.314 E335.38553
G0 F6000 X262.781 Y178.494
G1 F1200 X202.936 Y118.649 E338.20045
G0 F6000 X202.371 Y118.649
G1 F1200 X262.396 Y178.674 E341.02384
G0 F6000 X262.009 Y178.854
G1 F1200 X201.805 Y118.649 E343.85568
G0 F6000 X201.239 Y118.649
G1 F1200 X261.624 Y179.034 E346.696
G0 F6000 X261.238 Y179.214
G1 F1200 X200.674 Y118.649 E349.54477
G0 F6000 X200.108 Y118.649
G1 F1200 X260.853 Y179.394 E352.40203
G0 F6000 X260.427 Y179.534
G1 F1200 X199.542 Y118.649 E355.26587
G0 F6000 X198.977 Y118.649
G1 F1200 X259.981 Y179.653 E358.13531
G0 F6000 X259.535 Y179.773
G1 F1200 X198.411 Y118.649 E361.0104
G0 F6000 X197.845 Y118.649
G1 F1200 X259.088 Y179.892 E363.89108
G0 F6000 X258.642 Y180.012
G1 F1200 X197.279 Y118.649 E366.77741
G0 F6000 X196.714 Y118.649
G1 F1200 X258.197 Y180.132 E369.66938
G0 F6000 X257.751 Y180.252
G1 F1200 X196.148 Y118.649 E372.567
G0 F6000 X195.582 Y118.649
G1 F1200 X257.304 Y180.371 E375.47021
G0 F6000 X256.858 Y180.491
G1 F1200 X195.017 Y118.649 E378.37905
G0 F6000 X194.451 Y118.649
G1 F1200 X256.412 Y180.61 E381.2935
G0 F6000 X255.966 Y180.73
G1 F1200 X193.885 Y118.649 E384.2136
G0 F6000 X193.32 Y118.649
G1 F1200 X255.52 Y180.849 E387.1393
G0 F6000 X255.013 Y180.909
G1 F1200 X192.754 Y118.649 E390.0678
G0 F6000 X192.188 Y118.649
G1 F1200 X200.888 Y127.349 E390.47702
G0 F6000 X201.149 Y127.61
G1 F1200 X254.494 Y180.954 E392.98618
G0 F6000 X253.973 Y181
G1 F1200 X201.149 Y128.175 E395.47088
G0 F6000 X201.149 Y128.741
G1 F1200 X253.453 Y181.045 E397.9311
