;FLAVOR:Marlin
;TIME:1219
;Filament used: 0.30466m
;Layer height: 0.2
;MINX:139.119
;MINY:146.893
;MINZ:0.2
;MAXX:160.891
;MAXY:153.135
;MAXZ:22
;Generated with Cura_SteamEngine 4.13.1
M140 S60
M105
M190 S60
M104 S200
M105
M109 S200
M82 ;absolute extrusion mode

; Script based on an original created by tjjfvi (https://github.com/tjjfvi)
; An up-to-date version of the tjjfvi's original script can be found
; here:  https://csi.t6.fyi/
; Note - This script will not work in Cura V4.2 and above!
; max_feedrate_z_override = {max_feedrate_z_override}
; retraction_amount = 6.5
; retraction_hop = 0.2
; retraction_hop_enabled = False
; retraction_prime_speed = 25
; retraction_retract_speed = 25
; retraction_speed = 25
; speed_travel = 225.0
; retraction_enable = True
; layer_height = 0.2
; smooth_spiralized_contours = True


; Ender 3 Custom Start G-code
G92 E0 ; Reset Extruder
G28 ; Home all axes
G1 Z2.0 F3000 ; Move Z Axis up little to prevent scratching of Heat Bed
G1 X0.1 Y20 Z0.3 F5000.0 ; Move to start position
G1 X0.1 Y200.0 Z0.3 F1500.0 E15 ; Draw the first line
G1 X0.4 Y200.0 Z0.3 F5000.0 ; Move to side a little
G1 X0.4 Y20 Z0.3 F1500.0 E30 ; Draw the second line
G92 E0 ; Reset Extruder
G1 Z2.0 F3000 ; Move Z Axis up little to prevent scratching of Heat Bed
G1 X5 Y20 Z0.3 F5000.0 ; Move over to prevent blob squish
G92 E0
G92 E0
G1 F1500 E-6.5
;LAYER_COUNT:110
;LAYER:0
M107
G0 F6000 X156.566 Y148.958 Z0.2
;TYPE:SKIRT
G1 F1500 E0
G1 F1200 X156.635 Y148.958 E0.00229
G1 X156.636 Y150.904 E0.06702
G1 X156.567 Y150.908 E0.06932
G1 X156.566 Y148.958 E0.13418
G0 F6000 X156.166 Y148.558
G1 F1200 X157.035 Y148.558 E0.16308
G1 X157.036 Y151.279 E0.25358
G1 X156.167 Y151.334 E0.28254
G1 X156.166 Y148.558 E0.37487
G0 F6000 X155.766 Y148.158
G1 F1200 X157.435 Y148.158 E0.43038
G1 X157.436 Y151.655 E0.54669
G1 X155.767 Y151.76 E0.60231
G1 X155.766 Y148.158 E0.72212
G0 F6000 X155.366 Y147.758
G1 F1200 X157.82 Y147.758 E0.80374
G1 X157.835 Y147.773 E0.80444
G1 X157.836 Y151.981 E0.9444
G1 X157.722 Y152.051 E0.94885
G1 X157.58 Y152.046 E0.95358
G1 X155.367 Y152.186 E1.02733
G1 X155.366 Y147.758 E1.1746
G1 F1500 E-5.3254
G0 F6000 X155.831 Y147.757
G0 X155.819 Y146.905
G0 X144.18 Y146.905
G0 X144.168 Y147.758
G0 X144.633 Y147.758
G1 F1500 E1.1746
G1 F1200 X144.633 Y152.203 E1.32244
G1 X142.425 Y152.044 E1.39607
G1 X142.275 Y152.052 E1.40107
G1 X142.164 Y151.983 E1.40542
G1 X142.164 Y147.758 E1.54594
G1 X144.633 Y147.758 E1.62806
G0 F6000 X144.233 Y148.158
G1 F1200 X144.233 Y151.773 E1.7483
G1 X142.564 Y151.652 E1.80395
G1 X142.564 Y148.158 E1.92016
G1 X144.233 Y148.158 E1.97567
G0 F6000 X143.833 Y148.558
G1 F1200 X143.833 Y151.343 E2.0683
G1 X142.964 Y151.28 E2.09728
G1 X142.964 Y148.558 E2.18782
G1 X143.833 Y148.558 E2.21672
G0 F6000 X143.433 Y148.958
G1 F1200 X143.433 Y150.913 E2.28174
G1 X143.364 Y150.908 E2.28404
G1 X143.364 Y148.958 E2.3489
G1 X143.433 Y148.958 E2.3512
G1 F1500 E-4.1488
G0 F6000 X145.033 Y147.758
;TYPE:SUPPORT-INTERFACE
G1 F1500 E2.3512
G1 F1200 X147.288 Y147.758 E2.4262
G1 X147.288 Y151.633 E2.55508
G1 X147.291 Y151.821 E2.56133
G1 X147.29 Y152.127 E2.57151
G1 X146.876 Y152.203 E2.58551
G1 X146.479 Y152.156 E2.59881
G1 X145.771 Y152.285 E2.62274
G1 X145.033 Y152.231 E2.64736
G1 X145.033 Y147.758 E2.79613
G1 F1500 E-3.70387
G0 F6000 X145.033 Y146.893
G0 X151.559 Y146.897
G0 X151.843 Y147.2
G0 X152.711 Y147.758
G1 F1500 E2.79613
G1 F1200 X154.966 Y147.758 E2.87113
G1 X154.967 Y152.211 E3.01924
G1 X154.109 Y152.264 E3.04783
G1 X153.518 Y152.155 E3.06782
G1 X153.123 Y152.205 E3.08106
G1 X152.71 Y152.13 E3.09502
G1 X152.711 Y147.758 E3.24043
G0 F6000 X152.91 Y149.165
G1 F1200 X154.118 Y147.957 E3.29726
G0 F6000 X152.909 Y149.515
G1 F1200 X154.766 Y151.372 E3.3846
G0 F6000 X154.765 Y150.704
G1 F1200 X153.515 Y151.954 E3.4434
G1 F1500 E-3.0566
G0 F6000 X153.493 Y153.028
G0 X151.502 Y153.096
G0 X148.499 Y153.096
G0 X148.069 Y152.685
G0 X147.088 Y151.593
G1 F1500 E3.4434
G1 F1200 X146.701 Y151.98 E3.4616
G0 F6000 X147.088 Y150.482
G1 F1200 X145.232 Y148.626 E3.5489
G0 F6000 X145.233 Y150.054
G1 F1200 X147.088 Y148.199 E3.63616
G1 F1500 E-2.86384
;MESH:ball_cut_sensor_holder.stl
G0 F6000 X149.016 Y148.201
G0 X149.379 Y151.588
G0 X150.801 Y151.77
;TYPE:WALL-INNER
G1 F1500 E3.63616
G1 F1200 X149.197 Y151.77 E3.68951
G1 X149.197 Y148.158 E3.80964
G1 X150.802 Y148.158 E3.86302
G1 X150.801 Y151.77 E3.98316
G0 F6000 X151.201 Y152.205
;TYPE:WALL-OUTER
G1 F1200 X150.801 Y152.17 E3.99651
G1 X149.188 Y152.17 E4.05016
G1 X148.798 Y152.205 E4.06319
G1 X148.796 Y151.521 E4.08594
G1 X148.797 Y147.758 E4.21109
G1 X151.202 Y147.758 E4.29108
G1 X151.201 Y152.205 E4.43899
G0 F6000 X150.934 Y151.914
G0 X150.411 Y151.66
G0 X150.411 Y151.38
;TYPE:SKIN
G1 F1200 X149.587 Y151.38 E4.4664
G1 X149.587 Y148.548 E4.56059
G1 X150.412 Y148.548 E4.58803
G1 X150.411 Y151.38 E4.68222
G0 F6000 X150.087 Y151.219
G1 F1200 X149.746 Y150.877 E4.69829
G0 F6000 X150.25 Y150.816
G1 F1200 X149.746 Y150.311 E4.72202
G0 F6000 X150.25 Y150.25
G1 F1200 X149.746 Y149.746 E4.74572
G0 F6000 X150.25 Y149.685
G1 F1200 X149.746 Y149.18 E4.76945
G0 F6000 X149.839 Y148.708
G1 F1200 X150.25 Y149.119 E4.78879
G0 F6000 X150.602 Y149.12
G1 F1500 E-1.71121
;MESH:NONMESH
G0 F300 X150.602 Y149.12 Z0.4
G0 F6000 X150.691 Y149.12
G0 X150.62 Y148.34
G0 X149.011 Y147.972
G0 X148.157 Y147.201
G0 X148.045 Y146.9
G0 X144.18 Y146.905
G0 X142.164 Y147.758
;TIME_ELAPSED:19.448297
;LAYER:1
M106 S85
;TYPE:SUPPORT
G1 F1500 E4.78879
G1 F830.7 X144.241 Y147.758 E4.85787
G1 X144.241 Y152.174 E5.00474
G1 X142.439 Y152.044 E5.06483
G1 X142.275 Y152.053 E5.0703
G1 X142.164 Y151.983 E5.07466
G1 X142.164 Y147.758 E5.21519
G0 F9750 X142.444 Y148.038
G1 F830.7 X143.961 Y148.038 E5.26564
G1 X143.961 Y151.874 E5.39323
G1 X142.444 Y151.764 E5.44382
G1 X142.444 Y148.038 E5.56774
G1 F1500 E-0.93226
G0 F9750 X142.444 Y146.893
G0 X155.758 Y146.893
G0 X155.758 Y147.758
G1 F1500 E5.56774
G1 F830.7 X157.821 Y147.758 E5.63636
G1 X157.835 Y147.772 E5.63702
G1 X157.836 Y151.981 E5.77701
G1 X157.722 Y152.051 E5.78146
G1 X157.591 Y152.046 E5.78582
G1 X155.759 Y152.161 E5.84687
G1 X155.758 Y147.758 E5.99332
G0 F9750 X156.038 Y148.038
G1 F830.7 X157.555 Y148.038 E6.04377
G1 X157.556 Y151.768 E6.16783
G1 X156.039 Y151.863 E6.21839
G1 X156.038 Y148.038 E6.34561
G0 F9750 X155.557 Y148.769
;TYPE:SUPPORT-INTERFACE
G1 F830.7 X154.346 Y147.558 E6.40257
G1 X154.517 Y147.558
G1 X153.309 Y148.766 E6.45939
G0 F9750 X153.309 Y149.915
G1 F830.7 X155.558 Y152.164 E6.56517
G0 F9750 X153.309 Y152.16
G1 F830.7 X155.557 Y149.913 E6.67089
G1 F1500 E0.17089
G0 F9750 X155.753 Y153.027
G0 X154.058 Y153.134
G0 X147.39 Y153.078
G0 X147.194 Y152.899
G0 X146.687 Y150.082
G1 F1500 E6.67089
G1 F830.7 X144.44 Y147.834 E6.77661
G0 F9750 X146.687 Y148.599
G1 F830.7 X144.44 Y150.847 E6.88232
G0 F9750 X144.44 Y151.228
G1 F830.7 X145.619 Y152.407 E6.93778
G0 F9750 X146.301 Y152.38
G1 F830.7 X146.69 Y151.991 E6.95608
;MESH:ball_cut_sensor_holder.stl
G0 F9750 X147.904 Y151.953
G0 X148.09 Y151.748
;TYPE:WALL-INNER
G1 F830.7 X148.088 Y151.629 E6.96003
G1 X148.088 Y148.158 E7.07548
G1 X151.911 Y148.158 E7.20263
G1 X151.91 Y151.748 E7.32204
G1 X150.826 Y151.649 E7.35824
G1 X149.174 Y151.649 E7.41319
G1 X148.09 Y151.748 E7.44939
G0 F9750 X147.69 Y152.186
;TYPE:WALL-OUTER
G1 F830.7 X147.691 Y151.822 E7.4615
G1 X147.688 Y151.629 E7.46792
G1 X147.688 Y147.758 E7.59667
G1 X152.311 Y147.758 E7.75043
G1 X152.31 Y152.186 E7.89771
G1 X150.808 Y152.049 E7.94787
G1 X149.192 Y152.049 E8.00162
G1 X147.69 Y152.186 E8.05178
G0 F9750 X147.958 Y151.894
G0 X148.198 Y151.321
G0 X148.478 Y151.321
;TYPE:SKIN
G1 F830.7 X148.478 Y148.548 E8.14401
G1 X151.521 Y148.548 E8.24522
G1 X151.52 Y151.321 E8.33745
G1 X150.844 Y151.259 E8.36003
G1 X149.156 Y151.259 E8.41617
G1 X148.478 Y151.321 E8.43882
G0 F9750 X148.198 Y151.321
G0 X148.198 Y148.912
G0 X148.638 Y148.912
G1 F830.7 X148.843 Y148.707 E8.44846
G0 F9750 X149.408 Y148.707
G1 F830.7 X148.638 Y149.478 E8.4847
G0 F9750 X148.638 Y150.043
G1 F830.7 X149.974 Y148.707 E8.54754
G0 F9750 X150.54 Y148.707
G1 F830.7 X148.638 Y150.609 E8.63701
G0 F9750 X148.67 Y151.142
G1 F830.7 X151.105 Y148.707 E8.75154
G0 F9750 X151.359 Y149.019
G1 F830.7 X149.28 Y151.098 E8.84933
G0 F9750 X149.846 Y151.098
G1 F830.7 X151.359 Y149.584 E8.92052
G0 F9750 X151.359 Y150.15
G1 F830.7 X150.412 Y151.098 E8.96509
G0 F9750 X150.966 Y151.109
G1 F830.7 X151.359 Y150.716 E8.98358
G0 F9750 X151.711 Y150.717
G1 F1500 E2.48358
;MESH:NONMESH
G0 F300 X151.711 Y150.717 Z0.6
G0 F9750 X151.8 Y150.717
G0 X151.729 Y148.34
G0 X147.902 Y147.972
G0 X147.327 Y146.929
G0 X142.164 Y146.893
G0 X142.164 Y147.758
;TIME_ELAPSED:33.779262
;LAYER:2
M106 S170
;TYPE:SUPPORT
G1 F1500 E8.98358
G1 F933.3 X145.742 Y147.758 E9.10258
G1 X145.743 Y152.187 E9.24989
G1 X145.478 Y152.263 E9.25906
G1 X142.439 Y152.044 E9.3604
G1 X142.275 Y152.053 E9.36586
G1 X142.164 Y151.983 E9.37023
G1 X142.164 Y147.758 E9.51075
G0 F13500 X144 Y148.038
G1 F933.3 X142.444 Y148.038 E9.5625
G1 X142.444 Y151.764 E9.68643
G1 X144 Y151.875 E9.73832
G1 X144 Y148.038 E9.86593
G1 X145.462 Y148.038 E9.91456
G1 X145.463 Y151.976 E10.04554
G1 X145.449 Y151.98 E10.04602
G1 X144 Y151.875 E10.09434
G1 F1500 E3.59434
G0 F13500 X143.919 Y153.017
G0 X145.572 Y153.135
G0 X153.298 Y153.113
G0 X153.567 Y152.888
G0 X154.257 Y152.185
G1 F1500 E10.09434
G1 F933.3 X154.257 Y147.758 E10.24159
G1 X157.822 Y147.758 E10.36016
G1 X157.835 Y147.771 E10.36077
G1 X157.836 Y151.981 E10.5008
G1 X157.722 Y152.051 E10.50525
G1 X157.591 Y152.046 E10.50961
G1 X154.462 Y152.242 E10.61388
G1 X154.257 Y152.185 E10.62096
G0 F13500 X156 Y151.865
G1 F933.3 X154.537 Y151.956 E10.66971
G1 X154.537 Y148.038 E10.80002
G1 X156 Y148.038 E10.84868
G1 X156 Y151.865 E10.97597
G1 X157.556 Y151.768 E11.02782
G1 X157.555 Y148.038 E11.15188
G1 X156 Y148.038 E11.2036
G1 F1500 E4.7036
;MESH:ball_cut_sensor_holder.stl
G0 F13500 X156 Y146.893
G0 X153.418 Y146.929
G0 X152.837 Y148.038
G0 X152.657 Y151.713
;TYPE:WALL-INNER
G1 F1500 E11.2036
G1 F933.3 X152.487 Y151.681 E11.20936
G1 X150.832 Y151.529 E11.26463
G1 X149.168 Y151.529 E11.31998
G1 X147.512 Y151.68 E11.37529
G1 X147.343 Y151.711 E11.381
G1 X147.342 Y148.158 E11.49917
G1 X152.657 Y148.158 E11.67595
G1 X152.657 Y151.713 E11.79419
G0 F13500 X153.057 Y152.193
;TYPE:WALL-OUTER
G1 F933.3 X152.432 Y152.078 E11.81533
G1 X150.814 Y151.929 E11.86937
G1 X149.186 Y151.929 E11.92352
G1 X147.566 Y152.077 E11.97762
G1 X146.943 Y152.191 E11.99869
G1 X146.942 Y147.758 E12.14613
G1 X153.057 Y147.758 E12.34952
G1 X153.057 Y152.193 E12.49703
G0 F13500 X152.794 Y151.877
G0 X152.241 Y151.547
G0 X152.267 Y151.27
;TYPE:SKIN
G1 F933.3 X150.85 Y151.139 E12.54436
G1 X149.15 Y151.139 E12.6009
G1 X147.733 Y151.269 E12.64823
G1 X147.732 Y148.548 E12.73873
G1 X152.267 Y148.548 E12.88956
G1 X152.267 Y151.27 E12.9801
G0 F13500 X152.241 Y151.547
G0 X152.547 Y149.278
G0 X152.106 Y149.278
G1 F933.3 X151.536 Y148.708 E13.00691
G0 F13500 X150.97 Y148.708
G1 F933.3 X152.106 Y149.843 E13.06032
G0 F13500 X152.106 Y150.409
G1 F933.3 X150.405 Y148.708 E13.14033
G0 F13500 X149.838 Y148.707
G1 F933.3 X152.106 Y150.975 E13.24701
G0 F13500 X151.614 Y151.048
G1 F933.3 X149.273 Y148.707 E13.35712
G0 F13500 X148.707 Y148.707
G1 F933.3 X150.99 Y150.99 E13.46451
G0 F13500 X150.412 Y150.977
G1 F933.3 X148.141 Y148.707 E13.5713
G0 F13500 X147.892 Y149.023
G1 F933.3 X149.846 Y150.977 E13.66321
G0 F13500 X149.28 Y150.977
G1 F933.3 X147.892 Y149.589 E13.7285
G0 F13500 X147.892 Y150.154
G1 F933.3 X148.751 Y151.013 E13.76891
G0 F13500 X148.232 Y151.061
G1 F933.3 X147.892 Y150.72 E13.78492
G0 F13500 X147.543 Y150.721
G1 F1500 E7.28492
;MESH:NONMESH
G0 F300 X147.543 Y150.721 Z0.8
G0 F13500 X147.452 Y150.72
G0 X147.156 Y147.972
G0 X146.581 Y146.929
G0 X142.164 Y146.893
G0 X142.164 Y147.758
;TIME_ELAPSED:47.652911
;LAYER:3
M106 S255
;TYPE:SUPPORT
G1 F1500 E13.78492
G1 F977.6 X145.179 Y147.758 E13.8852
G1 X145.18 Y152.22 E14.03361
G1 X145.119 Y152.238 E14.03572
G1 X142.44 Y152.044 E14.12506
G1 X142.277 Y152.053 E14.13049
G1 X142.164 Y151.982 E14.13493
G1 X142.164 Y147.758 E14.27542
G0 F13500 X144 Y148.038
G1 F977.6 X142.444 Y148.038 E14.32717
G1 X142.444 Y151.764 E14.4511
G1 X144 Y151.876 E14.50299
G1 X144 Y148.038 E14.63064
G1 X144.899 Y148.038 E14.66054
G1 X144.9 Y151.942 E14.79039
G1 X144 Y151.876 E14.8204
G1 F1500 E8.3204
G0 F13500 X143.919 Y153.017
G0 X145.207 Y153.109
G0 X150.113 Y153.102
G0 X154.591 Y153.051
G0 X154.82 Y152.218
G1 F1500 E14.8204
G1 F977.6 X154.82 Y147.758 E14.96874
G1 X157.823 Y147.758 E15.06862
G1 X157.835 Y147.77 E15.06919
G1 X157.836 Y151.981 E15.20924
G1 X157.722 Y152.051 E15.21369
G1 X157.591 Y152.046 E15.21805
G1 X154.82 Y152.218 E15.3104
G0 F13500 X156 Y151.865
G1 F977.6 X155.1 Y151.92 E15.34039
G1 X155.1 Y148.038 E15.4695
G1 X156 Y148.038 E15.49944
G1 X156 Y151.865 E15.62672
G1 X157.556 Y151.768 E15.67858
G1 X157.555 Y148.038 E15.80264
G1 X156 Y148.038 E15.85435
G1 F1500 E9.35435
;MESH:ball_cut_sensor_holder.stl
G0 F13500 X153.4 Y148.038
G0 X153.22 Y151.693
;TYPE:WALL-INNER
G1 F1500 E15.85435
G1 F977.6 X152.504 Y151.561 E15.87857
G1 X150.837 Y151.409 E15.93425
G1 X149.163 Y151.409 E15.98992
G1 X147.497 Y151.561 E16.04556
G1 X146.78 Y151.693 E16.06981
G1 X146.779 Y148.158 E16.18739
G1 X153.22 Y148.158 E16.40162
G1 X153.22 Y151.693 E16.51919
G0 F13500 X153.62 Y152.174
;TYPE:WALL-OUTER
G1 F977.6 X152.449 Y151.958 E16.55879
G1 X150.819 Y151.809 E16.61323
G1 X149.181 Y151.809 E16.66771
G1 X147.551 Y151.958 E16.72215
G1 X146.38 Y152.173 E16.76175
G1 X146.379 Y147.758 E16.9086
G1 X153.62 Y147.758 E17.14943
G1 X153.62 Y152.174 E17.29631
G0 F13500 X153.357 Y151.858
G0 X152.779 Y151.499
G0 X152.83 Y151.225
;TYPE:SKIN
G1 F977.6 X152.557 Y151.175 E17.30554
G1 X150.855 Y151.019 E17.36239
G1 X149.145 Y151.019 E17.41926
G1 X147.444 Y151.175 E17.47608
G1 X147.17 Y151.225 E17.48534
G1 X147.169 Y148.548 E17.57438
G1 X152.83 Y148.548 E17.76266
G1 X152.83 Y151.225 E17.8517
G0 F13500 X152.223 Y150.984
G1 F977.6 X152.669 Y150.538 E17.87268
G0 F13500 X152.669 Y149.972
G1 F977.6 X151.704 Y150.936 E17.91805
G0 F13500 X151.186 Y150.889
G1 F977.6 X152.669 Y149.406 E17.9878
G0 F13500 X152.669 Y148.841
G1 F977.6 X150.651 Y150.859 E18.08272
G0 F13500 X150.085 Y150.859
G1 F977.6 X152.237 Y148.707 E18.18394
G0 F13500 X151.671 Y148.707
G1 F977.6 X149.519 Y150.859 E18.28517
G0 F13500 X148.935 Y150.877
G1 F977.6 X151.105 Y148.707 E18.38724
G0 F13500 X150.54 Y148.707
G1 F977.6 X148.312 Y150.934 E18.49201
G0 F13500 X147.689 Y150.992
G1 F977.6 X149.974 Y148.707 E18.59949
G0 F13500 X149.408 Y148.707
G1 F977.6 X147.329 Y150.786 E18.69728
G0 F13500 X147.329 Y150.22
G1 F977.6 X148.843 Y148.707 E18.76847
G0 F13500 X148.277 Y148.707
G1 F977.6 X147.329 Y149.655 E18.81306
G0 F13500 X147.329 Y149.089
G1 F977.6 X147.711 Y148.707 E18.83103
G0 F13500 X147.711 Y148.358
G1 F1500 E12.33103
;MESH:NONMESH
G0 F300 X147.711 Y148.358 Z1
G0 F13500 X147.711 Y148.268
G0 X146.593 Y147.972
G0 X146.018 Y146.929
G0 X142.164 Y146.893
G0 X142.164 Y147.758
;TIME_ELAPSED:61.487723
;LAYER:4
;TYPE:SUPPORT
G1 F1500 E18.83103
G1 F1005.6 X144.658 Y147.758 E18.91398
G1 X144.659 Y152.205 E19.06189
G1 X142.442 Y152.044 E19.13582
G1 X142.278 Y152.053 E19.14129
G1 X142.164 Y151.981 E19.14577
G1 X142.164 Y147.758 E19.28623
G0 F13500 X144 Y148.038
G1 F1005.6 X142.444 Y148.038 E19.33798
G1 X142.444 Y151.764 E19.46191
G1 X142.445 Y151.764
G1 X144 Y151.876 E19.51376
G1 X144 Y148.038 E19.64141
G1 X144.378 Y148.038 E19.65399
G1 X144.379 Y151.904 E19.78257
G1 X144 Y151.876 E19.79521
G1 F1500 E13.29521
G0 F13500 X143.919 Y153.017
G0 X144.919 Y153.062
G0 X155.088 Y153.067
G0 X155.341 Y152.186
G1 F1500 E19.79521
G1 F1005.6 X155.341 Y147.758 E19.94249
G1 X157.824 Y147.758 E20.02507
G1 X157.835 Y147.769 E20.02559
G1 X157.836 Y151.981 E20.16568
G1 X157.722 Y152.051 E20.17013
G1 X157.592 Y152.046 E20.17446
G1 X155.341 Y152.186 E20.24947
G0 F13500 X156 Y151.865
G1 F1005.6 X155.621 Y151.888 E20.2621
G1 X155.621 Y148.038 E20.39015
G1 X156 Y148.038 E20.40275
G1 X156 Y151.865 E20.53004
G1 X157.556 Y151.768 E20.58189
