;FLAVOR:Marlin
;TIME:4475
;Filament used: 3.72536m
;Layer height: 0.2
;MINX:122.335
;MINY:114.9
;MINZ:0.2
;MAXX:176.85
;MAXY:185.865
;MAXZ:15
;Generated with Cura_SteamEngine 4.13.1
M140 S60
M105
M190 S60
M104 S200
M105
M109 S200
M82 ;absolute extrusion mode

; Script based on an original created by tjjfvi (https://github.com/tjjfvi)
; An up-to-date version of the tjjfvi's original script can be found
; here:  https://csi.t6.fyi/
; Note - This script will not work in Cura V4.2 and above!
; max_feedrate_z_override = {max_feedrate_z_override}
; retraction_amount = 6.5
; retraction_hop = 0.2
; retraction_hop_enabled = False
; retraction_prime_speed = 25
; retraction_retract_speed = 25
; retraction_speed = 25
; speed_travel = 225.0
; retraction_enable = True
; layer_height = 0.2
; smooth_spiralized_contours = True


; Ender 3 Custom Start G-code
G92 E0 ; Reset Extruder
G28 ; Home all axes
G1 Z2.0 F3000 ; Move Z Axis up little to prevent scratching of Heat Bed
G1 X0.1 Y20 Z0.3 F5000.0 ; Move to start position
G1 X0.1 Y200.0 Z0.3 F1500.0 E15 ; Draw the first line
G1 X0.4 Y200.0 Z0.3 F5000.0 ; Move to side a little
G1 X0.4 Y20 Z0.3 F1500.0 E30 ; Draw the second line
G92 E0 ; Reset Extruder
G1 Z2.0 F3000 ; Move Z Axis up little to prevent scratching of Heat Bed
G1 X5 Y20 Z0.3 F5000.0 ; Move over to prevent blob squish
G92 E0
G92 E0
G1 F1500 E-6.5
;LAYER_COUNT:75
;LAYER:0
M107
;MESH:holder.STL(1)
G0 F6000 X127.594 Y121.263 Z0.2
;TYPE:WALL-INNER
G1 F1500 E0
G1 F1200 X128.037 Y121.141 E0.01528
G1 X128.442 Y120.954 E0.03012
G1 X128.819 Y120.687 E0.04548
G1 X129.138 Y120.367 E0.06051
G1 X129.397 Y119.993 E0.07564
G1 X129.587 Y119.583 E0.09067
G1 X129.704 Y119.151 E0.10556
G1 X129.742 Y118.692 E0.12088
G1 X129.703 Y118.246 E0.13577
G1 X129.581 Y117.803 E0.15105
G1 X129.394 Y117.398 E0.16589
G1 X129.127 Y117.021 E0.18125
G1 X128.807 Y116.702 E0.19628
G1 X128.433 Y116.443 E0.21141
G1 X128.023 Y116.253 E0.22644
G1 X127.591 Y116.136 E0.24133
G1 X127.132 Y116.098 E0.25665
G1 X126.686 Y116.137 E0.27154
G1 X126.243 Y116.259 E0.28682
G1 X125.838 Y116.446 E0.30166
G1 X125.461 Y116.713 E0.31702
G1 X125.142 Y117.033 E0.33205
G1 X124.883 Y117.407 E0.34718
G1 X124.693 Y117.817 E0.36221
G1 X124.577 Y118.248 E0.37706
G1 X124.538 Y118.7 E0.39215
G1 X124.577 Y119.153 E0.40727
G1 X124.699 Y119.597 E0.42258
G1 X124.886 Y120.002 E0.43742
G1 X125.153 Y120.379 E0.45279
G1 X125.473 Y120.698 E0.46781
G1 X125.847 Y120.957 E0.48295
G1 X126.257 Y121.147 E0.49798
G1 X126.689 Y121.264 E0.51286
G1 X127.148 Y121.302 E0.52818
G1 X127.594 Y121.263 E0.54307
G0 F6000 X127.523 Y120.868
;TYPE:WALL-OUTER
G1 F1200 X127.899 Y120.764 E0.55605
G1 X128.241 Y120.606 E0.56858
G1 X128.56 Y120.38 E0.58158
G1 X128.83 Y120.11 E0.59428
G1 X129.049 Y119.794 E0.60707
G1 X129.21 Y119.446 E0.61982
G1 X129.308 Y119.082 E0.63236
G1 X129.341 Y118.693 E0.64534
G1 X129.308 Y118.317 E0.6579
G1 X129.204 Y117.941 E0.67087
G1 X129.046 Y117.599 E0.6834
G1 X128.82 Y117.28 E0.6964
G1 X128.55 Y117.01 E0.7091
G1 X128.234 Y116.791 E0.72189
G1 X127.886 Y116.63 E0.73465
G1 X127.522 Y116.532 E0.74718
G1 X127.133 Y116.499 E0.76017
G1 X126.757 Y116.532 E0.77272
G1 X126.381 Y116.636 E0.7857
G1 X126.039 Y116.794 E0.79823
G1 X125.72 Y117.02 E0.81123
G1 X125.45 Y117.29 E0.82393
G1 X125.231 Y117.606 E0.83672
G1 X125.07 Y117.954 E0.84947
G1 X124.972 Y118.318 E0.86201
G1 X124.939 Y118.7 E0.87476
G1 X124.972 Y119.082 E0.88751
G1 X125.076 Y119.459 E0.90052
G1 X125.234 Y119.801 E0.91305
G1 X125.46 Y120.12 E0.92605
G1 X125.73 Y120.39 E0.93875
G1 X126.046 Y120.609 E0.95154
G1 X126.394 Y120.77 E0.9643
G1 X126.758 Y120.868 E0.97683
G1 X127.147 Y120.901 E0.98982
G1 X127.523 Y120.868 E1.00237
G0 F6000 X127.601 Y121.301
G1 F1500 E-5.49763
G0 F6000 X129.285 Y120.49
G0 X128.164 Y119.555
G0 X147.844 Y119.563
G0 X146.727 Y120.503
G0 X148.266 Y121.044
G0 X149.314 Y121.263
;TYPE:WALL-INNER
G1 F1500 E1.00237
G1 F1200 X149.757 Y121.141 E1.01765
G1 X150.162 Y120.954 E1.03249
G1 X150.539 Y120.687 E1.04786
G1 X150.858 Y120.367 E1.06288
G1 X151.117 Y119.993 E1.07802
G1 X151.307 Y119.583 E1.09305
G1 X151.424 Y119.151 E1.10793
G1 X151.462 Y118.692 E1.12325
G1 X151.423 Y118.246 E1.13814
G1 X151.301 Y117.803 E1.15342
G1 X151.114 Y117.398 E1.16826
G1 X150.847 Y117.021 E1.18363
G1 X150.527 Y116.702 E1.19865
G1 X150.153 Y116.443 E1.21378
G1 X149.743 Y116.253 E1.22881
G1 X149.311 Y116.136 E1.2437
G1 X148.852 Y116.098 E1.25902
G1 X148.406 Y116.137 E1.27391
G1 X147.963 Y116.259 E1.28919
G1 X147.558 Y116.446 E1.30403
G1 X147.181 Y116.713 E1.31939
G1 X146.862 Y117.033 E1.33442
G1 X146.603 Y117.407 E1.34955
G1 X146.413 Y117.817 E1.36458
G1 X146.297 Y118.248 E1.37943
G1 X146.258 Y118.7 E1.39452
G1 X146.297 Y119.153 E1.40964
G1 X146.419 Y119.597 E1.42496
G1 X146.606 Y120.002 E1.43979
G1 X146.873 Y120.379 E1.45516
G1 X147.193 Y120.698 E1.47019
G1 X147.567 Y120.957 E1.48532
G1 X147.977 Y121.147 E1.50035
G1 X148.409 Y121.264 E1.51523
G1 X148.868 Y121.302 E1.53055
G1 X149.314 Y121.263 E1.54544
G0 F6000 X149.243 Y120.868
;TYPE:WALL-OUTER
G1 F1200 X149.619 Y120.764 E1.55842
G1 X149.961 Y120.606 E1.57095
G1 X150.28 Y120.38 E1.58395
G1 X150.55 Y120.11 E1.59665
G1 X150.769 Y119.794 E1.60944
G1 X150.93 Y119.446 E1.62219
G1 X151.028 Y119.082 E1.63473
G1 X151.061 Y118.693 E1.64771
G1 X151.028 Y118.317 E1.66027
G1 X150.924 Y117.941 E1.67324
G1 X150.766 Y117.599 E1.68577
G1 X150.54 Y117.28 E1.69878
G1 X150.27 Y117.01 E1.71148
G1 X149.954 Y116.791 E1.72426
G1 X149.606 Y116.63 E1.73702
G1 X149.242 Y116.532 E1.74955
G1 X148.853 Y116.499 E1.76254
G1 X148.477 Y116.532 E1.77509
G1 X148.101 Y116.636 E1.78807
G1 X147.759 Y116.794 E1.8006
G1 X147.44 Y117.02 E1.8136
G1 X147.17 Y117.29 E1.8263
G1 X146.951 Y117.606 E1.83909
G1 X146.79 Y117.954 E1.85184
G1 X146.692 Y118.318 E1.86438
G1 X146.659 Y118.7 E1.87713
G1 X146.692 Y119.082 E1.88989
G1 X146.796 Y119.459 E1.90289
G1 X146.954 Y119.801 E1.91542
G1 X147.18 Y120.12 E1.92843
G1 X147.45 Y120.39 E1.94113
G1 X147.766 Y120.609 E1.95391
G1 X148.114 Y120.77 E1.96667
G1 X148.478 Y120.868 E1.9792
G1 X148.867 Y120.901 E1.99219
G1 X149.243 Y120.868 E2.00474
G0 F6000 X149.321 Y121.301
G1 F1500 E-4.49526
G0 F6000 X152.19 Y121.452
G0 X152.4 Y136.6
;TYPE:WALL-INNER
G1 F1500 E2.00474
G1 F1200 X123.6 Y136.6 E2.96263
G1 X123.6 Y115.3 E3.67108
G1 X152.4 Y115.3 E4.62897
G1 X152.4 Y136.6 E5.33741
G0 F6000 X152.8 Y137
;TYPE:WALL-OUTER
G1 F1200 X123.2 Y137 E6.32191
G1 X123.2 Y114.9 E7.05696
G1 X152.8 Y114.9 E8.04146
G1 X152.8 Y137 E8.77651
G0 F6000 X152.53 Y136.73
G0 X152.29 Y136.21
G0 X152.01 Y136.21
;TYPE:SKIN
G1 F1200 X123.99 Y136.21 E9.70846
G1 X123.99 Y115.69 E10.39095
G1 X152.01 Y115.69 E11.3229
G1 X152.01 Y136.21 E12.0054
G1 F1500 E5.5054
G0 F6000 X152.29 Y136.21
G0 X152.19 Y121.372
G0 X151.005 Y120.49
G0 X149.335 Y121.372
G1 F1500 E12.0054
G0 F6000 X149.384 Y121.649
G1 F1200 X149.892 Y121.508 E12.02294
G1 X150.358 Y121.293 E12.04
G1 X150.792 Y120.986 E12.05769
G1 X151.159 Y120.618 E12.07497
G1 X151.456 Y120.188 E12.09235
G1 X151.675 Y119.717 E12.10963
G1 X151.81 Y119.219 E12.12679
G1 X151.854 Y118.692 E12.14438
G1 X151.809 Y118.176 E12.16161
G1 X151.668 Y117.668 E12.17914
G1 X151.453 Y117.202 E12.19621
G1 X151.146 Y116.768 E12.21389
G1 X150.778 Y116.401 E12.23118
G1 X150.348 Y116.104 E12.24856
G1 X149.877 Y115.885 E12.26584
G1 X149.379 Y115.75 E12.283
G1 X148.852 Y115.706 E12.30059
G1 X148.336 Y115.751 E12.31781
G1 X147.828 Y115.892 E12.33535
G1 X147.362 Y116.107 E12.35242
G1 X146.928 Y116.414 E12.3701
G1 X146.561 Y116.782 E12.38739
G1 X146.264 Y117.212 E12.40477
G1 X146.045 Y117.683 E12.42204
G1 X145.911 Y118.18 E12.43916
G1 X145.866 Y118.7 E12.45652
G1 X145.911 Y119.222 E12.47395
G1 X146.052 Y119.731 E12.49152
G1 X146.267 Y120.198 E12.50862
G1 X146.574 Y120.632 E12.5263
G1 X146.942 Y120.999 E12.54358
G1 X147.372 Y121.296 E12.56097
G1 X147.843 Y121.515 E12.57824
G1 X148.341 Y121.65 E12.5954
G1 X148.868 Y121.694 E12.61299
G1 X149.384 Y121.649 E12.63022
G1 F1500 E6.13022
G0 F6000 X149.335 Y121.372
G0 X148.598 Y121.16
G0 X146.727 Y120.503
G0 X147.844 Y119.563
G0 X128.396 Y119.146
G0 X129.767 Y119.649
G0 X129.225 Y120.437
G1 F1500 E12.63022
G0 F6000 X129.439 Y120.618
G1 F1200 X129.736 Y120.188 E12.6476
G1 X129.955 Y119.717 E12.66488
G1 X130.09 Y119.219 E12.68204
G1 X130.134 Y118.692 E12.69963
G1 X130.089 Y118.176 E12.71686
G1 X129.948 Y117.668 E12.73439
G1 X129.733 Y117.202 E12.75146
G1 X129.426 Y116.768 E12.76914
G1 X129.058 Y116.401 E12.78643
G1 X128.628 Y116.104 E12.80381
G1 X128.157 Y115.885 E12.82109
G1 X127.659 Y115.75 E12.83825
G1 X127.132 Y115.706 E12.85584
G1 X126.616 Y115.751 E12.87306
G1 X126.108 Y115.892 E12.8906
G1 X125.642 Y116.107 E12.90767
G1 X125.208 Y116.414 E12.92535
G1 X124.841 Y116.782 E12.94263
G1 X124.544 Y117.212 E12.96002
G1 X124.325 Y117.683 E12.97729
G1 X124.191 Y118.18 E12.99441
G1 X124.146 Y118.7 E13.01177
G1 X124.191 Y119.222 E13.0292
G1 X124.332 Y119.731 E13.04677
G1 X124.547 Y120.198 E13.06387
G1 X124.854 Y120.632 E13.08155
G1 X125.222 Y120.999 E13.09883
G1 X125.652 Y121.296 E13.11621
G1 X126.123 Y121.515 E13.13349
G1 X126.621 Y121.65 E13.15065
G1 X127.148 Y121.694 E13.16824
G1 X127.664 Y121.649 E13.18547
G1 X128.172 Y121.508 E13.203
G1 X128.638 Y121.293 E13.22007
G1 X129.072 Y120.986 E13.23775
G1 X129.439 Y120.618 E13.25504
G1 F1500 E6.75504
G0 F6000 X129.225 Y120.437
G0 X128.538 Y121.12
G0 X127.807 Y119.855
G0 X128.538 Y137.865
G0 X128.538 Y136.39
G0 X124.735 Y136.49
G1 F1500 E13.25504
G0 F6000 X124.735 Y136.049
G1 F1200 X124.149 Y135.463 E13.2826
G0 F6000 X124.149 Y134.897
G1 F1200 X125.301 Y136.049 E13.33679
G0 F6000 X125.867 Y136.049
G1 F1200 X124.149 Y134.331 E13.4176
G0 F6000 X124.149 Y133.766
G1 F1200 X126.432 Y136.049 E13.52499
G0 F6000 X126.998 Y136.049
G1 F1200 X124.149 Y133.2 E13.65899
G0 F6000 X124.149 Y132.634
G1 F1200 X127.564 Y136.049 E13.81962
G0 F6000 X128.129 Y136.049
G1 F1200 X124.149 Y132.069 E14.00683
G0 F6000 X124.149 Y131.503
G1 F1200 X128.695 Y136.049 E14.22066
G0 F6000 X129.261 Y136.049
G1 F1200 X124.149 Y130.937 E14.46111
G0 F6000 X124.149 Y130.372
G1 F1200 X129.826 Y136.049 E14.72814
G0 F6000 X130.392 Y136.049
G1 F1200 X124.149 Y129.806 E15.02179
G0 F6000 X124.149 Y129.24
G1 F1200 X130.958 Y136.049 E15.34207
G0 F6000 X131.523 Y136.049
G1 F1200 X124.149 Y128.675 E15.68892
G0 F6000 X124.149 Y128.109
G1 F1200 X132.089 Y136.049 E16.06239
G0 F6000 X132.655 Y136.049
G1 F1200 X124.148 Y127.542 E16.46254
G0 F6000 X124.148 Y126.977
G1 F1200 X133.221 Y136.049 E16.88928
G0 F6000 X133.786 Y136.049
G1 F1200 X124.148 Y126.411 E17.34262
G0 F6000 X124.148 Y125.845
G1 F1200 X134.352 Y136.049 E17.82259
G0 F6000 X134.918 Y136.049
G1 F1200 X124.148 Y125.28 E18.32915
G0 F6000 X124.148 Y124.714
G1 F1200 X135.483 Y136.049 E18.86231
G0 F6000 X136.049 Y136.049
G1 F1200 X124.148 Y124.148 E19.4221
G0 F6000 X124.148 Y123.583
G1 F1200 X136.615 Y136.049 E20.00849
G0 F6000 X137.18 Y136.049
G1 F1200 X124.148 Y123.017 E20.62147
G0 F6000 X124.148 Y122.451
G1 F1200 X137.746 Y136.049 E21.26108
G0 F6000 X138.312 Y136.049
G1 F1200 X124.148 Y121.886 E21.92729
G0 F6000 X124.148 Y121.32
G1 F1200 X138.877 Y136.049 E22.62009
G0 F6000 X139.443 Y136.049
G1 F1200 X124.148 Y120.754 E23.33952
G0 F6000 X124.148 Y120.189
G1 F1200 X140.009 Y136.049 E24.08555
G0 F6000 X140.574 Y136.049
G1 F1200 X126.236 Y121.711 E24.75997
G0 F6000 X126.927 Y121.836
G1 F1200 X141.14 Y136.049 E25.4285
G0 F6000 X141.706 Y136.049
G1 F1200 X127.483 Y121.826 E26.09751
G0 F6000 X127.956 Y121.734
G1 F1200 X142.272 Y136.049 E26.77087
G0 F6000 X142.837 Y136.049
G1 F1200 X128.377 Y121.589 E27.45102
G0 F6000 X128.757 Y121.403
G1 F1200 X143.403 Y136.049 E28.13993
G0 F6000 X143.969 Y136.049
G1 F1200 X129.089 Y121.169 E28.83983
G0 F6000 X129.383 Y120.898
G1 F1200 X144.534 Y136.049 E29.55249
G0 F6000 X145.1 Y136.049
G1 F1200 X129.646 Y120.595 E30.2794
G0 F6000 X129.877 Y120.261
G1 F1200 X145.666 Y136.049 E31.02204
G0 F6000 X146.231 Y136.049
G1 F1200 X130.057 Y119.875 E31.78282
G0 F6000 X130.193 Y119.445
G1 F1200 X146.797 Y136.049 E32.56382
G0 F6000 X147.363 Y136.049
G1 F1200 X130.271 Y118.957 E33.36777
G0 F6000 X130.267 Y118.388
G1 F1200 X147.928 Y136.049 E34.19849
G0 F6000 X148.494 Y136.049
G1 F1200 X130.111 Y117.666 E35.06317
G1 F1500 E28.56317
G0 F6000 X129.689 Y117.78
G0 X129.56 Y117.302
G0 X129.56 Y115.51
G0 X129.992 Y115.41
G1 F1500 E35.06317
G0 F6000 X129.992 Y115.85
G1 F1200 X150.191 Y136.049 E36.01327
G0 F6000 X149.625 Y136.049
G1 F1200 X129.426 Y115.85 E36.96337
G0 F6000 X128.861 Y115.85
G1 F1200 X149.06 Y136.049 E37.91347
G0 F6000 X149.06 Y136.49
G0 X150.757 Y136.49
G0 X150.757 Y136.049
G1 F1200 X130.558 Y115.85 E38.86357
G0 F6000 X131.123 Y115.85
G1 F1200 X151.322 Y136.049 E39.81367
G0 F6000 X151.849 Y136.01
G1 F1200 X131.689 Y115.85 E40.76193
G0 F6000 X132.255 Y115.85
G1 F1200 X151.849 Y135.444 E41.68358
G0 F6000 X151.849 Y134.879
G1 F1200 X132.82 Y115.85 E42.57864
G0 F6000 X133.386 Y115.85
G1 F1200 X151.849 Y134.313 E43.44708
G0 F6000 X151.849 Y133.747
G1 F1200 X133.952 Y115.85 E44.2889
G0 F6000 X134.517 Y115.85
G1 F1200 X151.849 Y133.182 E45.10415
G0 F6000 X151.849 Y132.616
G1 F1200 X135.083 Y115.85 E45.89277
G0 F6000 X135.649 Y115.85
G1 F1200 X151.849 Y132.05 E46.65477
G0 F6000 X151.849 Y131.485
G1 F1200 X136.214 Y115.85 E47.39019
G0 F6000 X136.78 Y115.85
G1 F1200 X151.849 Y130.919 E48.09899
G0 F6000 X151.849 Y130.353
G1 F1200 X137.346 Y115.85 E48.78117
G0 F6000 X137.911 Y115.85
G1 F1200 X151.849 Y129.788 E49.43677
G0 F6000 X151.849 Y129.222
G1 F1200 X138.477 Y115.85 E50.06575
G0 F6000 X139.043 Y115.85
G1 F1200 X151.849 Y128.656 E50.6681
G0 F6000 X151.849 Y128.09
G1 F1200 X139.609 Y115.85 E51.24383
G0 F6000 X140.174 Y115.85
G1 F1200 X151.849 Y127.525 E51.79299
G0 F6000 X151.849 Y126.959
G1 F1200 X140.74 Y115.85 E52.31552
G0 F6000 X141.306 Y115.85
G1 F1200 X151.849 Y126.393 E52.81143
G0 F6000 X151.849 Y125.828
G1 F1200 X147.601 Y121.579 E53.01127
G0 F6000 X148.403 Y121.816
G1 F1200 X151.849 Y125.262 E53.17336
G0 F6000 X151.849 Y124.696
G1 F1200 X148.997 Y121.844 E53.30751
G0 F6000 X149.501 Y121.782
G1 F1200 X151.849 Y124.131 E53.41797
G0 F6000 X151.849 Y123.565
G1 F1200 X149.943 Y121.659 E53.50763
G0 F6000 X150.331 Y121.481
G1 F1200 X151.849 Y122.999 E53.57903
G0 F6000 X151.849 Y122.434
G1 F1200 X150.678 Y121.262 E53.63413
G0 F6000 X150.992 Y121.01
G1 F1200 X151.849 Y121.868 E53.67447
G0 F6000 X151.849 Y121.302
G1 F1200 X151.274 Y120.727 E53.70151
G0 F6000 X151.506 Y120.394
G1 F1200 X151.849 Y120.737 E53.71765
G0 F6000 X151.849 Y120.171
G1 F1200 X151.706 Y120.027 E53.7244
G1 F1500 E47.2244
G0 F6000 X151.31 Y119.841
G0 X151.481 Y117.737
G0 X152.19 Y117.737
G0 X152.29 Y117.342
G1 F1500 E53.7244
G0 F6000 X151.849 Y117.342
G1 F1200 X151.501 Y116.994 E53.74076
G0 F6000 X151.849 Y116.777
G1 F1200 X150.922 Y115.85 E53.78437
G0 F6000 X150.571 Y116.064
G1 F1200 X150.357 Y115.85 E53.79443
G0 F6000 X150.357 Y115.41
G0 X151.488 Y115.41
G0 X151.488 Y115.85
G1 F1200 X151.849 Y116.211 E53.81141
G1 F1500 E47.31141
G0 F6000 X152.29 Y116.211
G0 X150.993 Y116.897
G0 X149.283 Y116.295
G0 X148.803 Y116.295
G0 X147.415 Y116.411
G1 F1500 E53.81141
G0 F6000 X147.163 Y116.051
G1 F1200 X146.962 Y115.85 E53.82087
G0 F6000 X146.832 Y116.285
G1 F1200 X146.397 Y115.85 E53.84133
G0 F6000 X145.831 Y115.85
G1 F1200 X146.548 Y116.567 E53.87505
G0 F6000 X146.297 Y116.881
G1 F1200 X145.265 Y115.85 E53.92357
G0 F6000 X144.7 Y115.85
G1 F1200 X146.079 Y117.229 E53.98844
G0 F6000 X145.899 Y117.615
G1 F1200 X144.134 Y115.85 E54.07146
G0 F6000 X143.568 Y115.85
G1 F1200 X145.777 Y118.059 E54.17536
G0 F6000 X145.716 Y118.563
G1 F1200 X143.003 Y115.85 E54.30297
G0 F6000 X142.437 Y115.85
G1 F1200 X145.743 Y119.155 E54.45845
G0 F6000 X145.98 Y119.959
G1 F1200 X141.871 Y115.85 E54.65173
G1 F1500 E48.15173
G0 F6000 X141.871 Y115.41
G0 X125.781 Y115.51
G0 X126.058 Y116.113
G0 X125.781 Y116.35
G1 F1500 E54.65173
G0 F6000 X125.577 Y115.96
G1 F1200 X125.466 Y115.85 E54.65693
G0 F6000 X125.243 Y116.192
G1 F1200 X124.901 Y115.85 E54.67301
G0 F6000 X124.335 Y115.85
G1 F1200 X124.94 Y116.455 E54.70147
G0 F6000 X124.669 Y116.749
G1 F1200 X124.148 Y116.229 E54.72595
