;FLAVOR:Marlin
;TIME:8108
;Filament used: 8.7091m
;Layer height: 0.2
;MINX:27.018
;MINY:21.442
;MINZ:0.2
;MAXX:191.948
;MAXY:197.685
;MAXZ:29.4
;Generated with Cura_SteamEngine 4.13.1
M140 S60
M105
M190 S60
M104 S200
M105
M109 S200
M82 ;absolute extrusion mode

; Script based on an original created by tjjfvi (https://github.com/tjjfvi)
; An up-to-date version of the tjjfvi's original script can be found
; here:  https://csi.t6.fyi/
; Note - This script will not work in Cura V4.2 and above!
; max_feedrate_z_override = {max_feedrate_z_override}
; retraction_amount = 6.5
; retraction_hop = 0.2
; retraction_hop_enabled = False
; retraction_prime_speed = 25
; retraction_retract_speed = 25
; retraction_speed = 25
; speed_travel = 225.0
; retraction_enable = True
; layer_height = 0.2
; smooth_spiralized_contours = True


; Ender 3 Custom Start G-code
G92 E0 ; Reset Extruder
G28 ; Home all axes
G1 Z2.0 F3000 ; Move Z Axis up little to prevent scratching of Heat Bed
G1 X0.1 Y20 Z0.3 F5000.0 ; Move to start position
G1 X0.1 Y200.0 Z0.3 F1500.0 E15 ; Draw the first line
G1 X0.4 Y200.0 Z0.3 F5000.0 ; Move to side a little
G1 X0.4 Y20 Z0.3 F1500.0 E30 ; Draw the second line
G92 E0 ; Reset Extruder
G1 Z2.0 F3000 ; Move Z Axis up little to prevent scratching of Heat Bed
G1 X5 Y20 Z0.3 F5000.0 ; Move over to prevent blob squish
G92 E0
G92 E0
G1 F1500 E-6.5
;LAYER_COUNT:148
;LAYER:0
M107
G0 F6000 X186.081 Y189.273 Z0.2
;TYPE:SKIRT
G1 F1500 E0
G1 F1200 X186.597 Y189.789 E0.02427
G1 X184.051 Y192.335 E0.14403
G1 X183.535 Y191.819 E0.1683
G1 X186.081 Y189.273 E0.28805
G0 F6000 X186.081 Y188.707
G1 F1200 X187.162 Y189.788 E0.3389
G1 X184.052 Y192.902 E0.48528
G1 X182.97 Y191.82 E0.53617
G1 X186.081 Y188.707 E0.68255
G0 F6000 X186.081 Y188.141
G1 F1200 X187.728 Y189.788 E0.76002
G1 X184.051 Y193.467 E0.93302
G1 X182.404 Y191.82 E1.01049
G1 X186.081 Y188.141 E1.1835
G0 F6000 X186.081 Y187.575
G1 F1200 X188.294 Y189.788 E1.28759
G1 X184.051 Y194.033 E1.48721
G1 X181.838 Y191.82 E1.59131
G1 X186.081 Y187.575 E1.79093
G0 F6000 X186.081 Y187.009
G1 F1200 X188.86 Y189.788 E1.92165
G1 X184.051 Y194.599 E2.14789
G1 X181.272 Y191.82 E2.27861
G1 X186.081 Y187.009 E2.50486
G0 F6000 X186.081 Y186.443
G1 F1200 X189.426 Y189.788 E2.6622
G1 X184.051 Y195.165 E2.91507
G1 X180.706 Y191.82 E3.07241
G1 X186.081 Y186.443 E3.32528
G0 F6000 X185.799 Y186.161
;TYPE:SUPPORT-INTERFACE
G1 F1200 X180.424 Y191.538 E3.57815
G1 X178.655 Y189.769 E3.66136
G1 X184.031 Y184.393 E3.91423
G1 X185.799 Y186.161 E3.99739
G0 F6000 X184.657 Y185.3
G1 F1200 X179.563 Y190.394 E4.23699
G0 F6000 X179.261 Y189.443
G1 F1200 X180.748 Y190.93 E4.30694
G0 F6000 X182.445 Y189.233
G1 F1200 X180.958 Y187.746 E4.37688
G0 F6000 X182.655 Y186.049
G1 F1200 X184.142 Y187.536 E4.44682
G1 F1500 E-2.05318
;MESH:leg.STL
G0 F6000 X184.895 Y188.288
G0 X180.424 Y192.744
G0 X176.957 Y189.293
G0 X177.709 Y188.5
G0 X177.709 Y188.256
;TYPE:WALL-INNER
G1 F1500 E4.44682
G1 F1200 X35.516 Y46.063 E11.13515
G1 X41.174 Y40.406 E11.40126
G1 X28.445 Y27.678 E11.99997
G1 X33.254 Y22.869 E12.22617
G1 X55.033 Y44.649 E13.25061
G1 X49.375 Y50.306 E13.51672
G1 X182.517 Y183.447 E19.77929
G1 X177.709 Y188.256 E20.00547
G0 F6000 X177.709 Y188.822
;TYPE:WALL-OUTER
G1 F1200 X34.95 Y46.063 E26.72041
G1 X40.608 Y40.406 E26.98652
G1 X27.879 Y27.678 E27.58523
G1 X33.254 Y22.303 E27.83806
G1 X55.599 Y44.649 E28.88912
G1 X49.941 Y50.306 E29.15523
G1 X183.083 Y183.447 E35.4178
G1 X177.709 Y188.822 E35.6706
G0 F6000 X177.709 Y188.44
G0 X177.905 Y187.903
G0 X177.709 Y187.706
;TYPE:SKIN
G1 F1200 X36.066 Y46.063 E42.33305
G1 X41.726 Y40.406 E42.59921
G1 X28.995 Y27.678 E43.19797
G1 X33.254 Y23.419 E43.3983
G1 X54.483 Y44.649 E44.39687
G1 X48.823 Y50.306 E44.66303
G1 X181.967 Y183.447 E50.92564
G1 X177.709 Y187.706 E51.12595
G1 F1500 E44.62595
G0 F6000 X177.905 Y187.903
G0 X182.261 Y183.447
G0 X49.618 Y50.306
G0 X54.287 Y45.237
G1 F1500 E51.12595
G0 F6000 X53.977 Y44.926
G1 F1200 X32.973 Y23.922 E52.11391
G0 F6000 X32.69 Y24.205
G1 F1200 X53.694 Y45.209 E53.10188
G0 F6000 X53.412 Y45.492
G1 F1200 X32.408 Y24.488 E54.08984
G0 F6000 X32.125 Y24.771
G1 F1200 X53.129 Y45.775 E55.0778
G0 F6000 X52.846 Y46.058
G1 F1200 X31.842 Y25.054 E56.06577
G0 F6000 X31.559 Y25.337
G1 F1200 X52.563 Y46.34 E57.05371
G0 F6000 X52.279 Y46.623
G1 F1200 X31.276 Y25.619 E58.04165
G0 F6000 X30.993 Y25.902
G1 F1200 X51.997 Y46.905 E59.02959
G0 F6000 X51.714 Y47.188
G1 F1200 X30.711 Y26.185 E60.01751
G0 F6000 X30.428 Y26.468
G1 F1200 X51.431 Y47.471 E61.00542
G0 F6000 X51.148 Y47.754
G1 F1200 X30.145 Y26.751 E61.99334
G0 F6000 X29.862 Y27.034
G1 F1200 X50.865 Y48.037 E62.98126
G0 F6000 X50.582 Y48.32
G1 F1200 X29.579 Y27.316 E63.9692
G0 F6000 X29.296 Y27.599
G1 F1200 X50.299 Y48.602 E64.95711
G0 F6000 X50.016 Y48.885
G1 F1200 X41.744 Y40.613 E65.3462
G0 F6000 X41.461 Y40.896
G1 F1200 X49.733 Y49.167 E65.73527
G0 F6000 X49.45 Y49.45
G1 F1200 X41.179 Y41.179 E66.12431
G0 F6000 X40.896 Y41.461
G1 F1200 X49.167 Y49.733 E66.51338
G0 F6000 X48.885 Y50.016
G1 F1200 X40.613 Y41.744 E66.90247
G0 F6000 X40.33 Y42.027
G1 F1200 X48.602 Y50.299 E67.29156
G1 F1500 E60.79156
G0 F6000 X49.178 Y50.306
G0 X54.776 Y44.648
G0 X33.254 Y23.125
G0 X28.701 Y27.678
G0 X41.431 Y40.406
G0 X39.737 Y42
G1 F1500 E67.29156
G0 F6000 X40.046 Y42.309
G1 F1200 X181.463 Y183.726 E73.94338
G0 F6000 X181.18 Y184.008
G1 F1200 X39.764 Y42.592 E80.59515
G0 F6000 X39.481 Y42.875
G1 F1200 X180.897 Y184.291 E87.24693
G0 F6000 X180.614 Y184.574
G1 F1200 X39.198 Y43.158 E93.8987
G0 F6000 X38.915 Y43.441
G1 F1200 X180.332 Y184.857 E100.5505
G0 F6000 X180.049 Y185.14
G1 F1200 X38.632 Y43.723 E107.20232
G0 F6000 X38.349 Y44.006
G1 F1200 X179.766 Y185.423 E113.85415
G0 F6000 X179.483 Y185.706
G1 F1200 X38.066 Y44.288 E120.50599
G0 F6000 X37.783 Y44.571
G1 F1200 X179.2 Y185.988 E127.15781
G0 F6000 X178.917 Y186.271
G1 F1200 X37.5 Y44.854 E133.80964
G0 F6000 X37.217 Y45.137
G1 F1200 X178.634 Y186.554 E140.46146
G0 F6000 X178.352 Y186.837
G1 F1200 X36.935 Y45.42 E147.11328
G0 F6000 X36.652 Y45.703
G1 F1200 X178.069 Y187.12 E153.7651
G0 F6000 X177.786 Y187.403
G1 F1200 X36.369 Y45.985 E160.41695
G0 F6000 X36.122 Y45.738
G1 F1500 E153.91695
;MESH:NONMESH
G0 F300 X36.122 Y45.738 Z0.4
G0 F6000 X36.061 Y45.676
G0 X35.773 Y46.064
G0 X177.708 Y187.999
G0 X182.249 Y183.473
G0 X183.263 Y182.404
G0 X187.005 Y186.161
G0 X186.385 Y186.747
;TIME_ELAPSED:259.542396
;LAYER:1
M106 S85
;TYPE:SUPPORT
G1 F1500 E160.41695
G1 F1950 X189.426 Y189.788 E160.55999
G1 X184.052 Y195.166 E160.81286
G1 X181.01 Y192.124 E160.95594
G1 X186.385 Y186.747 E161.20881
G1 F1500 E154.70881
G0 F9750 X186.996 Y186.136
G0 X190.292 Y189.437
G0 X190.292 Y190.138
G0 X188.809 Y191.627
G0 X188 Y190.819
G1 F1500 E161.20881
G1 F1950 X189.03 Y189.788 E161.25729
G1 X188 Y188.758 E161.30573
G1 X188 Y190.819 E161.37428
G1 X186 Y192.821 E161.4684
G1 X186 Y187.528 E161.64445
G1 X184 Y189.528 E161.73852
G1 X184 Y194.718 E161.91114
G1 X182 Y192.718 E162.00522
G1 X181.406 Y192.124 E162.03316
G1 X182 Y191.529 E162.06112
G1 X182 Y192.718 E162.10067
G0 F9750 X181.334 Y191.517
;TYPE:SUPPORT-INTERFACE
G1 F1950 X179.544 Y189.726 E162.18489
G0 F9750 X179.281 Y190.677
G1 F1950 X184.939 Y185.018 E162.45105
G0 F9750 X182.938 Y186.332
G1 F1950 X184.728 Y188.122 E162.53524
G0 F9750 X183.031 Y189.819
G1 F1950 X181.241 Y188.029 E162.61944
G1 F1500 E156.11944
;MESH:leg.STL
G0 F9750 X180.381 Y187.167
G0 X178.373 Y188.92
;TYPE:WALL-INNER
G1 F1500 E162.61944
G1 F1950 X35.516 Y46.063 E169.33899
G1 X41.174 Y40.406 E169.6051
G1 X28.445 Y27.678 E170.20381
G1 X33.254 Y22.869 E170.43001
G1 X55.033 Y44.649 E171.45446
G1 X49.375 Y50.306 E171.72057
G1 X183.181 Y184.111 E178.01437
G1 X178.373 Y188.92 E178.24054
G0 F9750 X178.373 Y189.486
;TYPE:WALL-OUTER
G1 F1950 X34.95 Y46.063 E184.98672
G1 X40.608 Y40.406 E185.25283
G1 X27.879 Y27.678 E185.85154
G1 X33.254 Y22.303 E186.10437
G1 X55.599 Y44.649 E187.15543
G1 X49.941 Y50.306 E187.42154
G1 X183.747 Y184.111 E193.71534
G1 X178.373 Y189.486 E193.96814
G0 F9750 X178.373 Y189.104
G0 X178.569 Y188.567
G0 X178.373 Y188.37
;TYPE:SKIN
G1 F1950 X36.066 Y46.063 E200.66183
G1 X41.726 Y40.406 E200.92799
G1 X28.995 Y27.678 E201.52674
G1 X33.254 Y23.419 E201.72707
G1 X54.483 Y44.649 E202.72564
G1 X48.823 Y50.306 E202.9918
G1 X182.631 Y184.111 E209.28565
G1 X178.373 Y188.37 E209.48596
G0 F9750 X178.569 Y188.567
G0 X182.925 Y184.111
G0 X182.456 Y183.543
G0 X182.147 Y183.851
G1 F1950 X178.113 Y187.884 E209.67568
G0 F9750 X177.83 Y187.601
G1 F1950 X181.864 Y183.568 E209.8654
G0 F9750 X181.581 Y183.285
G1 F1950 X177.548 Y187.318 E210.0551
G0 F9750 X177.265 Y187.036
G1 F1950 X181.298 Y183.002 E210.24483
G0 F9750 X181.015 Y182.719
G1 F1950 X176.982 Y186.753 E210.43455
G0 F9750 X176.699 Y186.47
G1 F1950 X180.732 Y182.437 E210.62425
G0 F9750 X180.45 Y182.154
G1 F1950 X176.416 Y186.187 E210.81397
G0 F9750 X176.133 Y185.904
G1 F1950 X180.167 Y181.871 E211.0037
G0 F9750 X179.884 Y181.588
G1 F1950 X175.851 Y185.621 E211.1934
G0 F9750 X175.568 Y185.339
G1 F1950 X179.601 Y181.305 E211.38312
G0 F9750 X179.318 Y181.022
G1 F1950 X175.285 Y185.056 E211.57284
G0 F9750 X175.002 Y184.773
G1 F1950 X179.035 Y180.74 E211.76254
G0 F9750 X178.753 Y180.457
G1 F1950 X174.719 Y184.49 E211.95227
G0 F9750 X174.436 Y184.207
G1 F1950 X178.47 Y180.174 E212.14199
G0 F9750 X178.187 Y179.891
G1 F1950 X174.154 Y183.924 E212.33169
G0 F9750 X173.871 Y183.641
G1 F1950 X177.904 Y179.608 E212.52139
G0 F9750 X177.621 Y179.325
G1 F1950 X173.588 Y183.359 E212.71111
G0 F9750 X173.305 Y183.076
G1 F1950 X177.338 Y179.042 E212.90084
G0 F9750 X177.056 Y178.76
G1 F1950 X173.022 Y182.793 E213.09056
G0 F9750 X172.739 Y182.51
G1 F1950 X176.773 Y178.477 E213.28029
G0 F9750 X176.49 Y178.194
G1 F1950 X172.456 Y182.227 E213.47001
G0 F9750 X172.174 Y181.944
G1 F1950 X176.207 Y177.911 E213.65971
G0 F9750 X175.924 Y177.628
G1 F1950 X171.891 Y181.662 E213.84943
G0 F9750 X171.608 Y181.379
G1 F1950 X175.641 Y177.345 E214.03916
G0 F9750 X175.358 Y177.063
G1 F1950 X171.325 Y181.096 E214.22886
G0 F9750 X171.042 Y180.813
G1 F1950 X175.076 Y176.78 E214.41858
G0 F9750 X174.793 Y176.497
G1 F1950 X170.759 Y180.53 E214.6083
G0 F9750 X170.477 Y180.247
G1 F1950 X174.51 Y176.214 E214.798
G0 F9750 X174.227 Y175.931
G1 F1950 X170.194 Y179.965 E214.98773
G0 F9750 X169.911 Y179.682
G1 F1950 X173.944 Y175.648 E215.17745
G0 F9750 X173.661 Y175.366
G1 F1950 X169.628 Y179.399 E215.36715
G0 F9750 X169.345 Y179.116
G1 F1950 X173.379 Y175.083 E215.55687
G0 F9750 X173.096 Y174.8
G1 F1950 X169.062 Y178.833 E215.7466
G0 F9750 X168.78 Y178.55
G1 F1950 X172.813 Y174.517 E215.9363
G0 F9750 X172.53 Y174.234
G1 F1950 X168.497 Y178.267 E216.126
G0 F9750 X168.214 Y177.985
G1 F1950 X172.247 Y173.951 E216.31572
G0 F9750 X171.964 Y173.668
G1 F1950 X167.931 Y177.702 E216.50544
G0 F9750 X167.648 Y177.419
G1 F1950 X171.681 Y173.386 E216.69514
G0 F9750 X171.399 Y173.103
G1 F1950 X167.365 Y177.136 E216.88487
G0 F9750 X167.082 Y176.853
G1 F1950 X171.116 Y172.82 E217.07459
G0 F9750 X170.833 Y172.537
G1 F1950 X166.8 Y176.57 E217.26429
G0 F9750 X166.517 Y176.288
G1 F1950 X170.55 Y172.254 E217.45401
G0 F9750 X170.267 Y171.971
G1 F1950 X166.234 Y176.005 E217.64374
G0 F9750 X165.951 Y175.722
G1 F1950 X169.984 Y171.689 E217.83344
G0 F9750 X169.702 Y171.406
G1 F1950 X165.668 Y175.439 E218.02316
G0 F9750 X165.385 Y175.156
G1 F1950 X169.419 Y171.123 E218.21288
G0 F9750 X169.136 Y170.84
G1 F1950 X165.103 Y174.873 E218.40258
G0 F9750 X164.82 Y174.591
G1 F1950 X168.853 Y170.557 E218.59231
G0 F9750 X168.57 Y170.274
G1 F1950 X164.537 Y174.308 E218.78203
G0 F9750 X164.254 Y174.025
G1 F1950 X168.287 Y169.992 E218.97173
G0 F9750 X168.005 Y169.709
G1 F1950 X163.971 Y173.742 E219.16145
G0 F9750 X163.688 Y173.459
G1 F1950 X167.722 Y169.426 E219.35118
G0 F9750 X167.439 Y169.143
G1 F1950 X163.406 Y173.176 E219.54088
G0 F9750 X163.123 Y172.893
G1 F1950 X167.156 Y168.86 E219.73058
G0 F9750 X166.873 Y168.577
G1 F1950 X162.84 Y172.611 E219.9203
G0 F9750 X162.557 Y172.328
G1 F1950 X166.59 Y168.294 E220.11002
G0 F9750 X166.307 Y168.012
G1 F1950 X162.274 Y172.045 E220.29972
G0 F9750 X161.991 Y171.762
G1 F1950 X166.025 Y167.729 E220.48945
G0 F9750 X165.742 Y167.446
G1 F1950 X161.708 Y171.479 E220.67917
G0 F9750 X161.426 Y171.196
G1 F1950 X165.459 Y167.163 E220.86887
G0 F9750 X165.176 Y166.88
G1 F1950 X161.143 Y170.914 E221.05859
G0 F9750 X160.86 Y170.631
G1 F1950 X164.893 Y166.597 E221.24832
G0 F9750 X164.61 Y166.315
G1 F1950 X160.577 Y170.348 E221.43802
G0 F9750 X160.294 Y170.065
G1 F1950 X164.328 Y166.032 E221.62774
G0 F9750 X164.045 Y165.749
G1 F1950 X160.011 Y169.782 E221.81747
G0 F9750 X159.729 Y169.499
G1 F1950 X163.762 Y165.466 E222.00717
G0 F9750 X163.479 Y165.183
G1 F1950 X159.446 Y169.217 E222.19689
G0 F9750 X159.163 Y168.934
G1 F1950 X163.196 Y164.9 E222.38661
G0 F9750 X162.913 Y164.617
G1 F1950 X158.88 Y168.651 E222.57634
G0 F9750 X158.597 Y168.368
G1 F1950 X162.631 Y164.335 E222.76606
G0 F9750 X162.348 Y164.052
G1 F1950 X158.314 Y168.085 E222.95578
G0 F9750 X158.032 Y167.802
G1 F1950 X162.065 Y163.769 E223.14548
G0 F9750 X161.782 Y163.486
G1 F1950 X157.749 Y167.519 E223.33518
G0 F9750 X157.466 Y167.237
G1 F1950 X161.499 Y163.203 E223.52491
G0 F9750 X161.216 Y162.92
G1 F1950 X157.183 Y166.954 E223.71463
G0 F9750 X156.9 Y166.671
G1 F1950 X160.933 Y162.638 E223.90433
G0 F9750 X160.651 Y162.355
G1 F1950 X156.617 Y166.388 E224.09405
G0 F9750 X156.334 Y166.105
G1 F1950 X160.368 Y162.072 E224.28378
G0 F9750 X160.085 Y161.789
G1 F1950 X156.052 Y165.822 E224.47348
G0 F9750 X155.769 Y165.54
G1 F1950 X159.802 Y161.506 E224.6632
G0 F9750 X159.519 Y161.223
G1 F1950 X155.486 Y165.257 E224.85292
G0 F9750 X155.203 Y164.974
G1 F1950 X159.236 Y160.941 E225.04262
G0 F9750 X158.954 Y160.658
G1 F1950 X154.92 Y164.691 E225.23235
G0 F9750 X154.637 Y164.408
G1 F1950 X158.671 Y160.375 E225.42207
G0 F9750 X158.388 Y160.092
G1 F1950 X154.355 Y164.125 E225.61177
G0 F9750 X154.072 Y163.843
G1 F1950 X158.105 Y159.809 E225.80149
G0 F9750 X157.822 Y159.526
G1 F1950 X153.789 Y163.56 E225.99122
G0 F9750 X153.506 Y163.277
G1 F1950 X157.539 Y159.243 E226.18094
G0 F9750 X157.257 Y158.961
G1 F1950 X153.223 Y162.994 E226.37066
G0 F9750 X152.94 Y162.711
G1 F1950 X156.974 Y158.678 E226.56039
G0 F9750 X156.691 Y158.395
G1 F1950 X152.657 Y162.428 E226.75011
G0 F9750 X152.375 Y162.145
G1 F1950 X156.408 Y158.112 E226.93981
G0 F9750 X156.125 Y157.829
G1 F1950 X152.092 Y161.863 E227.12953
G0 F9750 X151.809 Y161.58
G1 F1950 X155.842 Y157.546 E227.31926
G0 F9750 X155.559 Y157.264
G1 F1950 X151.526 Y161.297 E227.50896
G0 F9750 X151.243 Y161.014
G1 F1950 X155.277 Y156.981 E227.69868
G0 F9750 X154.994 Y156.698
G1 F1950 X150.96 Y160.731 E227.8884
G0 F9750 X150.678 Y160.448
G1 F1950 X154.711 Y156.415 E228.0781
G0 F9750 X154.428 Y156.132
G1 F1950 X150.395 Y160.166 E228.26783
G0 F9750 X150.112 Y159.883
G1 F1950 X154.145 Y155.849 E228.45755
G0 F9750 X153.862 Y155.567
G1 F1950 X149.829 Y159.6 E228.64725
G0 F9750 X149.546 Y159.317
G1 F1950 X153.58 Y155.284 E228.83698
G0 F9750 X153.297 Y155.001
G1 F1950 X149.263 Y159.034 E229.0267
G0 F9750 X148.981 Y158.751
G1 F1950 X153.014 Y154.718 E229.2164
G0 F9750 X152.731 Y154.435
G1 F1950 X148.698 Y158.468 E229.4061
G0 F9750 X148.415 Y158.186
G1 F1950 X152.448 Y154.152 E229.59582
G0 F9750 X152.165 Y153.869
G1 F1950 X148.132 Y157.903 E229.78555
G0 F9750 X147.849 Y157.62
G1 F1950 X151.883 Y153.587 E229.97527
G0 F9750 X151.6 Y153.304
G1 F1950 X147.566 Y157.337 E230.16499
G0 F9750 X147.283 Y157.054
G1 F1950 X151.317 Y153.021 E230.35472
G0 F9750 X151.034 Y152.738
G1 F1950 X147.001 Y156.771 E230.54442
G0 F9750 X146.718 Y156.489
G1 F1950 X150.751 Y152.455 E230.73414
G0 F9750 X150.468 Y152.172
G1 F1950 X146.435 Y156.206 E230.92386
G0 F9750 X146.152 Y155.923
G1 F1950 X150.185 Y151.89 E231.11356
G0 F9750 X149.903 Y151.607
G1 F1950 X145.869 Y155.64 E231.30329
G0 F9750 X145.586 Y155.357
G1 F1950 X149.62 Y151.324 E231.49301
G0 F9750 X149.337 Y151.041
G1 F1950 X145.304 Y155.074 E231.68271
G0 F9750 X145.021 Y154.792
G1 F1950 X149.054 Y150.758 E231.87243
G0 F9750 X148.771 Y150.476
