;FLAVOR:Marlin
;TIME:1076
;Filament used: 0.829031m
;Layer height: 0.2
;MINX:105.715
;MINY:105.701
;MINZ:0.2
;MAXX:194.285
;MAXY:194.3
;MAXZ:3
;Generated with Cura_SteamEngine 4.13.1
M140 S60
M105
M190 S60
M104 S200
M105
M109 S200
M82 ;absolute extrusion mode

; Script based on an original created by tjjfvi (https://github.com/tjjfvi)
; An up-to-date version of the tjjfvi's original script can be found
; here:  https://csi.t6.fyi/
; Note - This script will not work in Cura V4.2 and above!
; max_feedrate_z_override = {max_feedrate_z_override}
; retraction_amount = 6.5
; retraction_hop = 0.2
; retraction_hop_enabled = False
; retraction_prime_speed = 25
; retraction_retract_speed = 25
; retraction_speed = 25
; speed_travel = 225.0
; retraction_enable = True
; layer_height = 0.2
; smooth_spiralized_contours = True


; Ender 3 Custom Start G-code
G92 E0 ; Reset Extruder
G28 ; Home all axes
G1 Z2.0 F3000 ; Move Z Axis up little to prevent scratching of Heat Bed
G1 X0.1 Y20 Z0.3 F5000.0 ; Move to start position
G1 X0.1 Y200.0 Z0.3 F1500.0 E15 ; Draw the first line
G1 X0.4 Y200.0 Z0.3 F5000.0 ; Move to side a little
G1 X0.4 Y20 Z0.3 F1500.0 E30 ; Draw the second line
G92 E0 ; Reset Extruder
G1 Z2.0 F3000 ; Move Z Axis up little to prevent scratching of Heat Bed
G1 X5 Y20 Z0.3 F5000.0 ; Move over to prevent blob squish
G92 E0
G92 E0
G1 F1500 E-6.5
;LAYER_COUNT:15
;LAYER:0
M107
;MESH:ring.STL
G0 F6000 X152.249 Y192.04 Z0.2
;TYPE:WALL-INNER
G1 F1500 E0
G1 F1200 X156.697 Y191.565 E0.14878
G1 X161.077 Y190.617 E0.29783
G1 X165.332 Y189.21 E0.44689
G1 X169.412 Y187.358 E0.59592
G1 X173.273 Y185.084 E0.74496
G1 X176.871 Y182.41 E0.89406
G1 X180.163 Y179.371 E1.04307
G1 X183.115 Y175.998 E1.19215
G1 X185.691 Y172.33 E1.34123
G1 X187.861 Y168.411 E1.49023
G1 X189.604 Y164.282 E1.63929
G1 X190.898 Y159.992 E1.78833
G1 X191.729 Y155.588 E1.93739
G1 X192.085 Y151.121 E2.08643
G1 X191.967 Y146.641 E2.23549
G1 X191.372 Y142.2 E2.38452
G1 X190.309 Y137.845 E2.53362
G1 X188.788 Y133.63 E2.68266
G1 X186.828 Y129.6 E2.83171
G1 X184.452 Y125.801 E2.98074
G1 X181.684 Y122.276 E3.12981
G1 X178.558 Y119.066 E3.27884
G1 X175.107 Y116.204 E3.42795
G1 X171.373 Y113.728 E3.57697
G1 X167.397 Y111.662 E3.726
G1 X163.223 Y110.03 E3.87506
G1 X158.899 Y108.85 E4.02414
G1 X154.475 Y108.138 E4.17317
G1 X150 Y107.899 E4.32223
G1 X145.525 Y108.138 E4.47128
G1 X141.101 Y108.85 E4.62031
G1 X136.777 Y110.03 E4.76939
G1 X132.603 Y111.662 E4.91845
G1 X128.627 Y113.728 E5.06748
G1 X124.893 Y116.204 E5.2165
G1 X121.442 Y119.066 E5.36561
G1 X118.316 Y122.276 E5.51464
G1 X115.548 Y125.801 E5.66371
G1 X113.172 Y129.6 E5.81274
G1 X111.212 Y133.63 E5.96179
G1 X109.691 Y137.845 E6.11083
G1 X108.628 Y142.2 E6.25993
G1 X108.033 Y146.641 E6.40896
G1 X107.915 Y151.121 E6.55802
G1 X108.271 Y155.588 E6.70706
G1 X109.102 Y159.992 E6.85612
G1 X110.396 Y164.282 E7.00516
G1 X112.139 Y168.411 E7.15423
G1 X114.309 Y172.33 E7.30322
G1 X116.885 Y175.998 E7.4523
G1 X119.837 Y179.371 E7.60138
G1 X123.129 Y182.41 E7.7504
G1 X126.727 Y185.084 E7.8995
G1 X130.588 Y187.358 E8.04853
G1 X134.668 Y189.21 E8.19756
G1 X138.923 Y190.617 E8.34662
G1 X143.303 Y191.565 E8.49567
G1 X147.751 Y192.04 E8.64445
G1 X150 Y192.1 E8.71928
G1 X152.249 Y192.04 E8.79411
G0 F6000 X152.222 Y191.641
;TYPE:WALL-OUTER
G1 F1200 X156.633 Y191.17 E8.94165
G1 X160.972 Y190.231 E9.08931
G1 X165.186 Y188.837 E9.23694
G1 X169.227 Y187.003 E9.38454
G1 X173.052 Y184.75 E9.53218
G1 X176.615 Y182.102 E9.67983
G1 X179.876 Y179.092 E9.82744
G1 X182.8 Y175.751 E9.97511
G1 X185.351 Y172.118 E10.12275
G1 X187.501 Y168.236 E10.27035
G1 X189.227 Y164.146 E10.418
G1 X190.509 Y159.897 E10.56562
G1 X191.332 Y155.535 E10.71326
G1 X191.685 Y151.11 E10.8609
G1 X191.568 Y146.673 E11.00853
G1 X190.978 Y142.274 E11.15615
G1 X189.925 Y137.961 E11.30381
G1 X188.419 Y133.786 E11.45143
G1 X186.478 Y129.794 E11.59907
G1 X184.124 Y126.031 E11.7467
G1 X181.383 Y122.54 E11.89432
G1 X178.286 Y119.36 E12.04196
G1 X174.868 Y116.526 E12.18964
G1 X171.17 Y114.073 E12.33723
G1 X167.231 Y112.027 E12.48486
G1 X163.097 Y110.41 E12.63251
G1 X158.814 Y109.242 E12.78016
G1 X154.432 Y108.536 E12.92779
G1 X150 Y108.3 E13.0754
G1 X145.568 Y108.536 E13.22302
G1 X141.186 Y109.242 E13.37065
G1 X136.903 Y110.41 E13.5183
G1 X132.769 Y112.027 E13.66594
G1 X128.83 Y114.073 E13.81358
G1 X125.132 Y116.526 E13.96117
G1 X121.714 Y119.36 E14.10885
G1 X118.617 Y122.54 E14.25649
G1 X115.876 Y126.031 E14.40411
G1 X113.522 Y129.794 E14.55174
G1 X111.581 Y133.786 E14.69938
G1 X110.075 Y137.961 E14.847
G1 X109.022 Y142.274 E14.99466
G1 X108.432 Y146.673 E15.14228
G1 X108.315 Y151.11 E15.28991
G1 X108.668 Y155.535 E15.43755
G1 X109.491 Y159.897 E15.58519
G1 X110.773 Y164.146 E15.73281
G1 X112.499 Y168.236 E15.88046
G1 X114.649 Y172.118 E16.02806
G1 X117.2 Y175.751 E16.1757
G1 X120.124 Y179.092 E16.32337
G1 X123.385 Y182.102 E16.47097
G1 X126.948 Y184.75 E16.61862
G1 X130.773 Y187.003 E16.76627
G1 X134.814 Y188.837 E16.91387
G1 X139.028 Y190.231 E17.0615
G1 X143.367 Y191.17 E17.20916
G1 X147.778 Y191.641 E17.3567
G1 X150 Y191.7 E17.43063
G1 X152.222 Y191.641 E17.50456
G0 F6000 X152.251 Y192.08
G1 F1500 E11.00456
G0 F6000 X150 Y192.29
G0 X149.962 Y193.709
G0 X150 Y193.9
;TYPE:WALL-INNER
G1 F1500 E17.50456
G1 F1200 X147.748 Y193.841 E17.57949
G1 X143.249 Y193.377 E17.72992
G1 X138.819 Y192.451 E17.88045
G1 X134.511 Y191.075 E18.03086
G1 X130.373 Y189.268 E18.18104
G1 X126.441 Y187.041 E18.33134
G1 X122.756 Y184.421 E18.48173
G1 X119.365 Y181.443 E18.63183
G1 X116.286 Y178.115 E18.78263
G1 X113.576 Y174.504 E18.93279
G1 X111.252 Y170.633 E19.08296
G1 X109.336 Y166.541 E19.23324
G1 X107.85 Y162.267 E19.38374
G1 X106.811 Y157.865 E19.53418
G1 X106.232 Y153.39 E19.68426
G1 X106.116 Y148.865 E19.83481
G1 X106.462 Y144.377 E19.98452
G1 X107.277 Y139.91 E20.13555
G1 X108.537 Y135.579 E20.28557
G1 X110.238 Y131.395 E20.43579
G1 X112.365 Y127.4 E20.58632
G1 X114.888 Y123.649 E20.73668
G1 X117.78 Y120.183 E20.88682
G1 X121.022 Y117.025 E21.03735
G1 X124.561 Y114.223 E21.18748
G1 X128.382 Y111.793 E21.33809
G1 X132.424 Y109.773 E21.48838
G1 X136.649 Y108.18 E21.63856
G1 X141.016 Y107.03 E21.78876
G1 X145.49 Y106.333 E21.93936
G1 X150 Y106.101 E22.08957
G1 X154.51 Y106.333 E22.23977
G1 X158.984 Y107.03 E22.39037
G1 X163.351 Y108.18 E22.54057
G1 X167.576 Y109.773 E22.69075
G1 X171.618 Y111.793 E22.84104
G1 X175.439 Y114.223 E22.99165
G1 X178.978 Y117.025 E23.14178
G1 X182.22 Y120.183 E23.29231
G1 X185.112 Y123.649 E23.44245
G1 X187.635 Y127.4 E23.59281
G1 X189.762 Y131.395 E23.74334
G1 X191.463 Y135.579 E23.89356
G1 X192.723 Y139.91 E24.04358
G1 X193.538 Y144.377 E24.19461
G1 X193.884 Y148.865 E24.34432
G1 X193.768 Y153.39 E24.49487
G1 X193.189 Y157.865 E24.64495
G1 X192.15 Y162.267 E24.79539
G1 X190.664 Y166.541 E24.94589
G1 X188.748 Y170.633 E25.09617
G1 X186.424 Y174.504 E25.24634
G1 X183.714 Y178.115 E25.3965
G1 X180.635 Y181.443 E25.5473
G1 X177.244 Y184.421 E25.6974
G1 X173.559 Y187.041 E25.84779
G1 X169.627 Y189.268 E25.99809
G1 X165.489 Y191.075 E26.14827
G1 X161.181 Y192.451 E26.29868
G1 X156.751 Y193.377 E26.44921
G1 X152.252 Y193.841 E26.59964
G1 X150 Y193.9 E26.67457
G0 F6000 X150 Y194.3
;TYPE:WALL-OUTER
G1 F1200 X147.722 Y194.241 E26.75036
G1 X143.184 Y193.772 E26.9021
G1 X138.721 Y192.84 E27.05374
G1 X134.367 Y191.449 E27.20577
G1 X130.198 Y189.628 E27.35708
G1 X126.224 Y187.378 E27.50897
G1 X122.505 Y184.734 E27.66074
G1 X119.084 Y181.729 E27.81218
G1 X115.981 Y178.376 E27.96413
G1 X113.243 Y174.727 E28.11587
G1 X110.899 Y170.823 E28.26732
G1 X108.965 Y166.691 E28.41906
G1 X107.466 Y162.382 E28.5708
G1 X106.416 Y157.932 E28.72288
G1 X105.833 Y153.422 E28.87413
G1 X105.715 Y148.854 E29.02611
G1 X106.065 Y144.322 E29.17729
G1 X106.886 Y139.823 E29.3294
G1 X108.16 Y135.442 E29.48115
G1 X109.873 Y131.23 E29.63238
G1 X112.022 Y127.194 E29.78447
G1 X114.567 Y123.41 E29.93614
G1 X117.49 Y119.907 E30.08788
G1 X120.756 Y116.725 E30.23954
G1 X124.332 Y113.894 E30.39124
G1 X128.182 Y111.446 E30.54299
G1 X132.259 Y109.408 E30.69459
G1 X136.532 Y107.797 E30.84647
G1 X140.93 Y106.639 E30.99774
G1 X145.446 Y105.935 E31.14975
G1 X150 Y105.701 E31.30142
G1 X154.554 Y105.935 E31.45309
G1 X159.07 Y106.639 E31.6051
G1 X163.468 Y107.797 E31.75637
G1 X167.741 Y109.408 E31.90825
G1 X171.818 Y111.446 E32.05985
G1 X175.668 Y113.894 E32.2116
G1 X179.244 Y116.725 E32.36329
G1 X182.51 Y119.907 E32.51495
G1 X185.433 Y123.41 E32.6667
G1 X187.978 Y127.194 E32.81837
G1 X190.127 Y131.23 E32.97045
G1 X191.84 Y135.442 E33.12169
G1 X193.114 Y139.823 E33.27344
G1 X193.935 Y144.322 E33.42554
G1 X194.285 Y148.854 E33.57673
G1 X194.167 Y153.422 E33.72871
G1 X193.584 Y157.932 E33.87996
G1 X192.534 Y162.382 E34.03203
G1 X191.035 Y166.691 E34.18378
G1 X189.101 Y170.823 E34.33552
G1 X186.757 Y174.727 E34.48697
G1 X184.019 Y178.376 E34.6387
G1 X180.916 Y181.729 E34.79065
G1 X177.495 Y184.734 E34.9421
G1 X173.776 Y187.378 E35.09387
G1 X169.802 Y189.628 E35.24576
G1 X165.633 Y191.449 E35.39707
G1 X161.279 Y192.84 E35.5491
G1 X156.816 Y193.772 E35.70074
G1 X152.278 Y194.241 E35.85248
G1 X150 Y194.3 E35.92827
G0 F6000 X150 Y193.86
G0 X150 Y193.51
;TYPE:SKIN
G1 F1200 X147.772 Y193.451 E36.0024
G1 X143.311 Y192.991 E36.15156
G1 X138.922 Y192.074 E36.30069
G1 X134.64 Y190.706 E36.4502
G1 X130.552 Y188.921 E36.59856
G1 X126.652 Y186.711 E36.74766
G1 X122.995 Y184.112 E36.89688
G1 X119.639 Y181.165 E37.04543
G1 X116.586 Y177.866 E37.19493
G1 X113.899 Y174.284 E37.34386
G1 X111.598 Y170.452 E37.49253
G1 X109.694 Y166.387 E37.64182
G1 X108.227 Y162.166 E37.79045
G1 X107.191 Y157.775 E37.94051
G1 X106.622 Y153.369 E38.08827
G1 X106.506 Y148.865 E38.23812
G1 X106.847 Y144.442 E38.38567
G1 X107.659 Y139.993 E38.53609
G1 X108.903 Y135.713 E38.68433
G1 X110.588 Y131.569 E38.83312
G1 X112.701 Y127.601 E38.98264
G1 X115.2 Y123.883 E39.13164
G1 X118.068 Y120.447 E39.2805
G1 X121.282 Y117.317 E39.42972
G1 X124.79 Y114.539 E39.57855
G1 X128.573 Y112.134 E39.72764
G1 X132.578 Y110.132 E39.87657
G1 X136.772 Y108.55 E40.02565
G1 X141.087 Y107.415 E40.17405
G1 X145.531 Y106.722 E40.32365
G1 X150 Y106.493 E40.47248
G1 X154.469 Y106.722 E40.62132
G1 X158.913 Y107.415 E40.77091
G1 X163.228 Y108.55 E40.91931
G1 X167.422 Y110.132 E41.0684
G1 X171.427 Y112.134 E41.21732
G1 X175.21 Y114.539 E41.36642
G1 X178.718 Y117.317 E41.51525
G1 X181.932 Y120.447 E41.66446
G1 X184.8 Y123.883 E41.81332
G1 X187.299 Y127.601 E41.96232
G1 X189.412 Y131.569 E42.11184
G1 X191.097 Y135.713 E42.26063
G1 X192.341 Y139.993 E42.40887
G1 X193.153 Y144.442 E42.55929
G1 X193.494 Y148.865 E42.70684
G1 X193.378 Y153.369 E42.85669
G1 X192.809 Y157.775 E43.00445
G1 X191.773 Y162.166 E43.15451
G1 X190.306 Y166.387 E43.30314
G1 X188.402 Y170.452 E43.45244
G1 X186.101 Y174.284 E43.6011
G1 X183.414 Y177.866 E43.75003
G1 X180.361 Y181.165 E43.89953
G1 X177.005 Y184.112 E44.04808
G1 X173.348 Y186.711 E44.1973
G1 X169.448 Y188.921 E44.3464
G1 X165.36 Y190.706 E44.49476
G1 X161.078 Y192.074 E44.64427
G1 X156.689 Y192.991 E44.7934
G1 X152.228 Y193.451 E44.94256
G1 X150 Y193.51 E45.01669
G0 F6000 X150 Y193.79
G0 X149.999 Y192.29
G0 X150 Y192.49
G1 F1200 X152.275 Y192.43 E45.09239
G1 X156.759 Y191.951 E45.24237
G1 X161.18 Y190.994 E45.39282
G1 X165.474 Y189.574 E45.54325
G1 X169.592 Y187.705 E45.69366
G1 X173.489 Y185.41 E45.84408
G1 X177.12 Y182.71 E45.99458
G1 X180.442 Y179.644 E46.14493
G1 X183.423 Y176.24 E46.29543
G1 X186.022 Y172.537 E46.4459
G1 X188.212 Y168.582 E46.59626
G1 X189.971 Y164.415 E46.7467
G1 X191.278 Y160.085 E46.89713
G1 X192.117 Y155.64 E47.04759
G1 X192.475 Y151.131 E47.19803
G1 X192.357 Y146.61 E47.34845
G1 X191.756 Y142.128 E47.49885
G1 X190.683 Y137.732 E47.64936
G1 X189.148 Y133.478 E47.79978
G1 X187.169 Y129.411 E47.95021
G1 X184.772 Y125.577 E48.1006
G1 X181.978 Y122.019 E48.25107
G1 X178.823 Y118.779 E48.40148
G1 X175.339 Y115.89 E48.55201
G1 X171.572 Y113.391 E48.70237
G1 X167.559 Y111.307 E48.85277
G1 X163.346 Y109.659 E49.00323
G1 X158.981 Y108.468 E49.15372
G1 X154.516 Y107.75 E49.30413
G1 X150 Y107.509 E49.45455
G1 X145.484 Y107.75 E49.60497
G1 X141.019 Y108.468 E49.75538
G1 X136.654 Y109.659 E49.90587
G1 X132.441 Y111.307 E50.05633
G1 X128.428 Y113.391 E50.20673
G1 X124.661 Y115.89 E50.35708
G1 X121.177 Y118.779 E50.50762
G1 X118.022 Y122.019 E50.65803
G1 X115.228 Y125.577 E50.8085
G1 X112.831 Y129.411 E50.95889
G1 X110.852 Y133.478 E51.10932
G1 X109.317 Y137.732 E51.25974
G1 X108.244 Y142.128 E51.41024
G1 X107.643 Y146.61 E51.56065
G1 X107.525 Y151.131 E51.71107
G1 X107.883 Y155.64 E51.86151
G1 X108.722 Y160.085 E52.01196
G1 X110.029 Y164.415 E52.1624
G1 X111.788 Y168.582 E52.31284
G1 X113.978 Y172.537 E52.4632
G1 X116.577 Y176.24 E52.61367
G1 X119.558 Y179.644 E52.76416
G1 X122.88 Y182.71 E52.91452
G1 X126.511 Y185.41 E53.06502
G1 X130.408 Y187.705 E53.21544
G1 X134.526 Y189.574 E53.36585
G1 X138.82 Y190.994 E53.51628
G1 X143.241 Y191.951 E53.66673
G1 X147.725 Y192.43 E53.81671
G1 X150 Y192.49 E53.89241
G1 F1500 E47.39241
G0 F6000 X150.001 Y192.209
G0 X143.329 Y191.407
G0 X138.965 Y190.462
G0 X134.727 Y189.061
G0 X130.663 Y187.216
G0 X128.482 Y185.932
G0 X123.007 Y182.557
G0 X122.112 Y183.575
G0 X121.145 Y182.857
G1 F1500 E53.89241
G0 F6000 X121.434 Y182.528
G1 F1200 X117.2 Y178.294 E54.09156
G0 F6000 X116.877 Y178.59
G0 X116.447 Y177.979
G0 X117.535 Y177.029
G0 X117.313 Y176.655
G0 X116.98 Y176.943
G1 F1200 X113.731 Y173.694 E54.24438
G0 F6000 X113.964 Y172.795
G1 F1200 X112.029 Y170.861 E54.33538
G0 F6000 X112.502 Y170.202
G1 F1200 X110.913 Y168.613 E54.41012
G0 F6000 X111.324 Y167.892
G1 F1200 X109.916 Y166.484 E54.47635
G0 F6000 X110.498 Y165.935
G1 F1200 X109.285 Y164.722 E54.5334
G0 F6000 X109.755 Y164.061
G1 F1200 X108.683 Y162.989 E54.58382
G0 F6000 X109.266 Y162.44
G1 F1200 X108.207 Y161.382 E54.63361
G0 F6000 X108.032 Y160.641
G1 F1200 X109.021 Y161.629 E54.68011
G0 F6000 X108.383 Y162.123
G1 F1200 X109.511 Y163.251 E54.73317
G0 F6000 X108.984 Y163.856
G1 F1200 X110.085 Y164.956 E54.78493
G0 F6000 X109.586 Y165.589
G1 F1200 X110.911 Y166.913 E54.84723
G0 F6000 X110.414 Y167.548
G1 F1200 X111.801 Y168.935 E54.91247
G0 F6000 X111.411 Y169.676
G1 F1200 X113.204 Y171.469 E54.99681
G0 F6000 X112.88 Y172.277
G1 F1200 X115.296 Y174.693 E55.11045
G0 F6000 X115.131 Y175.659
G1 F1200 X124.347 Y184.875 E55.54394
G0 F6000 X124.091 Y185.234
G0 X124.744 Y185.601
G0 X125.584 Y184.471
G0 X125.344 Y184.741
G1 F1200 X127.752 Y187.149 E55.65721
G0 F6000 X128.503 Y186.768
G1 F1200 X130.363 Y188.629 E55.74472
G0 F6000 X131.027 Y188.161
G1 F1200 X132.432 Y189.566 E55.81081
G0 F6000 X133.099 Y189.102
G1 F1200 X134.44 Y190.443 E55.87388
G0 F6000 X135.041 Y189.912
G1 F1200 X136.146 Y191.017 E55.92586
G0 F6000 X136.73 Y190.47
G1 F1200 X137.809 Y191.549 E55.97661
G0 F6000 X138.42 Y191.029
G1 F1200 X139.401 Y192.009 E56.02273
G0 F6000 X140.116 Y192.159
G1 F1200 X139.194 Y191.237 E56.0661
G0 F6000 X139.916 Y191.394
G1 F1200 X140.831 Y192.309 E56.10914
G0 F6000 X141.546 Y192.458
G1 F1200 X140.639 Y191.55 E56.15182
G0 F6000 X141.361 Y191.707
G1 F1200 X142.261 Y192.607 E56.19416
G0 F6000 X142.976 Y192.756
G1 F1200 X142.083 Y191.863 E56.23616
G0 F6000 X142.805 Y192.019
G1 F1200 X143.649 Y192.864 E56.27588
G0 F6000 X144.28 Y192.929
G1 F1200 X143.488 Y192.137 E56.31314
G0 F6000 X144.122 Y192.205
G1 F1200 X144.91 Y192.994 E56.35023
G0 F6000 X145.541 Y193.059
G1 F1200 X144.755 Y192.272 E56.38722
G0 F6000 X145.388 Y192.34
G1 F1200 X146.172 Y193.124 E56.4241
G0 F6000 X146.803 Y193.189
G1 F1200 X146.022 Y192.408 E56.46083
G0 F6000 X146.655 Y192.475
G1 F1200 X147.433 Y193.254 E56.49745
G0 F6000 X148.041 Y193.296
G1 F1200 X147.288 Y192.543 E56.53287
G0 F6000 X147.905 Y192.594
G1 F1200 X148.623 Y193.312 E56.56664
G0 F6000 X149.204 Y193.327
G1 F1200 X148.486 Y192.609 E56.60042
G0 F6000 X149.067 Y192.625
G1 F1200 X149.785 Y193.343 E56.63419
G0 F6000 X150.347 Y193.339
G1 F1200 X149.648 Y192.64 E56.66707
G0 F6000 X150.217 Y192.644
G1 F1200 X150.898 Y193.325 E56.6991
G0 F6000 X151.449 Y193.31
G1 F1200 X150.769 Y192.63 E56.73108
G0 F6000 X151.32 Y192.615
