;FLAVOR:Marlin
;TIME:8854
;Filament used: 8.73987m
;Layer height: 0.2
;MINX:32.919
;MINY:141.339
;MINZ:0.2
;MAXX:266.215
;MAXY:158.665
;MAXZ:29.6
;Generated with Cura_SteamEngine 4.13.1
M140 S60
M105
M190 S60
M104 S200
M105
M109 S200
M82 ;absolute extrusion mode

; Script based on an original created by tjjfvi (https://github.com/tjjfvi)
; An up-to-date version of the tjjfvi's original script can be found
; here:  https://csi.t6.fyi/
; Note - This script will not work in Cura V4.2 and above!
; max_feedrate_z_override = {max_feedrate_z_override}
; retraction_amount = 6.5
; retraction_hop = 0.2
; retraction_hop_enabled = False
; retraction_prime_speed = 25
; retraction_retract_speed = 25
; retraction_speed = 25
; speed_travel = 225.0
; retraction_enable = True
; layer_height = 0.2
; smooth_spiralized_contours = True


; Ender 3 Custom Start G-code
G92 E0 ; Reset Extruder
G28 ; Home all axes
G1 Z2.0 F3000 ; Move Z Axis up little to prevent scratching of Heat Bed
G1 X0.1 Y20 Z0.3 F5000.0 ; Move to start position
G1 X0.1 Y200.0 Z0.3 F1500.0 E15 ; Draw the first line
G1 X0.4 Y200.0 Z0.3 F5000.0 ; Move to side a little
G1 X0.4 Y20 Z0.3 F1500.0 E30 ; Draw the second line
G92 E0 ; Reset Extruder
G1 Z2.0 F3000 ; Move Z Axis up little to prevent scratching of Heat Bed
G1 X5 Y20 Z0.3 F5000.0 ; Move over to prevent blob squish
G92 E0
G92 E0
G1 F1500 E-6.5
;LAYER_COUNT:148
;LAYER:0
M107
G0 F6000 X260.095 Y152.6 Z0.2
;TYPE:SKIRT
G1 F1500 E0
G1 F1200 X260.347 Y152.6 E0.00838
G1 X260.347 Y155.4 E0.10151
G1 X260.096 Y155.4 E0.10986
G1 X260.095 Y152.6 E0.20299
G0 F6000 X259.695 Y152.2
G1 F1200 X260.747 Y152.2 E0.23798
G1 X260.747 Y155.8 E0.35771
G1 X259.696 Y155.8 E0.39267
G1 X259.695 Y152.2 E0.51241
G0 F6000 X259.295 Y151.8
G1 F1200 X261.147 Y151.8 E0.574
G1 X261.147 Y156.2 E0.72035
G1 X259.296 Y156.2 E0.78191
G1 X259.295 Y151.8 E0.92826
G0 F6000 X258.895 Y151.4
G1 F1200 X261.547 Y151.4 E1.01646
G1 X261.547 Y156.6 E1.18942
G1 X258.896 Y156.6 E1.27759
G1 X258.895 Y151.4 E1.45054
G0 F6000 X258.495 Y151
G1 F1200 X261.947 Y151 E1.56536
G1 X261.947 Y157 E1.76492
G1 X258.496 Y157 E1.8797
G1 X258.495 Y151 E2.07926
G0 F6000 X258.095 Y150.6
G1 F1200 X262.347 Y150.6 E2.22068
G1 X262.347 Y157.4 E2.44685
G1 X258.096 Y157.4 E2.58824
G1 X258.095 Y150.6 E2.81441
G0 F6000 X257.695 Y150.2
G1 F1200 X262.747 Y150.2 E2.98244
G1 X262.747 Y157.8 E3.23521
G1 X257.696 Y157.8 E3.40321
G1 X257.695 Y150.2 E3.65599
G0 F6000 X257.295 Y150.2
;TYPE:SUPPORT-INTERFACE
G1 F1200 X257.296 Y157.8 E3.90876
G1 X254.637 Y157.8 E3.9972
G1 X254.636 Y150.2 E4.24998
G1 X257.295 Y150.2 E4.33842
G0 F6000 X256.893 Y150.4
G1 F1200 X254.835 Y152.457 E4.4352
G0 F6000 X254.835 Y153.012
G1 F1200 X257.095 Y155.272 E4.5415
G0 F6000 X257.094 Y153.593
G1 F1200 X254.835 Y155.851 E4.64773
G0 F6000 X254.835 Y156.406
G1 F1200 X256.029 Y157.599 E4.70387
G0 F6000 X256.481 Y157.599
G1 F1200 X257.094 Y156.986 E4.73271
G1 F1500 E-1.76729
G0 F6000 X258.16 Y156.985
G0 X258.16 Y151.876
G0 X257.094 Y151.877
G1 F1500 E4.73271
G1 F1200 X255.617 Y150.4 E4.80218
G1 F1500 E-1.69782
;MESH:leg.STL
G0 F6000 X255.617 Y149.335
G0 X253.879 Y149.342
G0 X253.608 Y149.999
G0 X253.39 Y150.809
G0 X251.915 Y150.81
G0 X64.98 Y150.6
;TYPE:WALL-INNER
G1 F1500 E4.80218
G1 F1200 X252.125 Y150.6 E11.02665
G1 X252.126 Y157.4 E11.25282
G1 X52.18 Y157.4 E17.90305
G1 X52.18 Y149.4 E18.16913
G1 X34.18 Y149.4 E18.76781
G1 X34.18 Y142.6 E18.99398
G1 X64.98 Y142.6 E20.01839
G1 X64.98 Y150.6 E20.28447
G0 F6000 X65.38 Y150.2
;TYPE:WALL-OUTER
G1 F1200 X252.525 Y150.2 E26.50894
G1 X252.526 Y157.8 E26.76172
G1 X51.78 Y157.8 E33.43856
G1 X51.78 Y149.8 E33.70464
G1 X33.78 Y149.8 E34.30332
G1 X33.78 Y142.2 E34.5561
G1 X65.38 Y142.2 E35.60712
G1 X65.38 Y150.2 E35.8732
G0 F6000 X65.08 Y150.2
G0 X64.84 Y150.74
G0 X64.59 Y150.99
;TYPE:SKIN
G1 F1200 X251.735 Y150.99 E42.09767
G1 X251.736 Y157.01 E42.29789
G1 X52.57 Y157.01 E48.92218
G1 X52.57 Y149.01 E49.18826
G1 X34.57 Y149.01 E49.78694
G1 X34.57 Y142.99 E49.98717
G1 X64.59 Y142.99 E50.98564
G1 X64.59 Y150.99 E51.25172
G1 F1500 E44.75172
G0 F6000 X64.84 Y150.74
G0 X64.798 Y142.782
G0 X34.362 Y142.782
G0 X34.362 Y149.218
G0 X35.146 Y149.29
G1 F1500 E51.25172
G0 F6000 X35.146 Y148.849
G1 F1200 X34.729 Y148.432 E51.27134
G0 F6000 X34.729 Y147.866
G1 F1200 X35.712 Y148.849 E51.31757
G0 F6000 X36.278 Y148.849
G1 F1200 X34.729 Y147.3 E51.39043
G0 F6000 X34.729 Y146.735
G1 F1200 X36.843 Y148.849 E51.48987
G0 F6000 X37.409 Y148.849
G1 F1200 X34.729 Y146.169 E51.61593
G0 F6000 X34.729 Y145.603
G1 F1200 X37.975 Y148.849 E51.76861
G0 F6000 X38.54 Y148.849
G1 F1200 X34.729 Y145.038 E51.94787
G0 F6000 X34.729 Y144.472
G1 F1200 X39.106 Y148.849 E52.15375
G0 F6000 X39.672 Y148.849
G1 F1200 X34.729 Y143.906 E52.38625
G0 F6000 X34.729 Y143.341
G1 F1200 X40.237 Y148.849 E52.64533
G0 F6000 X40.803 Y148.849
G1 F1200 X35.103 Y143.149 E52.91344
G0 F6000 X35.669 Y143.149
G1 F1200 X41.369 Y148.849 E53.18155
G0 F6000 X41.934 Y148.849
G1 F1200 X36.234 Y143.149 E53.44966
G0 F6000 X36.8 Y143.149
G1 F1200 X42.5 Y148.849 E53.71777
G0 F6000 X43.066 Y148.849
G1 F1200 X37.366 Y143.149 E53.98588
G0 F6000 X37.932 Y143.149
G1 F1200 X43.632 Y148.849 E54.25399
G0 F6000 X44.197 Y148.849
G1 F1200 X38.497 Y143.149 E54.5221
G0 F6000 X39.063 Y143.149
G1 F1200 X44.763 Y148.849 E54.79022
G0 F6000 X45.329 Y148.849
G1 F1200 X39.629 Y143.149 E55.05833
G0 F6000 X40.194 Y143.149
G1 F1200 X45.894 Y148.849 E55.32644
G0 F6000 X46.46 Y148.849
G1 F1200 X40.76 Y143.149 E55.59455
G0 F6000 X41.326 Y143.149
G1 F1200 X47.026 Y148.849 E55.86266
G0 F6000 X47.591 Y148.849
G1 F1200 X41.891 Y143.149 E56.13077
G0 F6000 X42.457 Y143.149
G1 F1200 X48.157 Y148.849 E56.39888
G0 F6000 X48.723 Y148.849
G1 F1200 X43.023 Y143.149 E56.66699
G0 F6000 X43.588 Y143.149
G1 F1200 X49.288 Y148.849 E56.9351
G0 F6000 X49.854 Y148.849
G1 F1200 X44.154 Y143.149 E57.20321
G0 F6000 X44.72 Y143.149
G1 F1200 X50.42 Y148.849 E57.47132
G0 F6000 X50.985 Y148.849
G1 F1200 X45.285 Y143.149 E57.73943
G0 F6000 X45.851 Y143.149
G1 F1200 X51.551 Y148.849 E58.00754
G0 F6000 X52.117 Y148.849
G1 F1200 X46.417 Y143.149 E58.27565
G0 F6000 X46.983 Y143.149
G1 F1200 X52.682 Y148.849 E58.54374
G1 X52.729 Y148.896
G1 X60.682 Y156.849 E58.91782
G0 F6000 X61.248 Y156.849
G1 F1200 X47.548 Y143.149 E59.56223
G0 F6000 X48.114 Y143.149
G1 F1200 X61.813 Y156.849 E60.20661
G0 F6000 X62.379 Y156.849
G1 F1200 X48.68 Y143.149 E60.85099
G0 F6000 X49.245 Y143.149
G1 F1200 X62.945 Y156.849 E61.4954
G0 F6000 X63.51 Y156.849
G1 F1200 X49.811 Y143.149 E62.13978
G0 F6000 X50.377 Y143.149
G1 F1200 X64.076 Y156.849 E62.78417
G0 F6000 X64.642 Y156.849
G1 F1200 X50.942 Y143.149 E63.42857
G0 F6000 X51.508 Y143.149
G1 F1200 X65.207 Y156.849 E64.07295
G0 F6000 X65.773 Y156.849
G1 F1200 X52.074 Y143.149 E64.71734
G0 F6000 X52.639 Y143.149
G1 F1200 X66.339 Y156.849 E65.36174
G0 F6000 X66.905 Y156.849
G1 F1200 X53.205 Y143.149 E66.00615
G0 F6000 X53.771 Y143.149
G1 F1200 X67.47 Y156.849 E66.65053
G0 F6000 X68.036 Y156.849
G1 F1200 X54.336 Y143.149 E67.29494
G0 F6000 X54.902 Y143.149
G1 F1200 X68.602 Y156.849 E67.93934
G0 F6000 X69.167 Y156.849
G1 F1200 X55.468 Y143.149 E68.58373
G0 F6000 X56.033 Y143.149
G1 F1200 X69.733 Y156.849 E69.22813
G0 F6000 X70.299 Y156.849
G1 F1200 X64.599 Y151.149 E69.49624
G0 F6000 X64.43 Y150.98
G1 F1200 X56.599 Y143.149 E69.86459
G0 F6000 X57.165 Y143.149
G1 F1200 X64.43 Y150.414 E70.20631
G0 F6000 X64.43 Y149.848
G1 F1200 X57.731 Y143.149 E70.52141
G0 F6000 X58.296 Y143.149
G1 F1200 X64.43 Y149.282 E70.80991
G0 F6000 X64.43 Y148.717
G1 F1200 X58.862 Y143.149 E71.07181
G0 F6000 X59.428 Y143.149
G1 F1200 X64.43 Y148.151 E71.30709
G0 F6000 X64.43 Y147.585
G1 F1200 X59.993 Y143.149 E71.51577
G0 F6000 X60.559 Y143.149
G1 F1200 X64.43 Y147.02 E71.69785
G0 F6000 X64.43 Y146.454
G1 F1200 X61.125 Y143.149 E71.85331
G0 F6000 X61.69 Y143.149
G1 F1200 X64.43 Y145.888 E71.98217
G0 F6000 X64.43 Y145.323
G1 F1200 X62.256 Y143.149 E72.08443
G0 F6000 X62.822 Y143.149
G1 F1200 X64.43 Y144.757 E72.16006
G0 F6000 X64.43 Y144.191
G1 F1200 X63.387 Y143.149 E72.2091
G0 F6000 X63.953 Y143.149
G1 F1200 X64.43 Y143.626 E72.23153
G0 F6000 X64.87 Y143.626
G0 X65.165 Y150.71
G0 X65.165 Y151.149
G1 F1200 X70.864 Y156.849 E72.49962
G0 F6000 X71.43 Y156.849
G1 F1200 X65.731 Y151.149 E72.76771
G0 F6000 X66.296 Y151.149
G1 F1200 X71.996 Y156.849 E73.03582
G0 F6000 X72.561 Y156.849
G1 F1200 X66.862 Y151.149 E73.30391
G0 F6000 X67.428 Y151.149
G1 F1200 X73.127 Y156.849 E73.57199
G0 F6000 X73.693 Y156.849
G1 F1200 X67.993 Y151.149 E73.8401
G0 F6000 X68.559 Y151.149
G1 F1200 X74.258 Y156.849 E74.10819
G0 F6000 X74.824 Y156.849
G1 F1200 X69.125 Y151.149 E74.37628
G0 F6000 X69.691 Y151.149
G1 F1200 X75.39 Y156.849 E74.64436
G0 F6000 X75.955 Y156.849
G1 F1200 X70.256 Y151.149 E74.91245
G0 F6000 X70.822 Y151.149
G1 F1200 X76.521 Y156.849 E75.18054
G0 F6000 X77.087 Y156.849
G1 F1200 X71.388 Y151.149 E75.44863
G0 F6000 X71.953 Y151.149
G1 F1200 X77.653 Y156.849 E75.71674
G0 F6000 X78.218 Y156.849
G1 F1200 X72.519 Y151.149 E75.98482
G0 F6000 X73.085 Y151.149
G1 F1200 X78.784 Y156.849 E76.25291
G0 F6000 X79.35 Y156.849
G1 F1200 X73.65 Y151.149 E76.52102
G0 F6000 X74.216 Y151.149
G1 F1200 X79.915 Y156.849 E76.78911
G0 F6000 X80.481 Y156.849
G1 F1200 X74.782 Y151.149 E77.05719
G0 F6000 X75.347 Y151.149
G1 F1200 X81.047 Y156.849 E77.3253
G0 F6000 X81.612 Y156.849
G1 F1200 X75.913 Y151.149 E77.59339
G0 F6000 X76.479 Y151.149
G1 F1200 X82.178 Y156.849 E77.86148
G0 F6000 X82.744 Y156.849
G1 F1200 X77.044 Y151.149 E78.12959
G0 F6000 X77.61 Y151.149
G1 F1200 X83.309 Y156.849 E78.39768
G0 F6000 X83.875 Y156.849
G1 F1200 X78.176 Y151.149 E78.66576
G0 F6000 X78.741 Y151.149
G1 F1200 X84.441 Y156.849 E78.93387
G0 F6000 X85.006 Y156.849
G1 F1200 X79.307 Y151.149 E79.20196
G0 F6000 X79.873 Y151.149
G1 F1200 X85.572 Y156.849 E79.47005
G0 F6000 X86.138 Y156.849
G1 F1200 X80.439 Y151.149 E79.73813
G0 F6000 X81.004 Y151.149
G1 F1200 X86.704 Y156.849 E80.00625
G0 F6000 X87.269 Y156.849
G1 F1200 X81.57 Y151.149 E80.27433
G0 F6000 X82.136 Y151.149
G1 F1200 X87.835 Y156.849 E80.54242
G0 F6000 X88.401 Y156.849
G1 F1200 X82.701 Y151.149 E80.81053
G0 F6000 X83.267 Y151.149
G1 F1200 X88.966 Y156.849 E81.07862
G0 F6000 X89.532 Y156.849
G1 F1200 X83.833 Y151.149 E81.3467
G0 F6000 X84.398 Y151.149
G1 F1200 X90.098 Y156.849 E81.61481
G0 F6000 X90.663 Y156.849
G1 F1200 X84.964 Y151.149 E81.8829
G0 F6000 X85.53 Y151.149
G1 F1200 X91.229 Y156.849 E82.15099
G0 F6000 X91.795 Y156.849
G1 F1200 X86.095 Y151.149 E82.4191
G0 F6000 X86.661 Y151.149
G1 F1200 X92.36 Y156.849 E82.68719
G0 F6000 X92.926 Y156.849
G1 F1200 X87.227 Y151.149 E82.95527
G0 F6000 X87.792 Y151.149
G1 F1200 X93.492 Y156.849 E83.22338
G0 F6000 X94.057 Y156.849
G1 F1200 X88.358 Y151.149 E83.49147
G0 F6000 X88.924 Y151.149
G1 F1200 X94.623 Y156.849 E83.75956
G0 F6000 X95.189 Y156.849
G1 F1200 X89.49 Y151.149 E84.02764
G0 F6000 X90.055 Y151.149
G1 F1200 X95.754 Y156.849 E84.29573
G0 F6000 X96.32 Y156.849
G1 F1200 X90.621 Y151.149 E84.56382
G0 F6000 X91.187 Y151.149
G1 F1200 X96.886 Y156.849 E84.83191
G0 F6000 X97.452 Y156.849
G1 F1200 X91.752 Y151.149 E85.10002
G0 F6000 X92.318 Y151.149
G1 F1200 X98.017 Y156.849 E85.3681
G0 F6000 X98.583 Y156.849
G1 F1200 X92.884 Y151.149 E85.63619
G0 F6000 X93.449 Y151.149
G1 F1200 X99.149 Y156.849 E85.9043
G0 F6000 X99.714 Y156.849
G1 F1200 X94.015 Y151.149 E86.17239
G0 F6000 X94.581 Y151.149
G1 F1200 X100.28 Y156.849 E86.44047
G0 F6000 X100.846 Y156.849
G1 F1200 X95.146 Y151.149 E86.70859
G0 F6000 X95.712 Y151.149
G1 F1200 X101.411 Y156.849 E86.97667
G0 F6000 X101.977 Y156.849
G1 F1200 X96.278 Y151.149 E87.24476
G0 F6000 X96.843 Y151.149
G1 F1200 X102.543 Y156.849 E87.51287
G0 F6000 X103.108 Y156.849
G1 F1200 X97.409 Y151.149 E87.78096
G0 F6000 X97.975 Y151.149
G1 F1200 X103.674 Y156.849 E88.04904
G0 F6000 X104.24 Y156.849
G1 F1200 X98.54 Y151.149 E88.31715
G0 F6000 X99.106 Y151.149
G1 F1200 X104.805 Y156.849 E88.58524
G0 F6000 X105.371 Y156.849
G1 F1200 X99.672 Y151.149 E88.85333
G0 F6000 X100.238 Y151.149
G1 F1200 X105.937 Y156.849 E89.12142
G0 F6000 X106.503 Y156.849
G1 F1200 X100.803 Y151.149 E89.38953
G0 F6000 X101.369 Y151.149
G1 F1200 X107.068 Y156.849 E89.65761
G0 F6000 X107.634 Y156.849
G1 F1200 X101.935 Y151.149 E89.9257
G0 F6000 X102.5 Y151.149
G1 F1200 X108.2 Y156.849 E90.19381
G0 F6000 X108.765 Y156.849
G1 F1200 X103.066 Y151.149 E90.4619
G0 F6000 X103.632 Y151.149
G1 F1200 X109.331 Y156.849 E90.72998
G0 F6000 X109.897 Y156.849
G1 F1200 X104.197 Y151.149 E90.99809
G0 F6000 X104.763 Y151.149
G1 F1200 X110.462 Y156.849 E91.26618
G0 F6000 X111.028 Y156.849
G1 F1200 X105.329 Y151.149 E91.53427
G0 F6000 X105.894 Y151.149
G1 F1200 X111.594 Y156.849 E91.80238
G0 F6000 X112.159 Y156.849
G1 F1200 X106.46 Y151.149 E92.07047
G0 F6000 X107.026 Y151.149
G1 F1200 X112.725 Y156.849 E92.33855
G0 F6000 X113.291 Y156.849
G1 F1200 X107.591 Y151.149 E92.60666
G0 F6000 X108.157 Y151.149
G1 F1200 X113.856 Y156.849 E92.87475
G0 F6000 X114.422 Y156.849
G1 F1200 X108.723 Y151.149 E93.14284
G0 F6000 X109.289 Y151.149
G1 F1200 X114.988 Y156.849 E93.41092
G0 F6000 X115.553 Y156.849
G1 F1200 X109.854 Y151.149 E93.67901
G0 F6000 X110.42 Y151.149
G1 F1200 X116.119 Y156.849 E93.9471
G0 F6000 X116.685 Y156.849
G1 F1200 X110.986 Y151.149 E94.21519
G0 F6000 X111.551 Y151.149
G1 F1200 X117.251 Y156.849 E94.4833
G0 F6000 X117.816 Y156.849
G1 F1200 X112.117 Y151.149 E94.75138
G0 F6000 X112.683 Y151.149
G1 F1200 X118.382 Y156.849 E95.01947
G0 F6000 X118.948 Y156.849
G1 F1200 X113.248 Y151.149 E95.28758
G0 F6000 X113.814 Y151.149
G1 F1200 X119.513 Y156.849 E95.55567
G0 F6000 X120.079 Y156.849
G1 F1200 X114.38 Y151.149 E95.82376
G0 F6000 X114.945 Y151.149
G1 F1200 X120.645 Y156.849 E96.09187
G0 F6000 X121.21 Y156.849
G1 F1200 X115.511 Y151.149 E96.35995
G0 F6000 X116.077 Y151.149
G1 F1200 X121.776 Y156.849 E96.62804
G0 F6000 X122.342 Y156.849
G1 F1200 X116.642 Y151.149 E96.89615
G0 F6000 X117.208 Y151.149
G1 F1200 X122.907 Y156.849 E97.16424
G0 F6000 X123.473 Y156.849
G1 F1200 X117.774 Y151.149 E97.43232
G0 F6000 X118.339 Y151.149
G1 F1200 X124.039 Y156.849 E97.70043
G0 F6000 X124.604 Y156.849
G1 F1200 X118.905 Y151.149 E97.96852
G0 F6000 X119.471 Y151.149
G1 F1200 X125.17 Y156.849 E98.23661
G0 F6000 X125.736 Y156.849
G1 F1200 X120.037 Y151.149 E98.5047
G0 F6000 X120.602 Y151.149
G1 F1200 X126.301 Y156.849 E98.77278
G0 F6000 X126.867 Y156.849
G1 F1200 X121.168 Y151.149 E99.04087
G0 F6000 X121.734 Y151.149
G1 F1200 X127.433 Y156.849 E99.30896
G0 F6000 X127.999 Y156.849
G1 F1200 X122.299 Y151.149 E99.57707
G0 F6000 X122.865 Y151.149
G1 F1200 X128.564 Y156.849 E99.84515
G0 F6000 X129.13 Y156.849
G1 F1200 X123.431 Y151.149 E100.11324
G0 F6000 X123.996 Y151.149
G1 F1200 X129.696 Y156.849 E100.38135
G0 F6000 X130.261 Y156.849
G1 F1200 X124.562 Y151.149 E100.64944
G0 F6000 X125.128 Y151.149
G1 F1200 X130.827 Y156.849 E100.91753
G0 F6000 X131.393 Y156.849
G1 F1200 X125.693 Y151.149 E101.18564
G0 F6000 X126.259 Y151.149
G1 F1200 X131.958 Y156.849 E101.45372
G0 F6000 X132.524 Y156.849
G1 F1200 X126.825 Y151.149 E101.72181
G0 F6000 X127.39 Y151.149
G1 F1200 X133.09 Y156.849 E101.98992
G0 F6000 X133.655 Y156.849
G1 F1200 X127.956 Y151.149 E102.25801
G0 F6000 X128.522 Y151.149
G1 F1200 X134.221 Y156.849 E102.52609
G0 F6000 X134.787 Y156.849
G1 F1200 X129.087 Y151.149 E102.79421
G0 F6000 X129.653 Y151.149
G1 F1200 X135.352 Y156.849 E103.06229
G0 F6000 X135.918 Y156.849
G1 F1200 X130.219 Y151.149 E103.33038
G0 F6000 X130.785 Y151.149
G1 F1200 X136.484 Y156.849 E103.59847
G0 F6000 X137.05 Y156.849
G1 F1200 X131.35 Y151.149 E103.86658
G0 F6000 X131.916 Y151.149
G1 F1200 X137.615 Y156.849 E104.13466
G0 F6000 X138.181 Y156.849
G1 F1200 X132.482 Y151.149 E104.40275
G0 F6000 X133.047 Y151.149
G1 F1200 X138.747 Y156.849 E104.67086
G0 F6000 X139.312 Y156.849
G1 F1200 X133.613 Y151.149 E104.93895
G0 F6000 X134.179 Y151.149
G1 F1200 X139.878 Y156.849 E105.20704
G0 F6000 X140.444 Y156.849
G1 F1200 X134.744 Y151.149 E105.47515
G0 F6000 X135.31 Y151.149
G1 F1200 X141.009 Y156.849 E105.74323
