;FLAVOR:Marlin
;TIME:6962
;Filament used: 6.70422m
;Layer height: 0.2
;MINX:126.84
;MINY:127.328
;MINZ:0.2
;MAXX:172.3
;MAXY:173.16
;MAXZ:64.2
;Generated with Cura_SteamEngine 4.13.1
M140 S60
M105
M190 S60
M104 S200
M105
M109 S200
M82 ;absolute extrusion mode

; Script based on an original created by tjjfvi (https://github.com/tjjfvi)
; An up-to-date version of the tjjfvi's original script can be found
; here:  https://csi.t6.fyi/
; Note - This script will not work in Cura V4.2 and above!
; max_feedrate_z_override = {max_feedrate_z_override}
; retraction_amount = 6.5
; retraction_hop = 0.2
; retraction_hop_enabled = False
; retraction_prime_speed = 25
; retraction_retract_speed = 25
; retraction_speed = 25
; speed_travel = 225.0
; retraction_enable = True
; layer_height = 0.2
; smooth_spiralized_contours = True


; Ender 3 Custom Start G-code
G92 E0 ; Reset Extruder
G28 ; Home all axes
G1 Z2.0 F3000 ; Move Z Axis up little to prevent scratching of Heat Bed
G1 X0.1 Y20 Z0.3 F5000.0 ; Move to start position
G1 X0.1 Y200.0 Z0.3 F1500.0 E15 ; Draw the first line
G1 X0.4 Y200.0 Z0.3 F5000.0 ; Move to side a little
G1 X0.4 Y20 Z0.3 F1500.0 E30 ; Draw the second line
G92 E0 ; Reset Extruder
G1 Z2.0 F3000 ; Move Z Axis up little to prevent scratching of Heat Bed
G1 X5 Y20 Z0.3 F5000.0 ; Move over to prevent blob squish
G92 E0
G92 E0
G1 F1500 E-6.5
;LAYER_COUNT:321
;LAYER:0
M107
;MESH:endeffector.STL
G0 F6000 X135.373 Y137.07 Z0.2
;TYPE:WALL-INNER
G1 F1500 E0
G1 F1200 X135.725 Y136.973 E0.01214
G1 X136.057 Y136.818 E0.02433
G1 X136.355 Y136.607 E0.03647
G1 X136.614 Y136.348 E0.04866
G1 X136.823 Y136.047 E0.06085
G1 X136.978 Y135.713 E0.07309
G1 X137.07 Y135.359 E0.08526
G1 X137.103 Y134.995 E0.09741
G1 X137.069 Y134.629 E0.10964
G1 X136.973 Y134.275 E0.12184
G1 X136.816 Y133.943 E0.13405
G1 X136.606 Y133.645 E0.14618
G1 X136.347 Y133.386 E0.15836
G1 X136.045 Y133.176 E0.1706
G1 X135.712 Y133.023 E0.18278
G1 X135.359 Y132.93 E0.19493
G1 X134.994 Y132.897 E0.20712
G1 X134.627 Y132.931 E0.21937
G1 X134.275 Y133.028 E0.23152
G1 X133.943 Y133.183 E0.2437
G1 X133.645 Y133.394 E0.25585
G1 X133.386 Y133.653 E0.26803
G1 X133.177 Y133.954 E0.28022
G1 X133.022 Y134.288 E0.29247
G1 X132.929 Y134.642 E0.30464
G1 X132.897 Y135.007 E0.31683
G1 X132.931 Y135.374 E0.32909
G1 X133.027 Y135.726 E0.34122
G1 X133.184 Y136.058 E0.35344
G1 X133.394 Y136.356 E0.36556
G1 X133.653 Y136.615 E0.37774
G1 X133.955 Y136.825 E0.38998
G1 X134.288 Y136.978 E0.40217
G1 X134.641 Y137.071 E0.41431
G1 X135.006 Y137.104 E0.4265
G1 X135.373 Y137.07 E0.43876
G0 F6000 X135.301 Y136.675
;TYPE:WALL-OUTER
G1 F1200 X135.586 Y136.596 E0.44859
G1 X135.855 Y136.471 E0.45846
G1 X136.096 Y136.3 E0.46829
G1 X136.306 Y136.09 E0.47816
G1 X136.475 Y135.847 E0.48801
G1 X136.6 Y135.577 E0.49791
G1 X136.675 Y135.29 E0.50777
G1 X136.701 Y134.996 E0.51759
G1 X136.674 Y134.7 E0.52747
G1 X136.596 Y134.414 E0.53733
G1 X136.469 Y134.145 E0.54723
G1 X136.299 Y133.904 E0.55704
G1 X136.089 Y133.694 E0.56691
G1 X135.846 Y133.525 E0.57676
G1 X135.576 Y133.401 E0.58664
G1 X135.29 Y133.325 E0.59648
G1 X134.995 Y133.299 E0.60633
G1 X134.699 Y133.326 E0.61622
G1 X134.414 Y133.405 E0.62606
G1 X134.145 Y133.53 E0.63592
G1 X133.904 Y133.701 E0.64575
G1 X133.694 Y133.911 E0.65563
G1 X133.525 Y134.154 E0.66547
G1 X133.4 Y134.424 E0.67537
G1 X133.325 Y134.711 E0.68524
G1 X133.299 Y135.006 E0.69508
G1 X133.326 Y135.302 E0.70497
G1 X133.404 Y135.587 E0.7148
G1 X133.531 Y135.856 E0.72469
G1 X133.701 Y136.097 E0.7345
G1 X133.911 Y136.307 E0.74438
G1 X134.154 Y136.476 E0.75422
G1 X134.424 Y136.6 E0.76411
G1 X134.71 Y136.676 E0.77395
G1 X135.005 Y136.702 E0.7838
G1 X135.301 Y136.675 E0.79368
G0 F6000 X135.38 Y137.107
G1 F1500 E-5.70632
G0 F6000 X136.479 Y136.753
G0 X135.64 Y135.535
G0 X164.365 Y135.54
G0 X163.53 Y136.762
G0 X165.006 Y137.104
;TYPE:WALL-INNER
G1 F1500 E0.79368
G1 F1200 X165.373 Y137.07 E0.80594
G1 X165.725 Y136.973 E0.81809
G1 X166.057 Y136.818 E0.83027
G1 X166.355 Y136.607 E0.84242
G1 X166.614 Y136.348 E0.8546
G1 X166.823 Y136.047 E0.86679
G1 X166.978 Y135.713 E0.87904
G1 X167.07 Y135.359 E0.8912
G1 X167.103 Y134.995 E0.90336
G1 X167.069 Y134.629 E0.91558
G1 X166.973 Y134.275 E0.92778
G1 X166.816 Y133.943 E0.94
G1 X166.606 Y133.645 E0.95212
G1 X166.347 Y133.386 E0.9643
G1 X166.045 Y133.176 E0.97654
G1 X165.712 Y133.023 E0.98873
G1 X165.359 Y132.93 E1.00087
G1 X164.994 Y132.897 E1.01306
G1 X164.627 Y132.931 E1.02532
G1 X164.275 Y133.028 E1.03746
G1 X163.943 Y133.183 E1.04965
G1 X163.645 Y133.394 E1.06179
G1 X163.386 Y133.653 E1.07397
G1 X163.177 Y133.954 E1.08616
G1 X163.022 Y134.288 E1.09841
G1 X162.929 Y134.642 E1.11058
G1 X162.897 Y135.007 E1.12277
G1 X162.931 Y135.374 E1.13503
G1 X163.027 Y135.726 E1.14716
G1 X163.184 Y136.058 E1.15938
G1 X163.394 Y136.356 E1.1715
G1 X163.653 Y136.615 E1.18369
G1 X163.955 Y136.825 E1.19592
G1 X164.288 Y136.978 E1.20811
G1 X164.641 Y137.071 E1.22025
G1 X165.006 Y137.104 E1.23244
G0 F6000 X165.005 Y136.702
;TYPE:WALL-OUTER
G1 F1200 X165.301 Y136.675 E1.24233
G1 X165.586 Y136.596 E1.25216
G1 X165.855 Y136.471 E1.26203
G1 X166.096 Y136.3 E1.27186
G1 X166.306 Y136.09 E1.28173
G1 X166.475 Y135.847 E1.29158
G1 X166.6 Y135.577 E1.30148
G1 X166.675 Y135.29 E1.31134
G1 X166.701 Y134.996 E1.32116
G1 X166.674 Y134.7 E1.33104
G1 X166.596 Y134.414 E1.3409
G1 X166.469 Y134.145 E1.3508
G1 X166.299 Y133.904 E1.36061
G1 X166.089 Y133.694 E1.37048
G1 X165.846 Y133.525 E1.38033
G1 X165.576 Y133.401 E1.39021
G1 X165.29 Y133.325 E1.40005
G1 X164.995 Y133.299 E1.4099
G1 X164.699 Y133.326 E1.41979
G1 X164.414 Y133.405 E1.42963
G1 X164.145 Y133.53 E1.43949
G1 X163.904 Y133.701 E1.44932
G1 X163.694 Y133.911 E1.4592
G1 X163.525 Y134.154 E1.46904
G1 X163.4 Y134.424 E1.47894
G1 X163.325 Y134.711 E1.48881
G1 X163.299 Y135.006 E1.49865
G1 X163.326 Y135.302 E1.50854
G1 X163.404 Y135.587 E1.51837
G1 X163.531 Y135.856 E1.52826
G1 X163.701 Y136.097 E1.53807
G1 X163.911 Y136.307 E1.54795
G1 X164.154 Y136.476 E1.55779
G1 X164.424 Y136.6 E1.56768
G1 X164.71 Y136.676 E1.57752
G1 X165.005 Y136.702 E1.58737
G0 F6000 X165.005 Y137.142
G1 F1500 E-4.91263
G0 F6000 X165.005 Y135.833
G0 X164.995 Y164.168
G0 X164.994 Y162.706
G0 X163.75 Y163.518
G0 X163.317 Y164.035
G0 X163.088 Y164.671
G0 X163.089 Y165.344
G0 X163.323 Y165.976
G0 X163.674 Y166.392
G0 X164.642 Y167.072
;TYPE:WALL-INNER
G1 F1500 E1.58737
G1 F1200 X165.006 Y167.102 E1.59952
G1 X165.373 Y167.07 E1.61177
G1 X165.725 Y166.973 E1.62391
G1 X166.057 Y166.818 E1.6361
G1 X166.355 Y166.606 E1.64826
G1 X166.614 Y166.346 E1.66047
G1 X166.823 Y166.046 E1.67263
G1 X166.978 Y165.713 E1.68485
G1 X167.071 Y165.359 E1.69702
G1 X167.103 Y164.994 E1.70921
G1 X167.069 Y164.627 E1.72147
G1 X166.973 Y164.275 E1.7336
G1 X166.816 Y163.943 E1.74582
G1 X166.606 Y163.645 E1.75794
G1 X166.347 Y163.386 E1.77012
G1 X166.045 Y163.176 E1.78236
G1 X165.712 Y163.023 E1.79455
G1 X165.359 Y162.93 E1.80669
G1 X164.994 Y162.897 E1.81888
G1 X164.627 Y162.931 E1.83114
G1 X164.275 Y163.028 E1.84328
G1 X163.943 Y163.183 E1.85547
G1 X163.645 Y163.394 E1.86761
G1 X163.386 Y163.653 E1.87979
G1 X163.177 Y163.954 E1.89198
G1 X163.022 Y164.288 E1.90423
G1 X162.93 Y164.642 E1.91639
G1 X162.897 Y165.006 E1.92855
G1 X162.931 Y165.372 E1.94078
G1 X163.027 Y165.726 E1.95298
G1 X163.184 Y166.057 E1.96516
G1 X163.393 Y166.355 E1.97727
G1 X163.654 Y166.615 E1.98952
G1 X163.955 Y166.825 E2.00173
G1 X164.288 Y166.978 E2.01391
G1 X164.642 Y167.072 E2.0261
G0 F6000 X164.711 Y166.676
;TYPE:WALL-OUTER
G1 F1200 X165.005 Y166.701 E2.03591
G1 X165.301 Y166.675 E2.04579
G1 X165.586 Y166.596 E2.05563
G1 X165.855 Y166.471 E2.0655
G1 X166.096 Y166.3 E2.07532
G1 X166.306 Y166.089 E2.08523
G1 X166.475 Y165.846 E2.09507
G1 X166.6 Y165.577 E2.10494
G1 X166.675 Y165.29 E2.1148
G1 X166.701 Y164.995 E2.12465
G1 X166.674 Y164.699 E2.13454
G1 X166.596 Y164.414 E2.14437
G1 X166.469 Y164.145 E2.15426
G1 X166.299 Y163.904 E2.16407
G1 X166.089 Y163.694 E2.17395
G1 X165.846 Y163.525 E2.18379
G1 X165.576 Y163.401 E2.19367
G1 X165.29 Y163.325 E2.20352
G1 X164.995 Y163.299 E2.21337
G1 X164.699 Y163.326 E2.22325
G1 X164.414 Y163.405 E2.23309
G1 X164.145 Y163.53 E2.24295
G1 X163.904 Y163.701 E2.25278
G1 X163.694 Y163.911 E2.26266
G1 X163.525 Y164.154 E2.2725
G1 X163.4 Y164.424 E2.2824
G1 X163.325 Y164.711 E2.29227
G1 X163.299 Y165.005 E2.30208
G1 X163.326 Y165.301 E2.31197
G1 X163.404 Y165.587 E2.32183
G1 X163.531 Y165.855 E2.33169
G1 X163.7 Y166.097 E2.34151
G1 X163.911 Y166.307 E2.35141
G1 X164.154 Y166.476 E2.36126
G1 X164.424 Y166.6 E2.37114
G1 X164.711 Y166.676 E2.38101
G0 F6000 X164.636 Y167.109
G1 F1500 E-4.11899
G0 F6000 X163.019 Y166.153
G0 X164.28 Y165.418
G0 X135.723 Y165.415
G0 X136.989 Y166.142
G0 X135.373 Y167.07
;TYPE:WALL-INNER
G1 F1500 E2.38101
G1 F1200 X135.725 Y166.973 E2.39316
G1 X136.057 Y166.818 E2.40534
G1 X136.355 Y166.606 E2.41751
G1 X136.614 Y166.346 E2.42971
G1 X136.823 Y166.046 E2.44187
G1 X136.978 Y165.713 E2.45409
G1 X137.071 Y165.359 E2.46626
G1 X137.103 Y164.994 E2.47845
G1 X137.069 Y164.627 E2.49071
G1 X136.973 Y164.275 E2.50285
G1 X136.816 Y163.943 E2.51506
G1 X136.606 Y163.645 E2.52719
G1 X136.347 Y163.386 E2.53937
G1 X136.045 Y163.176 E2.5516
G1 X135.712 Y163.023 E2.56379
G1 X135.359 Y162.93 E2.57593
G1 X134.994 Y162.897 E2.58812
G1 X134.627 Y162.931 E2.60038
G1 X134.275 Y163.028 E2.61252
G1 X133.943 Y163.183 E2.62471
G1 X133.645 Y163.394 E2.63686
G1 X133.386 Y163.653 E2.64904
G1 X133.177 Y163.954 E2.66123
G1 X133.022 Y164.288 E2.67347
G1 X132.93 Y164.642 E2.68564
G1 X132.897 Y165.006 E2.69779
G1 X132.931 Y165.372 E2.71002
G1 X133.027 Y165.726 E2.72222
G1 X133.184 Y166.057 E2.7344
G1 X133.393 Y166.355 E2.74651
G1 X133.654 Y166.615 E2.75876
G1 X133.955 Y166.825 E2.77097
G1 X134.288 Y166.978 E2.78316
G1 X134.642 Y167.072 E2.79534
G1 X135.006 Y167.102 E2.80749
G1 X135.373 Y167.07 E2.81974
G0 F6000 X135.301 Y166.675
;TYPE:WALL-OUTER
G1 F1200 X135.586 Y166.596 E2.82958
G1 X135.855 Y166.471 E2.83944
G1 X136.096 Y166.3 E2.84927
G1 X136.306 Y166.089 E2.85917
G1 X136.475 Y165.846 E2.86902
G1 X136.6 Y165.577 E2.87888
G1 X136.675 Y165.29 E2.88875
G1 X136.701 Y164.995 E2.8986
G1 X136.674 Y164.699 E2.90849
G1 X136.596 Y164.414 E2.91831
G1 X136.469 Y164.145 E2.92821
G1 X136.299 Y163.904 E2.93802
G1 X136.089 Y163.694 E2.94789
G1 X135.846 Y163.525 E2.95774
G1 X135.576 Y163.401 E2.96762
G1 X135.29 Y163.325 E2.97746
G1 X134.995 Y163.299 E2.98731
G1 X134.699 Y163.326 E2.9972
G1 X134.414 Y163.405 E3.00704
G1 X134.145 Y163.53 E3.0169
G1 X133.904 Y163.701 E3.02673
G1 X133.694 Y163.911 E3.03661
G1 X133.525 Y164.154 E3.04645
G1 X133.4 Y164.424 E3.05635
G1 X133.325 Y164.711 E3.06622
G1 X133.299 Y165.005 E3.07603
G1 X133.326 Y165.301 E3.08592
G1 X133.404 Y165.587 E3.09578
G1 X133.531 Y165.855 E3.10564
G1 X133.7 Y166.097 E3.11546
G1 X133.911 Y166.307 E3.12536
G1 X134.154 Y166.476 E3.1352
G1 X134.424 Y166.6 E3.14509
G1 X134.711 Y166.676 E3.15496
G1 X135.005 Y166.701 E3.16478
G1 X135.301 Y166.675 E3.17466
G0 F6000 X135.379 Y167.107
G1 F1500 E-3.32534
G0 F6000 X136.153 Y166.983
G0 X135.416 Y165.722
G0 X137.41 Y173.16
G0 X137.525 Y171.69
G0 X162.479 Y171.9
;TYPE:WALL-INNER
G1 F1500 E3.17466
G1 F1200 X137.521 Y171.9 E4.00476
G1 X136.028 Y171.782 E4.05458
G1 X134.6 Y171.44 E4.10342
G1 X133.235 Y170.875 E4.15255
G1 X131.973 Y170.102 E4.20177
G1 X130.855 Y169.146 E4.2507
G1 X129.899 Y168.027 E4.29965
G1 X129.124 Y166.762 E4.34899
G1 X128.56 Y165.403 E4.39793
G1 X128.218 Y163.973 E4.44683
G1 X128.1 Y162.482 E4.49658
G1 X128.1 Y137.519 E5.32685
G1 X128.218 Y136.028 E5.3766
G1 X128.56 Y134.598 E5.4255
G1 X129.124 Y133.239 E5.47444
G1 X129.899 Y131.974 E5.52378
G1 X130.855 Y130.855 E5.57273
G1 X131.973 Y129.899 E5.62166
G1 X133.235 Y129.126 E5.67088
G1 X134.6 Y128.561 E5.72002
G1 X136.028 Y128.219 E5.76886
G1 X137.522 Y128.1 E5.8187
G1 X162.478 Y128.1 E6.64874
G1 X163.972 Y128.219 E6.69859
G1 X165.4 Y128.561 E6.74743
G1 X166.765 Y129.126 E6.79657
G1 X168.027 Y129.899 E6.84579
G1 X169.145 Y130.855 E6.89472
G1 X170.101 Y131.974 E6.94367
G1 X170.876 Y133.239 E6.99301
G1 X171.44 Y134.598 E7.04195
G1 X171.782 Y136.028 E7.09085
G1 X171.9 Y137.519 E7.1406
G1 X171.9 Y162.482 E7.97087
G1 X171.782 Y163.973 E8.02062
G1 X171.44 Y165.403 E8.06952
G1 X170.876 Y166.762 E8.11846
G1 X170.101 Y168.027 E8.1678
G1 X169.145 Y169.146 E8.21675
G1 X168.027 Y170.102 E8.26568
G1 X166.765 Y170.875 E8.3149
G1 X165.4 Y171.44 E8.36403
G1 X163.972 Y171.782 E8.41287
G1 X162.479 Y171.9 E8.46269
G0 F6000 X162.497 Y172.3
;TYPE:WALL-OUTER
G1 F1200 X137.503 Y172.3 E9.29399
G1 X135.967 Y172.179 E9.34523
G1 X134.474 Y171.821 E9.3963
G1 X133.055 Y171.234 E9.44737
G1 X131.737 Y170.426 E9.49879
G1 X130.571 Y169.43 E9.5498
G1 X129.575 Y168.263 E9.60083
G1 X128.768 Y166.947 E9.65217
G1 X128.178 Y165.524 E9.70341
G1 X127.821 Y164.034 E9.75437
G1 X127.7 Y162.5 E9.80555
G1 X127.7 Y137.501 E10.63702
G1 X127.821 Y135.967 E10.6882
G1 X128.178 Y134.477 E10.73916
G1 X128.768 Y133.054 E10.79039
G1 X129.575 Y131.738 E10.84174
G1 X130.571 Y130.571 E10.89277
G1 X131.737 Y129.575 E10.94377
G1 X133.055 Y128.767 E10.99519
G1 X134.474 Y128.18 E11.04626
G1 X135.967 Y127.822 E11.09733
G1 X137.503 Y127.7 E11.14858
G1 X162.497 Y127.7 E11.97988
G1 X164.033 Y127.822 E12.03113
G1 X165.526 Y128.18 E12.0822
G1 X166.945 Y128.767 E12.13327
G1 X168.263 Y129.575 E12.18469
G1 X169.429 Y130.571 E12.23569
G1 X170.425 Y131.738 E12.28672
G1 X171.232 Y133.054 E12.33807
G1 X171.822 Y134.477 E12.3893
G1 X172.179 Y135.967 E12.44026
G1 X172.3 Y137.501 E12.49144
G1 X172.3 Y162.5 E13.32291
G1 X172.179 Y164.034 E13.37409
G1 X171.822 Y165.524 E13.42505
G1 X171.232 Y166.947 E13.47629
G1 X170.425 Y168.263 E13.52763
G1 X169.429 Y169.43 E13.57866
G1 X168.263 Y170.426 E13.62967
G1 X166.945 Y171.234 E13.68108
G1 X165.526 Y171.821 E13.73216
G1 X164.033 Y172.179 E13.78322
G1 X162.497 Y172.3 E13.83447
G0 F6000 X162.48 Y171.861
G0 X162.474 Y171.51
;TYPE:SKIN
G1 F1200 X137.526 Y171.51 E14.66424
G1 X136.092 Y171.396 E14.71209
G1 X134.725 Y171.069 E14.75884
G1 X133.41 Y170.525 E14.80617
G1 X132.203 Y169.786 E14.85324
G1 X131.129 Y168.867 E14.90026
G1 X130.218 Y167.801 E14.9469
G1 X129.473 Y166.584 E14.99436
G1 X128.934 Y165.286 E15.0411
G1 X128.603 Y163.903 E15.0884
G1 X128.49 Y162.482 E15.13581
G1 X128.49 Y137.519 E15.96608
G1 X128.603 Y136.098 E16.0135
G1 X128.934 Y134.715 E16.06079
G1 X129.473 Y133.417 E16.10754
G1 X130.218 Y132.2 E16.155
G1 X131.129 Y131.134 E16.20164
G1 X132.203 Y130.215 E16.24865
G1 X133.41 Y129.476 E16.29572
G1 X134.725 Y128.932 E16.34306
G1 X136.092 Y128.605 E16.3898
G1 X137.527 Y128.49 E16.43769
G1 X162.473 Y128.49 E17.26739
G1 X163.908 Y128.605 E17.31527
G1 X165.275 Y128.932 E17.36202
G1 X166.59 Y129.476 E17.40936
G1 X167.797 Y130.215 E17.45643
G1 X168.871 Y131.134 E17.50344
G1 X169.782 Y132.2 E17.55008
G1 X170.527 Y133.417 E17.59754
G1 X171.066 Y134.715 E17.64429
G1 X171.397 Y136.098 E17.69158
G1 X171.51 Y137.519 E17.739
G1 X171.51 Y162.482 E18.56927
G1 X171.397 Y163.903 E18.61668
G1 X171.066 Y165.286 E18.66398
G1 X170.527 Y166.584 E18.71072
G1 X169.782 Y167.801 E18.75818
G1 X168.871 Y168.867 E18.80482
G1 X167.797 Y169.786 E18.85184
G1 X166.59 Y170.525 E18.89891
G1 X165.275 Y171.069 E18.94624
G1 X163.908 Y171.396 E18.99299
G1 X162.474 Y171.51 E19.04083
G1 F1500 E12.54083
G0 F6000 X162.494 Y171.789
G0 X163.938 Y171.574
G0 X164.282 Y173.008
G0 X164.854 Y165.82
G0 X164.609 Y167.261
G0 X164.25 Y167.082
G1 F1500 E19.04083
G0 F6000 X164.155 Y167.346
G1 F1200 X164.576 Y167.458 E19.05532
G1 X165.006 Y167.494 E19.06968
G1 X165.443 Y167.456 E19.08427
G1 X165.86 Y167.34 E19.09866
G1 X166.254 Y167.157 E19.11311
G1 X166.608 Y166.904 E19.12758
G1 X166.914 Y166.597 E19.142
G1 X167.162 Y166.241 E19.15643
G1 X167.346 Y165.846 E19.17092
G1 X167.457 Y165.426 E19.18537
G1 X167.495 Y164.994 E19.1998
G1 X167.455 Y164.557 E19.21439
G1 X167.34 Y164.139 E19.22881
G1 X167.154 Y163.746 E19.24327
G1 X166.906 Y163.393 E19.25762
G1 X166.598 Y163.086 E19.27208
G1 X166.24 Y162.836 E19.28661
G1 X165.844 Y162.655 E19.30109
G1 X165.427 Y162.544 E19.31544
G1 X164.994 Y162.505 E19.3299
