;FLAVOR:Marlin
;TIME:9449
;Filament used: 10.5389m
;Layer height: 0.2
;MINX:104.851
;MINY:104.836
;MINZ:0.2
;MAXX:195.15
;MAXY:195.098
;MAXZ:14.6
;Generated with Cura_SteamEngine 4.13.1
M140 S60
M105
M190 S60
M104 S200
M105
M109 S200
M82 ;absolute extrusion mode

; Script based on an original created by tjjfvi (https://github.com/tjjfvi)
; An up-to-date version of the tjjfvi's original script can be found
; here:  https://csi.t6.fyi/
; Note - This script will not work in Cura V4.2 and above!
; max_feedrate_z_override = {max_feedrate_z_override}
; retraction_amount = 6.5
; retraction_hop = 0.2
; retraction_hop_enabled = False
; retraction_prime_speed = 25
; retraction_retract_speed = 25
; retraction_speed = 25
; speed_travel = 225.0
; retraction_enable = True
; layer_height = 0.2
; smooth_spiralized_contours = True


; Ender 3 Custom Start G-code
G92 E0 ; Reset Extruder
G28 ; Home all axes
G1 Z2.0 F3000 ; Move Z Axis up little to prevent scratching of Heat Bed
G1 X0.1 Y20 Z0.3 F5000.0 ; Move to start position
G1 X0.1 Y200.0 Z0.3 F1500.0 E15 ; Draw the first line
G1 X0.4 Y200.0 Z0.3 F5000.0 ; Move to side a little
G1 X0.4 Y20 Z0.3 F1500.0 E30 ; Draw the second line
G92 E0 ; Reset Extruder
G1 Z2.0 F3000 ; Move Z Axis up little to prevent scratching of Heat Bed
G1 X5 Y20 Z0.3 F5000.0 ; Move over to prevent blob squish
G92 E0
G92 E0
G1 F1500 E-6.5
;LAYER_COUNT:73
;LAYER:0
M107
G0 F6000 X125.208 Y122.408 Z0.2
;TYPE:SKIRT
G1 F1500 E0
G1 F1200 X122.408 Y125.208 E0.1317
G1 X122.215 Y125.415 E0.14112
G1 X122.064 Y125.596 E0.14896
G1 X119.623 Y128.711 E0.28058
G1 X119.487 Y128.895 E0.28819
G1 X119.326 Y129.139 E0.29792
G1 X117.246 Y132.584 E0.43176
G1 X117.045 Y132.97 E0.44624
G1 X115.405 Y136.614 E0.57915
G1 X115.265 Y136.972 E0.59193
G1 X115.223 Y137.099 E0.59638
G1 X114.047 Y140.868 E0.7277
G1 X113.978 Y141.123 E0.73648
G1 X113.923 Y141.374 E0.74503
G1 X113.206 Y145.285 E0.87728
G1 X113.157 Y145.66 E0.88986
G1 X113.146 Y145.802 E0.89459
G1 X112.908 Y149.741 E1.02585
G1 X112.901 Y150.03 E1.03546
G1 X112.908 Y150.259 E1.04308
G1 X113.152 Y154.279 E1.17703
G1 X113.157 Y154.34 E1.17907
G1 X113.206 Y154.715 E1.19165
G1 X113.923 Y158.626 E1.3239
G1 X113.978 Y158.877 E1.33244
G1 X114.047 Y159.132 E1.34123
G1 X115.246 Y162.971 E1.475
G1 X115.265 Y163.028 E1.47699
G1 X115.405 Y163.386 E1.48978
G1 X117.045 Y167.03 E1.62269
G1 X117.246 Y167.416 E1.63716
G1 X119.326 Y170.861 E1.77101
G1 X119.487 Y171.105 E1.78073
G1 X119.623 Y171.289 E1.78834
G1 X122.064 Y174.404 E1.91997
G1 X122.255 Y174.63 E1.92981
G1 X122.408 Y174.792 E1.93722
G1 X125.208 Y177.592 E2.06893
G1 X125.415 Y177.785 E2.07834
G1 X125.596 Y177.936 E2.08618
G1 X128.711 Y180.377 E2.21781
G1 X128.895 Y180.513 E2.22542
G1 X129.139 Y180.674 E2.23514
G1 X132.584 Y182.754 E2.36898
G1 X132.97 Y182.955 E2.38346
G1 X136.614 Y184.595 E2.51637
G1 X136.972 Y184.735 E2.52915
G1 X137.099 Y184.777 E2.5336
G1 X140.868 Y185.953 E2.66492
G1 X141.123 Y186.022 E2.67371
G1 X141.374 Y186.077 E2.68225
G1 X145.285 Y186.794 E2.8145
G1 X145.66 Y186.843 E2.82708
G1 X145.802 Y186.854 E2.83182
G1 X149.741 Y187.092 E2.96307
G1 X150.03 Y187.099 E2.97268
G1 X150.259 Y187.092 E2.9803
G1 X154.279 Y186.848 E3.11425
G1 X154.34 Y186.843 E3.11629
G1 X154.715 Y186.794 E3.12887
G1 X158.626 Y186.077 E3.26112
G1 X158.877 Y186.022 E3.26966
G1 X159.132 Y185.953 E3.27845
G1 X162.971 Y184.754 E3.41222
G1 X163.028 Y184.735 E3.41422
G1 X163.386 Y184.595 E3.427
G1 X167.03 Y182.955 E3.55991
G1 X167.416 Y182.754 E3.57439
G1 X170.861 Y180.674 E3.70823
G1 X171.105 Y180.513 E3.71795
G1 X171.289 Y180.377 E3.72556
G1 X174.404 Y177.936 E3.85719
G1 X174.63 Y177.745 E3.86703
G1 X174.792 Y177.592 E3.87444
G1 X177.592 Y174.792 E4.00615
G1 X177.785 Y174.585 E4.01556
G1 X177.936 Y174.404 E4.0234
G1 X180.377 Y171.289 E4.15503
G1 X180.513 Y171.105 E4.16264
G1 X180.674 Y170.861 E4.17236
G1 X182.754 Y167.416 E4.30621
G1 X182.955 Y167.03 E4.32068
G1 X184.595 Y163.386 E4.45359
G1 X184.735 Y163.028 E4.46638
G1 X184.777 Y162.901 E4.47082
G1 X185.953 Y159.132 E4.60214
G1 X186.022 Y158.877 E4.61093
G1 X186.077 Y158.626 E4.61948
G1 X186.794 Y154.715 E4.75172
G1 X186.843 Y154.34 E4.7643
G1 X186.854 Y154.198 E4.76904
G1 X187.092 Y150.259 E4.90029
G1 X187.099 Y149.97 E4.9099
G1 X187.092 Y149.741 E4.91753
G1 X186.848 Y145.721 E5.05148
G1 X186.843 Y145.66 E5.05351
G1 X186.794 Y145.285 E5.06609
G1 X186.077 Y141.374 E5.19834
G1 X186.022 Y141.123 E5.20689
G1 X185.953 Y140.868 E5.21567
G1 X184.754 Y137.029 E5.34944
G1 X184.735 Y136.972 E5.35144
G1 X184.595 Y136.614 E5.36422
G1 X182.955 Y132.97 E5.49713
G1 X182.754 Y132.584 E5.51161
G1 X180.674 Y129.139 E5.64545
G1 X180.513 Y128.895 E5.65518
G1 X180.377 Y128.711 E5.66279
G1 X177.936 Y125.596 E5.79441
G1 X177.745 Y125.37 E5.80426
G1 X177.592 Y125.208 E5.81167
G1 X174.792 Y122.408 E5.94337
G1 X174.585 Y122.215 E5.95278
G1 X174.404 Y122.064 E5.96062
G1 X171.289 Y119.623 E6.09225
G1 X171.105 Y119.487 E6.09986
G1 X170.861 Y119.326 E6.10958
G1 X167.416 Y117.246 E6.24343
G1 X167.03 Y117.045 E6.2579
G1 X163.386 Y115.405 E6.39081
G1 X163.028 Y115.265 E6.4036
G1 X162.901 Y115.223 E6.40805
G1 X159.132 Y114.047 E6.53936
G1 X158.877 Y113.978 E6.54815
G1 X158.626 Y113.923 E6.5567
G1 X154.715 Y113.206 E6.68895
G1 X154.34 Y113.157 E6.70152
G1 X154.198 Y113.146 E6.70626
G1 X150.259 Y112.908 E6.83751
G1 X150.03 Y112.901 E6.84513
G1 X149.741 Y112.908 E6.85475
G1 X145.721 Y113.152 E6.9887
G1 X145.66 Y113.157 E6.99073
G1 X145.285 Y113.206 E7.00331
G1 X141.374 Y113.923 E7.13556
G1 X141.123 Y113.978 E7.14411
G1 X140.868 Y114.047 E7.15289
G1 X137.029 Y115.246 E7.28666
G1 X136.972 Y115.265 E7.28866
G1 X136.614 Y115.405 E7.30145
G1 X132.97 Y117.045 E7.43436
G1 X132.584 Y117.246 E7.44883
G1 X129.139 Y119.326 E7.58268
G1 X128.895 Y119.487 E7.5924
G1 X128.711 Y119.623 E7.60001
G1 X125.596 Y122.064 E7.73164
G1 X125.37 Y122.255 E7.74148
G1 X125.208 Y122.408 E7.74889
G0 F6000 X125.491 Y122.691
G1 F1200 X122.691 Y125.491 E7.88059
G1 X122.514 Y125.681 E7.88923
G1 X122.379 Y125.843 E7.89624
G1 X119.938 Y128.958 E8.02787
G1 X119.812 Y129.128 E8.03491
G1 X119.669 Y129.346 E8.04358
G1 X117.59 Y132.789 E8.17735
G1 X117.41 Y133.135 E8.19032
G1 X115.77 Y136.779 E8.32323
G1 X115.644 Y137.099 E8.33467
G1 X115.605 Y137.218 E8.33884
G1 X114.429 Y140.987 E8.47015
G1 X114.353 Y141.274 E8.48003
G1 X114.317 Y141.446 E8.48587
G1 X113.6 Y145.357 E8.61812
G1 X113.555 Y145.692 E8.62936
G1 X113.545 Y145.826 E8.63383
G1 X113.307 Y149.765 E8.76508
G1 X113.301 Y150.03 E8.7739
G1 X113.307 Y150.235 E8.78072
G1 X113.55 Y154.247 E8.9144
G1 X113.555 Y154.308 E8.91644
G1 X113.6 Y154.643 E8.92768
G1 X114.317 Y158.554 E9.05993
G1 X114.429 Y159.013 E9.07565
G1 X115.625 Y162.844 E9.20913
G1 X115.644 Y162.901 E9.21113
G1 X115.77 Y163.221 E9.22257
G1 X117.41 Y166.865 E9.35548
G1 X117.59 Y167.211 E9.36845
G1 X119.669 Y170.654 E9.50222
G1 X119.812 Y170.872 E9.51089
G1 X119.938 Y171.042 E9.51793
G1 X122.379 Y174.157 E9.64956
G1 X122.554 Y174.364 E9.65857
G1 X122.691 Y174.509 E9.66521
G1 X125.491 Y177.309 E9.79691
G1 X125.681 Y177.486 E9.80555
G1 X125.843 Y177.621 E9.81256
G1 X128.958 Y180.062 E9.94419
G1 X129.128 Y180.188 E9.95123
G1 X129.346 Y180.331 E9.9599
G1 X132.789 Y182.41 E10.09367
G1 X133.135 Y182.59 E10.10664
G1 X136.779 Y184.23 E10.23955
G1 X137.099 Y184.356 E10.25099
G1 X137.218 Y184.395 E10.25515
G1 X140.987 Y185.571 E10.38647
G1 X141.274 Y185.647 E10.39635
G1 X141.446 Y185.683 E10.40219
G1 X145.357 Y186.4 E10.53444
G1 X145.692 Y186.445 E10.54568
G1 X145.826 Y186.455 E10.55015
G1 X149.765 Y186.693 E10.6814
G1 X150.03 Y186.699 E10.69022
G1 X150.235 Y186.693 E10.69704
G1 X154.247 Y186.45 E10.83072
G1 X154.308 Y186.445 E10.83276
G1 X154.643 Y186.4 E10.844
G1 X158.554 Y185.683 E10.97625
G1 X159.013 Y185.571 E10.99196
G1 X162.844 Y184.375 E11.12545
G1 X162.901 Y184.356 E11.12745
G1 X163.221 Y184.23 E11.13888
G1 X166.865 Y182.59 E11.27179
G1 X167.211 Y182.41 E11.28477
G1 X170.654 Y180.331 E11.41854
G1 X170.872 Y180.188 E11.42721
G1 X171.042 Y180.062 E11.43425
G1 X174.157 Y177.621 E11.56587
G1 X174.364 Y177.446 E11.57489
G1 X174.509 Y177.309 E11.58152
G1 X177.309 Y174.509 E11.71323
G1 X177.486 Y174.319 E11.72186
G1 X177.621 Y174.157 E11.72888
G1 X180.062 Y171.042 E11.8605
G1 X180.188 Y170.872 E11.86754
G1 X180.331 Y170.654 E11.87621
G1 X182.41 Y167.211 E12.00999
G1 X182.59 Y166.865 E12.02296
G1 X184.23 Y163.221 E12.15587
G1 X184.356 Y162.901 E12.16731
G1 X184.395 Y162.782 E12.17147
G1 X185.571 Y159.013 E12.30279
G1 X185.647 Y158.726 E12.31266
G1 X185.683 Y158.554 E12.31851
G1 X186.4 Y154.643 E12.45076
G1 X186.445 Y154.308 E12.462
G1 X186.455 Y154.174 E12.46647
G1 X186.693 Y150.235 E12.59772
G1 X186.699 Y149.97 E12.60654
G1 X186.693 Y149.765 E12.61336
G1 X186.45 Y145.753 E12.74704
G1 X186.445 Y145.692 E12.74908
G1 X186.4 Y145.357 E12.76032
G1 X185.683 Y141.446 E12.89257
G1 X185.571 Y140.987 E12.90828
G1 X184.375 Y137.156 E13.04177
G1 X184.356 Y137.099 E13.04376
G1 X184.23 Y136.779 E13.0552
G1 X182.59 Y133.135 E13.18811
G1 X182.41 Y132.789 E13.20108
G1 X180.331 Y129.346 E13.33486
G1 X180.188 Y129.128 E13.34353
G1 X180.062 Y128.958 E13.35057
G1 X177.621 Y125.843 E13.48219
G1 X177.446 Y125.636 E13.49121
G1 X177.309 Y125.491 E13.49784
G1 X174.509 Y122.691 E13.62955
G1 X174.319 Y122.514 E13.63818
G1 X174.157 Y122.379 E13.6452
G1 X171.042 Y119.938 E13.77682
G1 X170.872 Y119.812 E13.78386
G1 X170.654 Y119.669 E13.79253
G1 X167.211 Y117.59 E13.9263
G1 X166.865 Y117.41 E13.93928
G1 X163.221 Y115.77 E14.07219
G1 X162.901 Y115.644 E14.08362
G1 X162.782 Y115.605 E14.08779
G1 X159.013 Y114.429 E14.21911
G1 X158.726 Y114.353 E14.22898
G1 X158.554 Y114.317 E14.23483
G1 X154.643 Y113.6 E14.36707
G1 X154.308 Y113.555 E14.37832
G1 X154.174 Y113.545 E14.38279
G1 X150.235 Y113.307 E14.51404
G1 X150.03 Y113.301 E14.52086
G1 X149.765 Y113.307 E14.52967
G1 X145.753 Y113.55 E14.66336
G1 X145.692 Y113.555 E14.66539
G1 X145.357 Y113.6 E14.67664
G1 X141.446 Y114.317 E14.80888
G1 X140.987 Y114.429 E14.8246
G1 X137.156 Y115.625 E14.95808
G1 X137.099 Y115.644 E14.96008
G1 X136.779 Y115.77 E14.97152
G1 X133.135 Y117.41 E15.10443
G1 X132.789 Y117.59 E15.1174
G1 X129.346 Y119.669 E15.25117
G1 X129.128 Y119.812 E15.25984
G1 X128.958 Y119.938 E15.26688
G1 X125.843 Y122.379 E15.39851
G1 X125.636 Y122.554 E15.40753
G1 X125.491 Y122.691 E15.41416
G0 F6000 X125.774 Y122.974
G1 F1200 X122.974 Y125.774 E15.54586
G1 X122.694 Y126.09 E15.55991
G1 X120.253 Y129.205 E15.69153
G1 X120.011 Y129.553 E15.70563
G1 X117.933 Y132.994 E15.83933
G1 X117.774 Y133.299 E15.85077
G1 X116.134 Y136.943 E15.98368
G1 X116.024 Y137.225 E15.99375
G1 X115.987 Y137.337 E15.99767
G1 X114.811 Y141.106 E16.12899
G1 X114.742 Y141.366 E16.13793
G1 X114.71 Y141.518 E16.1431
G1 X113.993 Y145.429 E16.27535
G1 X113.954 Y145.725 E16.28528
G1 X113.944 Y145.85 E16.28945
G1 X113.706 Y149.789 E16.4207
G1 X113.706 Y150.211 E16.43474
G1 X113.949 Y154.214 E16.56812
G1 X113.954 Y154.275 E16.57016
G1 X113.993 Y154.571 E16.58009
G1 X114.71 Y158.482 E16.71233
G1 X114.811 Y158.894 E16.72644
G1 X116.005 Y162.718 E16.85969
G1 X116.024 Y162.775 E16.86168
G1 X116.134 Y163.057 E16.87175
G1 X117.774 Y166.701 E17.00466
G1 X117.933 Y167.006 E17.0161
G1 X120.011 Y170.447 E17.1498
G1 X120.173 Y170.689 E17.15948
G1 X120.253 Y170.795 E17.1639
G1 X122.694 Y173.91 E17.29553
G1 X122.974 Y174.226 E17.30957
G1 X125.774 Y177.026 E17.44127
G1 X126.09 Y177.306 E17.45532
G1 X129.205 Y179.747 E17.58694
G1 X129.553 Y179.989 E17.60104
G1 X132.994 Y182.067 E17.73474
G1 X133.299 Y182.226 E17.74618
G1 X136.943 Y183.866 E17.87909
G1 X137.225 Y183.976 E17.88916
G1 X137.337 Y184.013 E17.89308
G1 X141.106 Y185.189 E18.0244
G1 X141.366 Y185.258 E18.03334
G1 X141.518 Y185.29 E18.03851
G1 X145.429 Y186.007 E18.17076
G1 X145.725 Y186.046 E18.18069
G1 X145.85 Y186.056 E18.18486
G1 X149.789 Y186.294 E18.31611
G1 X150.211 Y186.294 E18.33015
G1 X154.214 Y186.051 E18.46353
G1 X154.275 Y186.046 E18.46557
G1 X154.571 Y186.007 E18.4755
G1 X158.482 Y185.29 E18.60775
G1 X158.894 Y185.189 E18.62185
G1 X162.718 Y183.995 E18.7551
G1 X162.775 Y183.976 E18.7571
G1 X163.057 Y183.866 E18.76716
G1 X166.701 Y182.226 E18.90007
G1 X167.006 Y182.067 E18.91151
G1 X170.447 Y179.989 E19.04521
G1 X170.689 Y179.827 E19.0549
G1 X170.795 Y179.747 E19.05931
G1 X173.91 Y177.306 E19.19094
G1 X174.226 Y177.026 E19.20498
G1 X177.026 Y174.226 E19.33669
G1 X177.306 Y173.91 E19.35073
G1 X179.747 Y170.795 E19.48235
G1 X179.989 Y170.447 E19.49645
G1 X182.067 Y167.006 E19.63015
G1 X182.226 Y166.701 E19.64159
G1 X183.866 Y163.057 E19.7745
G1 X183.976 Y162.775 E19.78457
G1 X184.013 Y162.663 E19.78849
G1 X185.189 Y158.894 E19.91981
G1 X185.258 Y158.634 E19.92876
G1 X185.29 Y158.482 E19.93392
G1 X186.007 Y154.571 E20.06617
G1 X186.046 Y154.275 E20.0761
G1 X186.056 Y154.15 E20.08027
G1 X186.294 Y150.211 E20.21152
G1 X186.294 Y149.789 E20.22556
G1 X186.051 Y145.786 E20.35894
G1 X186.046 Y145.725 E20.36098
G1 X186.007 Y145.429 E20.37091
G1 X185.29 Y141.518 E20.50316
G1 X185.189 Y141.106 E20.51727
G1 X183.995 Y137.282 E20.65051
G1 X183.976 Y137.225 E20.65251
G1 X183.866 Y136.943 E20.66257
G1 X182.226 Y133.299 E20.79548
G1 X182.067 Y132.994 E20.80692
G1 X179.989 Y129.553 E20.94062
G1 X179.827 Y129.311 E20.95031
G1 X179.747 Y129.205 E20.95472
G1 X177.306 Y126.09 E21.08635
G1 X177.026 Y125.774 E21.10039
G1 X174.226 Y122.974 E21.2321
G1 X173.91 Y122.694 E21.24614
G1 X170.795 Y120.253 E21.37777
G1 X170.447 Y120.011 E21.39186
G1 X167.006 Y117.933 E21.52556
G1 X166.701 Y117.774 E21.537
G1 X163.057 Y116.134 E21.66991
G1 X162.775 Y116.024 E21.67998
G1 X162.663 Y115.987 E21.6839
G1 X158.894 Y114.811 E21.81522
G1 X158.634 Y114.742 E21.82417
G1 X158.482 Y114.71 E21.82933
G1 X154.571 Y113.993 E21.96158
G1 X154.275 Y113.954 E21.97151
G1 X154.15 Y113.944 E21.97568
G1 X150.211 Y113.706 E22.10693
G1 X149.789 Y113.706 E22.12097
G1 X145.786 Y113.949 E22.25435
G1 X145.725 Y113.954 E22.25639
G1 X145.429 Y113.993 E22.26632
G1 X141.518 Y114.71 E22.39857
G1 X141.106 Y114.811 E22.41268
G1 X137.282 Y116.005 E22.54592
G1 X137.225 Y116.024 E22.54792
G1 X136.943 Y116.134 E22.55799
G1 X133.299 Y117.774 E22.69089
G1 X132.994 Y117.933 E22.70233
G1 X129.553 Y120.011 E22.83603
G1 X129.311 Y120.173 E22.84572
G1 X129.205 Y120.253 E22.85014
G1 X126.09 Y122.694 E22.98176
G1 X125.774 Y122.974 E22.9958
G0 F6000 X126.057 Y123.257
G1 F1200 X123.257 Y126.057 E23.12751
G1 X123.008 Y126.336 E23.13995
G1 X120.567 Y129.451 E23.27157
G1 X120.353 Y129.76 E23.28407
G1 X118.277 Y133.199 E23.41768
G1 X118.139 Y133.463 E23.42759
G1 X116.499 Y137.107 E23.5605
G1 X116.403 Y137.352 E23.56925
G1 X115.193 Y141.226 E23.70424
G1 X115.104 Y141.59 E23.7167
G1 X114.387 Y145.501 E23.84895
G1 X114.353 Y145.758 E23.85757
G1 X114.344 Y145.874 E23.86144
G1 X114.106 Y149.813 E23.99269
G1 X114.106 Y150.187 E24.00513
G1 X114.348 Y154.181 E24.13822
G1 X114.353 Y154.242 E24.14025
G1 X114.387 Y154.499 E24.14887
G1 X115.104 Y158.41 E24.28112
G1 X115.193 Y158.774 E24.29359
G1 X116.403 Y162.648 E24.42857
G1 X116.499 Y162.893 E24.43733
G1 X118.139 Y166.537 E24.57024
G1 X118.277 Y166.801 E24.58014
G1 X120.353 Y170.24 E24.71375
G1 X120.498 Y170.456 E24.7224
G1 X120.567 Y170.549 E24.72625
G1 X123.008 Y173.664 E24.85788
G1 X123.257 Y173.943 E24.87032
G1 X126.057 Y176.743 E25.00202
G1 X126.336 Y176.992 E25.01446
G1 X129.451 Y179.433 E25.14609
G1 X129.76 Y179.647 E25.15859
G1 X133.199 Y181.723 E25.29219
G1 X133.463 Y181.861 E25.3021
G1 X137.107 Y183.501 E25.43501
G1 X137.352 Y183.597 E25.44376
G1 X141.226 Y184.807 E25.57875
G1 X141.59 Y184.896 E25.59122
G1 X145.501 Y185.613 E25.72346
G1 X145.758 Y185.647 E25.73209
G1 X145.874 Y185.656 E25.73596
G1 X149.813 Y185.894 E25.86721
G1 X150.187 Y185.894 E25.87965
G1 X154.181 Y185.652 E26.01273
G1 X154.242 Y185.647 E26.01477
G1 X154.499 Y185.613 E26.02339
G1 X158.41 Y184.896 E26.15564
G1 X158.774 Y184.807 E26.1681
G1 X162.648 Y183.597 E26.30309
G1 X162.893 Y183.501 E26.31184
G1 X166.537 Y181.861 E26.44475
G1 X166.801 Y181.723 E26.45466
G1 X170.24 Y179.647 E26.58826
G1 X170.456 Y179.502 E26.59692
G1 X170.549 Y179.433 E26.60077
G1 X173.664 Y176.992 E26.73239
