;FLAVOR:Marlin
;TIME:494
;Filament used: 0.158869m
;Layer height: 0.2
;MINX:98.95
;MINY:109.2
;MINZ:0.2
;MAXX:121.05
;MAXY:111.653
;MAXZ:8.8
;Generated with Cura_SteamEngine 4.10.0
M140 S60
M105
M190 S60
M104 S205
M105
M109 S205
M82 ;absolute extrusion mode
; Ender 3 Custom Start G-code
G92 E0 ; Reset Extruder
G28 ; Home all axes
G1 Z2.0 F3000 ; Move Z Axis up little to prevent scratching of Heat Bed
G1 X0.1 Y20 Z0.3 F5000.0 ; Move to start position
G1 X0.1 Y200.0 Z0.3 F1500.0 E15 ; Draw the first line
G1 X0.4 Y200.0 Z0.3 F5000.0 ; Move to side a little
G1 X0.4 Y20 Z0.3 F1500.0 E30 ; Draw the second line
G92 E0 ; Reset Extruder
G1 Z2.0 F3000 ; Move Z Axis up little to prevent scratching of Heat Bed
G1 X5 Y20 Z0.3 F5000.0 ; Move over to prevent blob squish
G92 E0
G92 E0
G1 F1500 E-6.5
;LAYER_COUNT:45
;LAYER:0
M107
;MESH:screwsplate.STL
G0 F9000 X120.65 Y110.4 Z0.2
;TYPE:WALL-INNER
G1 F1500 E0
G1 F894.8 X120.451 Y110.4 E0.00662
G1 X99.351 Y110.4 E0.70841
G1 X99.35 Y109.799 E0.7284
G1 X99.35 Y109.6 E0.73502
G1 X99.549 Y109.6 E0.7393
G1 X120.649 Y109.6 E1.44109
G1 X120.65 Y110.201 E1.46108
G1 X120.65 Y110.4 E1.46536
G0 F9000 X121.05 Y110.8
;TYPE:WALL-OUTER
G1 F894.8 X98.951 Y110.8 E2.20037
G1 X98.95 Y109.2 E2.25359
G1 X121.049 Y109.2 E2.98861
G1 X121.05 Y110.8 E3.04182
G0 F9000 X120.78 Y110.53
G0 X120.26 Y110.29
G0 X120.26 Y110.01
;TYPE:SKIN
G1 F894.8 X99.741 Y110.01 E3.72429
G1 X99.74 Y109.99 E3.72495
G1 X120.259 Y109.99 E4.40742
G1 X120.26 Y110.01 E4.40808
G0 F9000 X120.26 Y110.2
;MESH:NONMESH
G0 F300 X120.26 Y110.2 Z0.4
G0 F9000 X120.65 Y110.4
;TIME_ELAPSED:13.808559
;LAYER:1
M106 S85
;TYPE:WALL-INNER
;MESH:screwsplate.STL
G1 F797.2 X99.35 Y110.4 E5.11652
G1 X99.35 Y109.6 E5.14313
G1 X120.65 Y109.6 E5.85157
G1 X120.65 Y110.4 E5.87818
G0 F10500 X121.05 Y110.8
;TYPE:WALL-OUTER
G1 F797.2 X98.95 Y110.8 E6.61323
G1 X98.95 Y109.2 E6.66645
G1 X121.05 Y109.2 E7.4015
G1 X121.05 Y110.8 E7.45471
G0 F10500 X120.78 Y110.53
G0 X120.26 Y110.29
G0 X120.26 Y110.01
;TYPE:SKIN
G1 F797.2 X99.74 Y110.01 E8.13721
G1 X99.74 Y109.99 E8.13788
G1 X120.26 Y109.99 E8.82037
G1 X120.26 Y110.01 E8.82104
G0 F10500 X120.26 Y110.2
;MESH:NONMESH
G0 F300 X120.26 Y110.2 Z0.6
G0 F10500 X120.65 Y110.4
;TIME_ELAPSED:24.155172
;LAYER:2
M106 S170
;TYPE:WALL-INNER
;MESH:screwsplate.STL
G1 F797.2 X99.35 Y110.4 E9.52948
G1 X99.35 Y109.6 E9.55609
G1 X120.65 Y109.6 E10.26453
G1 X120.65 Y110.4 E10.29114
G0 F10500 X121.05 Y110.8
;TYPE:WALL-OUTER
G1 F797.2 X98.95 Y110.8 E11.02619
G1 X98.95 Y109.2 E11.0794
G1 X121.05 Y109.2 E11.81445
G1 X121.05 Y110.8 E11.86767
G0 F10500 X120.78 Y110.53
G0 X120.26 Y110.29
G0 X120.26 Y110.01
;TYPE:SKIN
G1 F797.2 X99.74 Y110.01 E12.55017
G1 X99.74 Y109.99 E12.55083
G1 X120.26 Y109.99 E13.23333
G1 X120.26 Y110.01 E13.23399
G0 F10500 X120.26 Y110.2
;MESH:NONMESH
G0 F300 X120.26 Y110.2 Z0.8
G0 F10500 X120.65 Y110.4
;TIME_ELAPSED:34.501785
;LAYER:3
M106 S255
;TYPE:WALL-INNER
;MESH:screwsplate.STL
G1 F797.2 X99.35 Y110.4 E13.94243
G1 X99.35 Y109.6 E13.96904
G1 X120.65 Y109.6 E14.67748
G1 X120.65 Y110.4 E14.70409
G0 F10500 X121.05 Y110.8
;TYPE:WALL-OUTER
G1 F797.2 X98.95 Y110.8 E15.43914
G1 X98.95 Y109.2 E15.49236
G1 X121.05 Y109.2 E16.22741
G1 X121.05 Y110.8 E16.28062
G0 F10500 X120.78 Y110.53
G0 X120.26 Y110.29
G0 X120.26 Y110.01
;TYPE:SKIN
G1 F797.2 X99.74 Y110.01 E16.96312
G1 X99.74 Y109.99 E16.96378
G1 X120.26 Y109.99 E17.64628
G1 X120.26 Y110.01 E17.64695
G0 F10500 X120.26 Y110.2
;MESH:NONMESH
G0 F300 X120.26 Y110.2 Z1
G0 F10500 X120.65 Y110.4
;TIME_ELAPSED:44.848397
;LAYER:4
;TYPE:WALL-INNER
;MESH:screwsplate.STL
G1 F678.9 X99.35 Y110.4 E18.35539
G1 X99.35 Y109.6 E18.382
G1 X120.65 Y109.6 E19.09044
G1 X120.65 Y110.4 E19.11705
G0 F10500 X121.05 Y110.8
;TYPE:WALL-OUTER
G1 F678.9 X98.95 Y110.8 E19.8521
G1 X98.95 Y109.2 E19.90531
G1 X121.05 Y109.2 E20.64036
G1 X121.05 Y110.8 E20.69358
G0 F10500 X120.406 Y110.224
;TYPE:SKIN
G1 F678.9 X119.957 Y109.774 E20.70415
G0 F10500 X120.356 Y109.891
G1 F678.9 X119.899 Y109.999 E20.72162
G1 X99.817 Y109.999 E21.46885
G1 X99.641 Y110.106 E21.47652
G0 F10500 X99.55 Y109.989
;MESH:NONMESH
G0 F300 X99.55 Y109.989 Z1.2
G0 F10500 X120.65 Y110.4
;TIME_ELAPSED:55.537096
;LAYER:5
;TYPE:WALL-INNER
;MESH:screwsplate.STL
G1 F683.6 X99.35 Y110.4 E22.18496
G1 X99.35 Y109.6 E22.21157
G1 X120.65 Y109.6 E22.92001
G1 X120.65 Y110.4 E22.94662
G0 F10500 X121.05 Y110.8
;TYPE:WALL-OUTER
G1 F683.6 X98.95 Y110.8 E23.68167
G1 X98.95 Y109.2 E23.73488
G1 X121.05 Y109.2 E24.46993
G1 X121.05 Y110.8 E24.52315
G0 F10500 X120.474 Y110.042
;TYPE:SKIN
G1 F683.6 X120.291 Y110.225 E24.52745
G0 F10500 X120.233 Y109.999
G1 F683.6 X119.951 Y109.999 E24.53811
G1 X99.869 Y109.999 E25.29751
G1 X99.668 Y109.917 E25.30571
G0 F10500 X99.55 Y110.061
;MESH:NONMESH
G0 F300 X99.55 Y110.061 Z1.4
G0 F10500 X120.65 Y110.4
;TIME_ELAPSED:66.103287
;LAYER:6
;TYPE:WALL-INNER
;MESH:screwsplate.STL
G1 F687 X99.35 Y110.4 E26.01416
G1 X99.35 Y109.6 E26.04076
G1 X120.65 Y109.6 E26.7492
G1 X120.65 Y110.4 E26.77581
G0 F10500 X121.05 Y110.8
;TYPE:WALL-OUTER
G1 F687 X98.95 Y110.8 E27.51086
G1 X98.95 Y109.2 E27.56408
G1 X121.05 Y109.2 E28.29913
G1 X121.05 Y110.8 E28.35234
G0 F10500 X120.406 Y110.224
;TYPE:SKIN
G1 F687 X119.957 Y109.774 E28.36291
G0 F10500 X120.356 Y109.891
G1 F687 X119.899 Y109.999 E28.38039
G1 X99.817 Y109.999 E29.12762
G1 X99.641 Y110.106 E29.13529
G0 F10500 X99.55 Y109.989
;MESH:NONMESH
G0 F300 X99.55 Y109.989 Z1.6
G0 F10500 X120.65 Y110.4
;TIME_ELAPSED:76.675469
;LAYER:7
;TYPE:WALL-INNER
;MESH:screwsplate.STL
G1 F683.6 X99.35 Y110.4 E29.84373
G1 X99.35 Y109.6 E29.87033
G1 X120.65 Y109.6 E30.57878
G1 X120.65 Y110.4 E30.60538
G0 F10500 X121.05 Y110.8
;TYPE:WALL-OUTER
G1 F683.6 X98.95 Y110.8 E31.34043
G1 X98.95 Y109.2 E31.39365
G1 X121.05 Y109.2 E32.1287
G1 X121.05 Y110.8 E32.18191
G0 F10500 X120.474 Y110.042
;TYPE:SKIN
G1 F683.6 X120.291 Y110.225 E32.18622
G0 F10500 X120.233 Y109.999
G1 F683.6 X119.951 Y109.999 E32.19688
G1 X99.869 Y109.999 E32.95627
G1 X99.668 Y109.917 E32.96448
G0 F10500 X99.55 Y110.061
;MESH:NONMESH
G0 F300 X99.55 Y110.061 Z1.8
G0 F10500 X120.65 Y110.4
;TIME_ELAPSED:87.241660
;LAYER:8
;TYPE:WALL-INNER
;MESH:screwsplate.STL
G1 F687 X99.35 Y110.4 E33.67292
G1 X99.35 Y109.6 E33.69953
G1 X120.65 Y109.6 E34.40797
G1 X120.65 Y110.4 E34.43458
G0 F10500 X121.05 Y110.8
;TYPE:WALL-OUTER
G1 F687 X98.95 Y110.8 E35.16963
G1 X98.95 Y109.2 E35.22284
G1 X121.05 Y109.2 E35.95789
G1 X121.05 Y110.8 E36.01111
G0 F10500 X120.406 Y110.224
;TYPE:SKIN
G1 F687 X119.957 Y109.774 E36.02168
G0 F10500 X120.356 Y109.891
G1 F687 X119.899 Y109.999 E36.03915
G1 X99.817 Y109.999 E36.78639
G1 X99.641 Y110.106 E36.79405
G0 F10500 X99.55 Y109.989
;MESH:NONMESH
G0 F300 X99.55 Y109.989 Z2
G0 F10500 X120.65 Y110.4
;TIME_ELAPSED:97.813842
;LAYER:9
;TYPE:WALL-INNER
;MESH:screwsplate.STL
G1 F683.6 X99.35 Y110.4 E37.50249
G1 X99.35 Y109.6 E37.5291
G1 X120.65 Y109.6 E38.23754
G1 X120.65 Y110.4 E38.26415
G0 F10500 X121.05 Y110.8
;TYPE:WALL-OUTER
G1 F683.6 X98.95 Y110.8 E38.9992
G1 X98.95 Y109.2 E39.05241
G1 X121.05 Y109.2 E39.78746
G1 X121.05 Y110.8 E39.84068
G0 F10500 X120.474 Y110.042
;TYPE:SKIN
G1 F683.6 X120.291 Y110.225 E39.84498
G0 F10500 X120.233 Y109.999
G1 F683.6 X119.951 Y109.999 E39.85565
G1 X99.869 Y109.999 E40.61504
G1 X99.668 Y109.917 E40.62325
G0 F10500 X99.55 Y110.061
;MESH:NONMESH
G0 F300 X99.55 Y110.061 Z2.2
G0 F10500 X120.65 Y110.4
;TIME_ELAPSED:108.380032
;LAYER:10
;TYPE:WALL-INNER
;MESH:screwsplate.STL
G1 F719 X99.35 Y110.4 E41.33169
G1 X99.35 Y109.6 E41.3583
G1 X120.65 Y109.6 E42.06674
G1 X120.65 Y110.4 E42.09335
G0 F10500 X121.05 Y110.8
;TYPE:WALL-OUTER
G1 F719 X98.95 Y110.8 E42.82839
G1 X98.95 Y109.2 E42.88161
G1 X121.05 Y109.2 E43.61666
G1 X121.05 Y110.8 E43.66988
G0 F10500 X120.78 Y110.53
G0 X120.26 Y110.29
G0 X120.26 Y110.01
;TYPE:SKIN
G1 F719 X117.712 Y110.01 E43.75462
G1 X117.711 Y109.99 E43.75529
G1 X120.26 Y109.99 E43.84007
G1 X120.26 Y110.01 E43.84073
G0 F10500 X120.26 Y110.29
G0 X102.287 Y110.29
G0 X102.287 Y110.01
G1 F719 X99.74 Y110.01 E43.92545
G1 X99.74 Y109.99 E43.92611
G1 X102.287 Y109.99 E44.01083
G1 X102.287 Y110.01 E44.01149
G0 F10500 X102.437 Y110.073
;TYPE:SKIN
G1 F719 X102.587 Y110.223 E44.01502
G0 F10500 X102.653 Y110.007
G1 F719 X102.927 Y109.998 E44.02533
G1 X117.069 Y109.998 E44.55699
G1 X117.485 Y109.848 E44.57361
G0 F10500 X117.131 Y109.924
;MESH:NONMESH
G0 F300 X117.131 Y109.924 Z2.4
G0 F10500 X117.466 Y110.188
G0 X120.65 Y110.4
;TIME_ELAPSED:119.118317
;LAYER:11
;TYPE:WALL-INNER
;MESH:screwsplate.STL
G1 F716 X99.35 Y110.4 E45.28205
G1 X99.35 Y109.6 E45.30866
G1 X120.65 Y109.6 E46.0171
G1 X120.65 Y110.4 E46.04371
G0 F10500 X121.05 Y110.8
;TYPE:WALL-OUTER
G1 F716 X98.95 Y110.8 E46.77876
G1 X98.95 Y109.2 E46.83197
G1 X121.05 Y109.2 E47.56702
G1 X121.05 Y110.8 E47.62024
G0 F10500 X120.78 Y110.53
G0 X120.26 Y110.29
G0 X120.26 Y110.01
;TYPE:SKIN
G1 F716 X117.376 Y110.01 E47.71616
G1 X117.375 Y109.99 E47.71683
G1 X120.26 Y109.99 E47.81278
G1 X120.26 Y110.01 E47.81345
G0 F10500 X120.26 Y110.29
G0 X102.622 Y110.29
G0 X102.622 Y110.01
G1 F716 X99.74 Y110.01 E47.9093
G1 X99.74 Y109.99 E47.90997
G1 X102.622 Y109.99 E48.00582
G1 X102.622 Y110.01 E48.00649
G0 F10500 X102.772 Y109.925
;TYPE:SKIN
G1 F716 X102.923 Y109.774 E48.01004
G0 F10500 X102.989 Y109.991
G1 F716 X103.263 Y109.999 E48.02034
G1 X116.839 Y109.999 E48.53023
G1 X117.202 Y110.202 E48.54585
G0 F10500 X117.224 Y110.2
;MESH:NONMESH
G0 F300 X117.224 Y110.2 Z2.6
G0 F10500 X117.224 Y110.29
G0 X120.65 Y110.4
;TIME_ELAPSED:129.927796
;LAYER:12
;TYPE:WALL-INNER
;MESH:screwsplate.STL
G1 F718.3 X99.35 Y110.4 E49.25429
G1 X99.35 Y109.6 E49.2809
G1 X120.65 Y109.6 E49.98934
G1 X120.65 Y110.4 E50.01595
G0 F10500 X121.05 Y110.8
;TYPE:WALL-OUTER
G1 F718.3 X98.95 Y110.8 E50.751
G1 X98.95 Y109.2 E50.80422
G1 X121.05 Y109.2 E51.53927
G1 X121.05 Y110.8 E51.59248
G0 F10500 X120.78 Y110.53
G0 X120.26 Y110.29
G0 X120.26 Y110.01
;TYPE:SKIN
G1 F718.3 X117.161 Y110.01 E51.69556
G1 X117.16 Y109.99 E51.69622
G1 X120.26 Y109.99 E51.79933
G1 X120.26 Y110.01 E51.79999
G0 F10500 X120.26 Y110.29
G0 X102.838 Y110.29
G0 X102.838 Y110.01
G1 F718.3 X99.74 Y110.01 E51.90303
G1 X99.74 Y109.99 E51.9037
G1 X102.838 Y109.99 E52.00674
G1 X102.838 Y110.01 E52.0074
G0 F10500 X102.987 Y110.059
;TYPE:SKIN
G1 F718.3 X103.153 Y110.224 E52.0113
G0 F10500 X103.211 Y110
G1 F718.3 X103.494 Y109.999 E52.02195
G1 X116.786 Y109.998 E52.52223
G1 X116.927 Y109.856 E52.52977
G0 F10500 X116.58 Y109.939
;MESH:NONMESH
G0 F300 X116.58 Y109.939 Z2.8
G0 F10500 X116.915 Y110.19
G0 X120.65 Y110.4
;TIME_ELAPSED:140.775400
;LAYER:13
;TYPE:WALL-INNER
;MESH:screwsplate.STL
G1 F718.7 X99.35 Y110.4 E53.23821
G1 X99.35 Y109.6 E53.26481
G1 X120.65 Y109.6 E53.97326
G1 X120.65 Y110.4 E53.99986
G0 F10500 X121.05 Y110.8
;TYPE:WALL-OUTER
G1 F718.7 X98.95 Y110.8 E54.73491
G1 X98.95 Y109.2 E54.78813
G1 X121.05 Y109.2 E55.52318
G1 X121.05 Y110.8 E55.57639
G0 F10500 X120.78 Y110.53
G0 X120.26 Y110.29
G0 X120.26 Y110.01
;TYPE:SKIN
G1 F718.7 X117.009 Y110.01 E55.68452
G1 X117.008 Y109.99 E55.68519
G1 X120.26 Y109.99 E55.79335
G1 X120.26 Y110.01 E55.79402
G0 F10500 X120.26 Y110.29
G0 X102.99 Y110.29
G0 X102.99 Y110.01
G1 F718.7 X99.74 Y110.01 E55.90211
G1 X99.74 Y109.99 E55.90278
G1 X102.99 Y109.99 E56.01087
G1 X102.99 Y110.01 E56.01154
G0 F10500 X103.314 Y109.948
;TYPE:SKIN
G1 F718.7 X103.173 Y109.807 E56.0213
G0 F10500 X103.546 Y109.999
G1 F718.7 X103.829 Y109.999 E56.03229
G1 X116.556 Y109.999 E56.52644
G1 X116.735 Y110.103 E56.53447
G0 F10500 X116.547 Y110.2
;MESH:NONMESH
G0 F300 X116.547 Y110.2 Z3
G0 F10500 X117.723 Y110.4
;TIME_ELAPSED:151.545004
;LAYER:14
;TYPE:WALL-INNER
;MESH:screwsplate.STL
G1 F645.8 X117.524 Y110.4 E56.54109
G1 X102.277 Y110.4 E57.04821
G1 X102.277 Y109.6 E57.07482
G1 X117.722 Y109.6 E57.58852
G1 X117.723 Y110.201 E57.60851
G1 X117.723 Y110.4 E57.61279
G0 F10500 X118.123 Y110.8
;TYPE:WALL-OUTER
G1 F645.8 X101.877 Y110.8 E58.15314
G1 X101.877 Y109.2 E58.20635
G1 X118.122 Y109.2 E58.74666
G1 X118.123 Y110.8 E58.79988
G0 F10500 X117.337 Y109.983
;TYPE:SKIN
G1 F645.8 X117.478 Y109.841 E58.80735
G1 X116.787 Y109.999 E58.83383
G1 X102.928 Y109.999 E59.35142
G1 X102.519 Y110.156 E59.36778
G0 F10500 X102.477 Y110.088
G1 F1500 E52.86778
G0 F10500 X117.922 Y110.401
G0 X120.078 Y110.4
G0 X120.278 Y110.4
;TYPE:WALL-INNER
G1 F1500 E59.36778
G1 F645.8 X120.277 Y109.6 E59.39439
G1 X120.65 Y109.6 E59.4068
G1 X120.65 Y110.4 E59.43164
G1 X120.278 Y110.4 E59.44401
G0 F10500 X119.878 Y110.8
;TYPE:WALL-OUTER
G1 F645.8 X119.877 Y109.2 E59.49723
G1 X121.05 Y109.2 E59.53624
G1 X121.05 Y110.8 E59.58946
G1 X119.878 Y110.8 E59.62844
G0 F10500 X120.36 Y110.2
G1 F1500 E53.12844
G0 F10500 X120.078 Y110.384
G0 X119.013 Y110.385
G0 X118.976 Y111.653
G0 X101.024 Y111.653
G0 X100.987 Y110.399
G0 X99.922 Y110.4
G0 X99.723 Y110.4
;TYPE:WALL-INNER
G1 F1500 E59.62844
G1 F645.8 X99.35 Y110.4 E59.64084
G1 X99.35 Y109.6 E59.66745
G1 X99.722 Y109.6 E59.67982
G1 X99.723 Y110.4 E59.70466
G0 F10500 X100.123 Y110.8
;TYPE:WALL-OUTER
G1 F645.8 X98.95 Y110.8 E59.74368
G1 X98.95 Y109.2 E59.7969
G1 X100.122 Y109.2 E59.83588
G1 X100.123 Y110.8 E59.88909
G0 F10500 X99.522 Y110.317
G1 F1500 E53.38909
;MESH:NONMESH
G0 F300 X99.522 Y110.317 Z3.2
G0 F10500 X99.922 Y110.414
G0 X102.097 Y110.414
G0 X117.387 Y110.4
;TIME_ELAPSED:164.184121
;LAYER:15
;TYPE:WALL-INNER
;MESH:screwsplate.STL
G1 F1500 E59.88909
G1 F611.6 X117.188 Y110.4 E59.89571
G1 X102.612 Y110.4 E60.38051
G1 X102.612 Y109.6 E60.40712
G1 X117.386 Y109.6 E60.8985
G1 X117.387 Y110.201 E60.91849
G1 X117.387 Y110.4 E60.92278
G0 F10500 X117.787 Y110.8
;TYPE:WALL-OUTER
G1 F611.6 X102.212 Y110.8 E61.4408
G1 X102.212 Y109.2 E61.49402
G1 X117.786 Y109.2 E62.01201
G1 X117.787 Y110.8 E62.06523
G0 F10500 X117.195 Y110.209
;TYPE:SKIN
G1 F611.6 X117.053 Y110.068 E62.0727
G1 X116.273 Y109.999 E62.10193
G1 X103.263 Y109.999 E62.58758
G1 X102.854 Y109.842 E62.60393
G0 F10500 X102.922 Y109.8
G1 F1500 E56.10393
G0 F10500 X117.586 Y110.402
G0 X120.413 Y110.4
G0 X120.613 Y110.4
;TYPE:WALL-INNER
G1 F1500 E62.60393
G1 F611.6 X120.612 Y109.6 E62.63054
G1 X120.65 Y109.6 E62.6318
G1 X120.65 Y110.4 E62.6343
G1 X120.613 Y110.4 E62.63553
G0 F10500 X120.213 Y110.8
;TYPE:WALL-OUTER
G1 F611.6 X120.212 Y109.2 E62.68875
G1 X121.05 Y109.2 E62.71662
G1 X121.05 Y110.8 E62.76984
G1 X120.213 Y110.8 E62.79768
G0 F10500 X120.45 Y110.318
G1 F1500 E56.29768
G0 F10500 X120.513 Y110.319
G0 X119.348 Y110.384
G0 X118.64 Y111.653
G0 X101.359 Y111.653
G0 X100.651 Y110.399
G0 X99.586 Y110.4
G0 X99.387 Y110.4
;TYPE:WALL-INNER
G1 F1500 E62.79768
G1 F611.6 X99.35 Y110.4 E62.79891
G1 X99.35 Y109.6 E62.82552
G1 X99.386 Y109.6 E62.82671
G1 X99.387 Y110.4 E62.82915
G0 F10500 X99.787 Y110.8
;TYPE:WALL-OUTER
G1 F611.6 X98.95 Y110.8 E62.85699
G1 X98.95 Y109.2 E62.9102
G1 X99.786 Y109.2 E62.93801
G1 X99.787 Y110.8 E62.99122
G0 F10500 X99.55 Y110.318
G1 F1500 E56.49122
;MESH:NONMESH
G0 F300 X99.55 Y110.318 Z3.4
G0 F10500 X99.486 Y110.317
G0 X102.432 Y110.414
G0 X117.172 Y110.4
;TIME_ELAPSED:176.967409
;LAYER:16
;TYPE:WALL-INNER
;MESH:screwsplate.STL
G1 F1500 E62.99122
G1 F600 X116.973 Y110.4 E62.99784
G1 X102.828 Y110.4 E63.46831
G1 X102.828 Y109.6 E63.49491
G1 X117.171 Y109.6 E63.97196
G1 X117.172 Y110.201 E63.99195
G1 X117.172 Y110.4 E63.99624
G0 F10500 X117.572 Y110.8
;TYPE:WALL-OUTER
G1 F600 X102.428 Y110.8 E64.49993
G1 X102.428 Y109.2 E64.55314
G1 X117.571 Y109.2 E65.0568
G1 X117.572 Y110.8 E65.11002
G0 F10500 X116.996 Y110.208
;TYPE:SKIN
G1 F600 X116.563 Y109.774 E65.12021
G0 F10500 X116.92 Y109.849
G1 F600 X116.504 Y109.999 E65.13652
G1 X107.453 Y109.998 E65.47023
G1 X103.218 Y110.007 E65.62638
G1 X103.077 Y110.148 E65.63373
G0 F10500 X103.028 Y110.073
G1 F1500 E59.13373
G0 F10500 X117.358 Y110.586
G0 X118.436 Y110.585
G0 X119.564 Y110.585
G0 X120.529 Y110.584
G0 X120.429 Y110.8
;TYPE:WALL-OUTER
G1 F1500 E65.63373
G1 F600 X120.428 Y109.2 E65.68695
G1 X121.05 Y109.2 E65.70763
G1 X121.05 Y110.8 E65.76085
G1 X120.429 Y110.8 E65.7815
G0 F10500 X120.704 Y110.522
;TYPE:SKIN
G1 F600 X120.738 Y110.273 E65.78864
G1 X120.781 Y109.467 E65.81155
