;FLAVOR:Marlin
;TIME:1668
;Filament used: 0.617307m
;Layer height: 0.2
;MINX:104.454
;MINY:104.451
;MINZ:0.2
;MAXX:115.546
;MAXY:115.55
;MAXZ:24.8
;Generated with Cura_SteamEngine 4.10.0
M140 S60
M105
M190 S60
M104 S205
M105
M109 S205
M82 ;absolute extrusion mode
; Ender 3 Custom Start G-code
G92 E0 ; Reset Extruder
G28 ; Home all axes
G1 Z2.0 F3000 ; Move Z Axis up little to prevent scratching of Heat Bed
G1 X0.1 Y20 Z0.3 F5000.0 ; Move to start position
G1 X0.1 Y200.0 Z0.3 F1500.0 E15 ; Draw the first line
G1 X0.4 Y200.0 Z0.3 F5000.0 ; Move to side a little
G1 X0.4 Y20 Z0.3 F1500.0 E30 ; Draw the second line
G92 E0 ; Reset Extruder
G1 Z2.0 F3000 ; Move Z Axis up little to prevent scratching of Heat Bed
G1 X5 Y20 Z0.3 F5000.0 ; Move over to prevent blob squish
G92 E0
G92 E0
G1 F1500 E-6.5
;LAYER_COUNT:125
;LAYER:0
M107
;MESH:Connector.STL
G0 F9000 X110.184 Y113.587 Z0.2
;TYPE:WALL-INNER
G1 F1500 E0
G1 F1544.5 X111.03 Y113.513 E0.02825
G1 X111.631 Y113.352 E0.04894
G1 X112.193 Y113.089 E0.06958
G1 X112.703 Y112.733 E0.09026
G1 X113.143 Y112.293 E0.11096
G1 X113.499 Y111.783 E0.13165
G1 X113.762 Y111.221 E0.15228
G1 X113.923 Y110.62 E0.17298
G1 X113.978 Y110 E0.19368
G1 X113.923 Y109.38 E0.21438
G1 X113.762 Y108.779 E0.23508
G1 X113.499 Y108.217 E0.25571
G1 X113.143 Y107.707 E0.2764
G1 X112.703 Y107.267 E0.2971
G1 X112.193 Y106.911 E0.31778
G1 X111.631 Y106.648 E0.33842
G1 X111.03 Y106.487 E0.35912
G1 X110.184 Y106.413 E0.38736
G1 X110.184 Y106.38 E0.38846
G1 X109.81 Y106.381 E0.39759
G1 X109.81 Y106.412 E0.39856
G1 X108.964 Y106.486 E0.4268
G1 X108.362 Y106.647 E0.44753
G1 X107.8 Y106.91 E0.46817
G1 X107.29 Y107.266 E0.48885
G1 X106.85 Y107.707 E0.50957
G1 X106.493 Y108.216 E0.53025
G1 X106.231 Y108.78 E0.55094
G1 X106.07 Y109.38 E0.5716
G1 X106.015 Y110 E0.5923
G1 X106.07 Y110.62 E0.613
G1 X106.231 Y111.22 E0.63366
G1 X106.493 Y111.784 E0.65435
G1 X106.85 Y112.293 E0.67503
G1 X107.29 Y112.734 E0.69575
G1 X107.8 Y113.09 E0.71643
G1 X108.362 Y113.353 E0.73707
G1 X108.964 Y113.514 E0.7578
G1 X109.81 Y113.588 E0.78604
G1 X109.81 Y113.619 E0.78707
G1 X110.184 Y113.62 E0.79951
G1 X110.184 Y113.587
G0 F9000 X110.21 Y113.183
;TYPE:WALL-OUTER
G1 F1544.5 X110.96 Y113.118 E0.82455
G1 X111.493 Y112.975 E0.84291
G1 X111.992 Y112.741 E0.86124
G1 X112.445 Y112.425 E0.87961
G1 X112.835 Y112.035 E0.89795
G1 X113.151 Y111.582 E0.91632
G1 X113.385 Y111.083 E0.93465
G1 X113.528 Y110.55 E0.95301
G1 X113.576 Y110 E0.97137
G1 X113.528 Y109.45 E0.98973
G1 X113.385 Y108.917 E1.00809
G1 X113.151 Y108.418 E1.02642
G1 X112.835 Y107.965 E1.04479
G1 X112.445 Y107.575 E1.06313
G1 X111.992 Y107.259 E1.0815
G1 X111.493 Y107.025 E1.09983
G1 X110.96 Y106.882 E1.11819
G1 X110.21 Y106.817 E1.14323
G1 X110.21 Y113.183 E1.35496
G0 F9000 X109.784 Y113.184
G1 F1544.5 X109.784 Y106.816 E1.56676
G1 X109.034 Y106.881 E1.5918
G1 X108.5 Y107.024 E1.61019
G1 X108.001 Y107.258 E1.62852
G1 X107.548 Y107.574 E1.64689
G1 X107.158 Y107.965 E1.66526
G1 X106.841 Y108.417 E1.68362
G1 X106.608 Y108.917 E1.70197
G1 X106.465 Y109.45 E1.72032
G1 X106.417 Y110 E1.73868
G1 X106.465 Y110.55 E1.75705
G1 X106.608 Y111.083 E1.7754
G1 X106.841 Y111.583 E1.79375
G1 X107.158 Y112.035 E1.81211
G1 X107.548 Y112.426 E1.83048
G1 X108.001 Y112.742 E1.84885
G1 X108.5 Y112.976 E1.86718
G1 X109.034 Y113.119 E1.88557
G1 X109.784 Y113.184 E1.91061
G1 F1500 E-4.58939
G0 F9000 X109.767 Y113.382
G0 X109.652 Y113.809
G0 X109.496 Y114.923
G0 X109.646 Y115.137
;TYPE:WALL-INNER
G1 F1500 E1.91061
G1 F1544.5 X108.94 Y115.038 E1.93432
G1 X108.239 Y114.839 E1.95855
G1 X107.586 Y114.548 E1.98233
G1 X106.971 Y114.164 E2.00645
G1 X106.428 Y113.707 E2.03005
G1 X105.945 Y113.171 E2.05405
G1 X105.542 Y112.574 E2.07801
G1 X105.225 Y111.923 E2.10209
G1 X105.007 Y111.251 E2.12559
G1 X104.881 Y110.54 E2.1496
G1 X104.856 Y109.82 E2.17356
G1 X104.932 Y109.095 E2.19781
G1 X105.103 Y108.408 E2.22136
G1 X105.372 Y107.744 E2.24519
G1 X105.732 Y107.121 E2.26912
G1 X106.175 Y106.553 E2.29308
G1 X106.688 Y106.057 E2.31681
G1 X107.269 Y105.636 E2.34067
G1 X107.906 Y105.297 E2.36467
G1 X108.58 Y105.052 E2.38853
G1 X109.281 Y104.903 E2.41236
G1 X110 Y104.853 E2.43633
G1 X110.718 Y104.902 E2.46027
G1 X111.419 Y105.051 E2.48411
G1 X112.092 Y105.296 E2.50793
G1 X112.731 Y105.636 E2.532
G1 X113.31 Y106.057 E2.55581
G1 X113.828 Y106.557 E2.57976
G1 X114.267 Y107.12 E2.6035
G1 X114.627 Y107.743 E2.62743
G1 X114.896 Y108.407 E2.65126
G1 X115.069 Y109.102 E2.67508
G1 X115.144 Y109.82 E2.69909
G1 X115.12 Y110.539 E2.72302
G1 X114.994 Y111.25 E2.74704
G1 X114.776 Y111.922 E2.77054
G1 X114.455 Y112.582 E2.79495
G1 X114.063 Y113.162 E2.81823
G1 X113.573 Y113.706 E2.84258
G1 X113.032 Y114.161 E2.86609
G1 X112.413 Y114.546 E2.89034
G1 X111.758 Y114.839 E2.9142
G1 X111.074 Y115.036 E2.93788
G1 X110.355 Y115.136 E2.96202
G1 X109.999 Y115.149 E2.97387
G1 X109.646 Y115.137 E2.98562
G0 F9000 X109.615 Y115.536
;TYPE:WALL-OUTER
G1 F1544.5 X108.855 Y115.43 E3.01114
G1 X108.105 Y115.217 E3.03707
G1 X107.397 Y114.901 E3.06286
G1 X106.737 Y114.489 E3.08874
G1 X106.147 Y113.993 E3.11437
G1 X105.627 Y113.416 E3.14021
G1 X105.195 Y112.776 E3.16589
G1 X104.855 Y112.077 E3.19174
G1 X104.617 Y111.345 E3.21735
G1 X104.482 Y110.581 E3.24315
G1 X104.455 Y109.806 E3.26894
G1 X104.537 Y109.027 E3.29499
G1 X104.722 Y108.283 E3.32049
G1 X105.011 Y107.568 E3.34614
G1 X105.398 Y106.9 E3.37182
G1 X105.877 Y106.286 E3.39772
G1 X106.434 Y105.747 E3.4235
G1 X107.055 Y105.297 E3.44901
G1 X107.745 Y104.93 E3.475
G1 X108.466 Y104.668 E3.50052
G1 X109.227 Y104.506 E3.5264
G1 X109.999 Y104.452 E3.55214
G1 X110.772 Y104.505 E3.57791
G1 X111.533 Y104.667 E3.60378
G1 X112.254 Y104.929 E3.6293
G1 X112.94 Y105.294 E3.65514
G1 X113.572 Y105.754 E3.68114
G1 X114.123 Y106.286 E3.70662
G1 X114.601 Y106.899 E3.73247
G1 X114.988 Y107.567 E3.75815
G1 X115.277 Y108.282 E3.7838
G1 X115.464 Y109.034 E3.80957
G1 X115.545 Y109.806 E3.83539
G1 X115.519 Y110.58 E3.86115
G1 X115.384 Y111.344 E3.88695
G1 X115.146 Y112.076 E3.91255
G1 X114.804 Y112.779 E3.93855
G1 X114.377 Y113.411 E3.96392
G1 X113.854 Y113.992 E3.98992
G1 X113.264 Y114.488 E4.01556
G1 X112.604 Y114.899 E4.04142
G1 X111.897 Y115.215 E4.06718
G1 X111.155 Y115.428 E4.09285
G1 X110.386 Y115.535 E4.11868
G1 X110 Y115.549 E4.13152
G1 X109.615 Y115.536 E4.14434
G0 F9000 X109.652 Y115.098
G0 X109.675 Y114.747
;TYPE:SKIN
G1 F1544.5 X109.022 Y114.656 E4.16626
G1 X108.375 Y114.473 E4.18863
G1 X107.77 Y114.203 E4.21066
G1 X107.197 Y113.845 E4.23313
G1 X106.702 Y113.428 E4.25466
G1 X106.251 Y112.928 E4.27706
G1 X105.883 Y112.383 E4.29893
G1 X105.588 Y111.776 E4.32138
G1 X105.386 Y111.155 E4.3431
G1 X105.271 Y110.501 E4.36518
G1 X105.246 Y109.833 E4.38742
G1 X105.318 Y109.158 E4.40999
G1 X105.475 Y108.528 E4.43159
G1 X105.723 Y107.915 E4.45358
G1 X106.052 Y107.347 E4.47541
G1 X106.467 Y106.815 E4.49786
G1 X106.941 Y106.356 E4.5198
G1 X107.475 Y105.969 E4.54174
G1 X108.066 Y105.654 E4.56401
G1 X108.686 Y105.429 E4.58595
G1 X109.334 Y105.291 E4.60798
G1 X110 Y105.245 E4.63019
G1 X110.665 Y105.29 E4.65236
G1 X111.313 Y105.428 E4.67439
G1 X111.932 Y105.653 E4.6963
G1 X112.521 Y105.967 E4.7185
G1 X113.06 Y106.359 E4.74066
G1 X113.536 Y106.819 E4.76268
G1 X113.947 Y107.346 E4.78491
G1 X114.276 Y107.914 E4.80674
G1 X114.524 Y108.527 E4.82874
G1 X114.683 Y109.165 E4.8506
G1 X114.754 Y109.833 E4.87295
G1 X114.73 Y110.5 E4.89515
G1 X114.615 Y111.154 E4.91723
G1 X114.412 Y111.778 E4.93906
G1 X114.115 Y112.389 E4.96165
G1 X113.757 Y112.918 E4.9829
G1 X113.298 Y113.428 E5.00572
G1 X112.804 Y113.844 E5.0272
G1 X112.232 Y114.199 E5.04959
G1 X111.624 Y114.472 E5.07176
G1 X110.989 Y114.655 E5.09374
G1 X110.326 Y114.746 E5.11599
G1 X109.999 Y114.759 E5.12688
G1 X109.675 Y114.747 E5.13766
G0 F9000 X109.42 Y114.007
G1 F1544.5 X110.574 Y114.012 E5.17605
G1 X110.574 Y113.944 E5.17831
G1 X111.098 Y113.899 E5.1958
G1 X111.765 Y113.72 E5.21877
G1 X112.388 Y113.428 E5.24165
G1 X112.954 Y113.033 E5.26461
G1 X113.443 Y112.544 E5.28761
G1 X113.838 Y111.978 E5.31057
G1 X114.13 Y111.355 E5.33345
G1 X114.309 Y110.688 E5.35642
G1 X114.37 Y110 E5.37939
G1 X114.309 Y109.312 E5.40237
G1 X114.13 Y108.645 E5.42534
G1 X113.838 Y108.022 E5.44822
G1 X113.443 Y107.456 E5.47118
G1 X112.954 Y106.967 E5.49418
G1 X112.388 Y106.572 E5.51713
G1 X111.765 Y106.28 E5.54002
G1 X111.098 Y106.101 E5.56299
G1 X110.574 Y106.056 E5.58048
G1 X110.574 Y105.988 E5.58274
G1 X109.42 Y105.993 E5.62112
G1 X109.42 Y106.055 E5.62319
G1 X108.896 Y106.1 E5.64068
G1 X108.228 Y106.279 E5.66368
G1 X107.605 Y106.571 E5.68656
G1 X107.038 Y106.966 E5.70955
G1 X106.55 Y107.455 E5.73253
G1 X106.154 Y108.021 E5.7555
G1 X105.863 Y108.646 E5.77843
G1 X105.684 Y109.312 E5.80137
G1 X105.623 Y110 E5.82434
G1 X105.684 Y110.688 E5.84731
G1 X105.863 Y111.354 E5.87025
G1 X106.154 Y111.979 E5.89318
G1 X106.55 Y112.545 E5.91616
G1 X107.038 Y113.034 E5.93913
G1 X107.605 Y113.429 E5.96212
G1 X108.228 Y113.721 E5.985
G1 X108.896 Y113.9 E6.008
G1 X109.42 Y113.945 E6.0255
G1 X109.42 Y114.007 E6.02756
G1 F1500 E-0.47244
G0 F9000 X109.449 Y113.668
G0 X108.296 Y113.533
G0 X107.878 Y114.47
G0 X107.588 Y114.42
G0 X107.824 Y114.047
G1 F1500 E6.02756
G1 F1544.5 X105.967 Y112.189 E6.11493
G0 F9000 X105.638 Y111.295
G1 F1544.5 X105.581 Y111.238 E6.11761
G1 F1500 E-0.38239
G0 F9000 X105.162 Y111.373
G0 X105.028 Y109.827
G0 X105.138 Y109.091
G0 X105.885 Y109.334
G0 X106.127 Y108.742
G0 X105.727 Y108.555
G1 F1500 E6.11761
G1 F1544.5 X105.662 Y108.49 E6.12067
G0 F9000 X105.907 Y108.17
G1 F1544.5 X105.824 Y108.086 E6.1246
G0 F9000 X106.109 Y107.806
G1 F1544.5 X106.02 Y107.717 E6.12878
G0 F9000 X106.341 Y107.473
G1 F1544.5 X106.237 Y107.369 E6.13367
G0 F9000 X106.485 Y107.051
G1 F1544.5 X106.605 Y107.171 E6.13932
G0 F9000 X106.888 Y106.888
G1 F1544.5 X106.756 Y106.756 E6.14553
G0 F9000 X107.043 Y106.478
G1 F1544.5 X107.213 Y106.647 E6.1535
G0 F9000 X107.55 Y106.418
G1 F1544.5 X107.372 Y106.241 E6.16185
G0 F9000 X107.717 Y106.02
G1 F1544.5 X107.935 Y106.238 E6.1721
G0 F9000 X108.344 Y106.081
G1 F1544.5 X108.086 Y105.824 E6.18422
G0 F9000 X108.496 Y105.667
G1 F1544.5 X108.791 Y105.962 E6.19809
G0 F9000 X108.934 Y105.539
G1 F1544.5 X109.259 Y105.865 E6.2134
G0 F9000 X109.407 Y105.447
G1 F1544.5 X109.791 Y105.831 E6.23146
G0 F9000 X109.936 Y105.411
G1 F1544.5 X110.353 Y105.828 E6.25108
G0 F9000 X110.533 Y105.442
G1 F1544.5 X111.025 Y105.934 E6.27422
G0 F9000 X111.232 Y105.575
G1 F1544.5 X111.773 Y106.116 E6.29967
G0 F9000 X112.2 Y105.978
G1 F1544.5 X114.028 Y107.805 E6.38563
G0 F9000 X114.293 Y108.636
G1 F1544.5 X114.416 Y108.759 E6.39141
G1 F1500 E-0.10859
G0 F9000 X114.844 Y108.653
G0 X114.973 Y109.827
G0 X114.911 Y110.555
G0 X114.131 Y110.446
G0 X113.968 Y110.883
G0 X114.39 Y110.996
G1 F1500 E6.39141
G1 F1544.5 X114.467 Y111.073 E6.39503
G0 F9000 X114.267 Y111.438
G1 F1544.5 X114.332 Y111.503 E6.39809
G0 F9000 X114.086 Y111.823
G1 F1544.5 X114.17 Y111.907 E6.40204
G0 F9000 X113.885 Y112.188
G1 F1544.5 X113.985 Y112.288 E6.40675
G0 F9000 X113.652 Y112.521
G1 F1544.5 X113.759 Y112.627 E6.41176
G0 F9000 X113.513 Y112.948
G1 F1544.5 X113.389 Y112.823 E6.41761
G0 F9000 X113.106 Y113.106
G1 F1544.5 X113.245 Y113.245 E6.42415
G0 F9000 X112.946 Y113.512
G1 F1544.5 X112.782 Y113.347 E6.43189
G0 F9000 X112.446 Y113.577
G1 F1544.5 X112.63 Y113.762 E6.44057
G0 F9000 X112.281 Y113.978
G1 F1544.5 X112.061 Y113.758 E6.45091
G0 F9000 X111.652 Y113.915
G1 F1544.5 X111.906 Y114.168 E6.46284
G0 F9000 X111.509 Y114.337
G1 F1544.5 X111.206 Y114.035 E6.47707
G0 F9000 X111.07 Y114.464
G1 F1544.5 X110.733 Y114.127 E6.49292
G0 F9000 X110.587 Y114.547
G1 F1544.5 X110.21 Y114.17 E6.51065
G0 F9000 X110.069 Y114.595
G1 F1544.5 X109.642 Y114.168 E6.53074
G0 F9000 X109.463 Y114.554
G1 F1544.5 X108.975 Y114.066 E6.55369
G0 F9000 X108.757 Y114.414
G1 F1544.5 X108.229 Y113.886 E6.57853
G0 F9000 X108.329 Y113.445
;MESH:NONMESH
G0 F300 X108.329 Y113.445 Z0.4
G0 F9000 X110.184 Y113.587
;TIME_ELAPSED:18.619393
;LAYER:1
M106 S85
;TYPE:WALL-INNER
;MESH:Connector.STL
G1 F1351.2 X111.03 Y113.513 E6.60677
G1 X111.631 Y113.352 E6.62747
G1 X112.193 Y113.089 E6.6481
G1 X112.703 Y112.733 E6.66879
G1 X113.143 Y112.293 E6.68949
G1 X113.499 Y111.783 E6.71017
G1 X113.762 Y111.221 E6.73081
G1 X113.923 Y110.62 E6.7515
G1 X113.978 Y110 E6.77221
G1 X113.923 Y109.38 E6.79291
G1 X113.762 Y108.779 E6.8136
G1 X113.499 Y108.217 E6.83424
G1 X113.143 Y107.707 E6.85493
G1 X112.703 Y107.267 E6.87562
G1 X112.193 Y106.911 E6.89631
G1 X111.631 Y106.648 E6.91695
G1 X111.03 Y106.487 E6.93764
G1 X110.184 Y106.413 E6.96589
G1 X110.184 Y106.38 E6.96699
G1 X109.81 Y106.381 E6.97612
G1 X109.81 Y106.412 E6.97708
G1 X108.964 Y106.486 E7.00533
G1 X108.362 Y106.647 E7.02606
G1 X107.8 Y106.91 E7.04669
G1 X107.29 Y107.266 E7.06738
G1 X106.85 Y107.707 E7.0881
G1 X106.493 Y108.216 E7.10878
G1 X106.231 Y108.78 E7.12946
G1 X106.07 Y109.38 E7.15012
G1 X106.015 Y110 E7.17083
G1 X106.07 Y110.62 E7.19153
G1 X106.231 Y111.22 E7.21219
G1 X106.493 Y111.784 E7.23287
G1 X106.85 Y112.293 E7.25355
G1 X107.29 Y112.734 E7.27427
G1 X107.8 Y113.09 E7.29496
G1 X108.362 Y113.353 E7.3156
G1 X108.964 Y113.514 E7.33632
G1 X109.81 Y113.588 E7.36457
G1 X109.81 Y113.619 E7.3656
G1 X110.184 Y113.62 E7.37804
G1 X110.184 Y113.587
G0 F10500 X110.21 Y113.183
;TYPE:WALL-OUTER
G1 F1351.2 X110.96 Y113.118 E7.40308
G1 X111.493 Y112.975 E7.42143
G1 X111.992 Y112.741 E7.43976
G1 X112.445 Y112.425 E7.45813
G1 X112.835 Y112.035 E7.47648
G1 X113.151 Y111.582 E7.49485
G1 X113.385 Y111.083 E7.51318
G1 X113.528 Y110.55 E7.53153
G1 X113.576 Y110 E7.5499
G1 X113.528 Y109.45 E7.56826
G1 X113.385 Y108.917 E7.58661
G1 X113.151 Y108.418 E7.60494
G1 X112.835 Y107.965 E7.62332
G1 X112.445 Y107.575 E7.64166
G1 X111.992 Y107.259 E7.66003
G1 X111.493 Y107.025 E7.67836
G1 X110.96 Y106.882 E7.69672
G1 X110.21 Y106.817 E7.72175
G1 X110.21 Y113.183 E7.93349
G0 F10500 X109.784 Y113.184
G1 F1351.2 X109.784 Y106.816 E8.14529
G1 X109.034 Y106.881 E8.17033
G1 X108.5 Y107.024 E8.18871
G1 X108.001 Y107.258 E8.20705
G1 X107.548 Y107.574 E8.22542
G1 X107.158 Y107.965 E8.24378
G1 X106.841 Y108.417 E8.26215
G1 X106.608 Y108.917 E8.28049
G1 X106.465 Y109.45 E8.29885
G1 X106.417 Y110 E8.31721
G1 X106.465 Y110.55 E8.33557
G1 X106.608 Y111.083 E8.35393
G1 X106.841 Y111.583 E8.37227
G1 X107.158 Y112.035 E8.39064
G1 X107.548 Y112.426 E8.409
G1 X108.001 Y112.742 E8.42737
G1 X108.5 Y112.976 E8.44571
G1 X109.034 Y113.119 E8.46409
G1 X109.784 Y113.184 E8.48913
G1 F1500 E1.98913
G0 F10500 X109.767 Y113.382
G0 X109.653 Y113.809
G0 X109.495 Y114.922
G0 X109.647 Y115.137
;TYPE:WALL-INNER
G1 F1500 E8.48913
G1 F1351.2 X108.936 Y115.036 E8.51302
G1 X108.238 Y114.838 E8.53715
G1 X107.588 Y114.547 E8.56084
G1 X106.969 Y114.162 E8.58508
G1 X106.428 Y113.707 E8.60859
G1 X105.941 Y113.167 E8.63278
G1 X105.543 Y112.578 E8.65642
G1 X105.224 Y111.922 E8.68068
G1 X105.006 Y111.25 E8.70418
G1 X104.88 Y110.539 E8.7282
G1 X104.855 Y109.82 E8.75212
G1 X104.932 Y109.091 E8.77651
G1 X105.103 Y108.409 E8.79989
G1 X105.372 Y107.744 E8.82375
G1 X105.732 Y107.121 E8.84768
G1 X106.172 Y106.557 E8.87147
G1 X106.693 Y106.054 E8.89556
G1 X107.27 Y105.635 E8.91928
G1 X107.907 Y105.296 E8.94328
G1 X108.581 Y105.051 E8.96713
G1 X109.282 Y104.902 E8.99097
G1 X110 Y104.852 E9.01491
G1 X110.718 Y104.902 E9.03884
G1 X111.419 Y105.051 E9.06268
G1 X112.092 Y105.296 E9.0865
G1 X112.731 Y105.636 E9.11058
G1 X113.31 Y106.057 E9.13439
G1 X113.828 Y106.557 E9.15833
G1 X114.268 Y107.121 E9.18212
G1 X114.628 Y107.744 E9.20606
G1 X114.897 Y108.408 E9.22988
G1 X115.07 Y109.103 E9.25371
G1 X115.145 Y109.82 E9.27768
G1 X115.12 Y110.539 E9.30161
G1 X114.994 Y111.25 E9.32563
G1 X114.776 Y111.922 E9.34913
G1 X114.457 Y112.578 E9.37339
G1 X114.059 Y113.167 E9.39703
G1 X113.572 Y113.707 E9.42122
G1 X113.031 Y114.162 E9.44473
G1 X112.412 Y114.547 E9.46897
G1 X111.762 Y114.838 E9.49266
G1 X111.068 Y115.036 E9.51666
G1 X110.353 Y115.137 E9.54068
G1 X109.995 Y115.149 E9.55259
G1 X109.647 Y115.137 E9.56418
G0 F10500 X109.615 Y115.536
;TYPE:WALL-OUTER
G1 F1351.2 X108.852 Y115.428 E9.58981
G1 X108.104 Y115.216 E9.61566
