;FLAVOR:Marlin
;TIME:867
;Filament used: 0.339522m
;Layer height: 0.2
;MINX:104.037
;MINY:104.451
;MINZ:0.2
;MAXX:115.549
;MAXY:116.401
;MAXZ:14.8
;Generated with Cura_SteamEngine 4.10.0
M140 S60
M105
M190 S60
M104 S205
M105
M109 S205
M82 ;absolute extrusion mode
; Ender 3 Custom Start G-code
G92 E0 ; Reset Extruder
G28 ; Home all axes
G1 Z2.0 F3000 ; Move Z Axis up little to prevent scratching of Heat Bed
G1 X0.1 Y20 Z0.3 F5000.0 ; Move to start position
G1 X0.1 Y200.0 Z0.3 F1500.0 E15 ; Draw the first line
G1 X0.4 Y200.0 Z0.3 F5000.0 ; Move to side a little
G1 X0.4 Y20 Z0.3 F1500.0 E30 ; Draw the second line
G92 E0 ; Reset Extruder
G1 Z2.0 F3000 ; Move Z Axis up little to prevent scratching of Heat Bed
G1 X5 Y20 Z0.3 F5000.0 ; Move over to prevent blob squish
G92 E0
G92 E0
G1 F1500 E-6.5
;LAYER_COUNT:75
;LAYER:0
M107
;MESH:TopConnector.STL
G0 F9000 X109.72 Y111.583 Z0.2
;TYPE:WALL-INNER
G1 F1500 E0
G1 F1979.7 X110.245 Y111.584 E0.01746
G1 X110.594 Y111.489 E0.02949
G1 X111.034 Y111.23 E0.04647
G1 X111.392 Y110.803 E0.06501
G1 X111.583 Y110.28 E0.08353
G1 X111.583 Y109.72 E0.10215
G1 X111.392 Y109.197 E0.12067
G1 X111.033 Y108.769 E0.13925
G1 X110.55 Y108.489 E0.15782
G1 X110.018 Y108.395 E0.17579
G1 X109.61 Y108.449 E0.18948
G1 X109.192 Y108.611 E0.20439
G1 X108.769 Y108.967 E0.22277
G1 X108.489 Y109.45 E0.24134
G1 X108.393 Y110 E0.25991
G1 X108.489 Y110.55 E0.27848
G1 X108.769 Y111.033 E0.29705
G1 X109.197 Y111.392 E0.31563
G1 X109.72 Y111.583 E0.33415
G0 F9000 X109.791 Y111.183
;TYPE:WALL-OUTER
G1 F1979.7 X110.192 Y111.184 E0.34749
G1 X110.437 Y111.117 E0.35594
G1 X110.772 Y110.92 E0.36886
G1 X111.04 Y110.6 E0.38274
G1 X111.183 Y110.209 E0.39659
G1 X111.183 Y109.791 E0.41049
G1 X111.04 Y109.4 E0.42434
G1 X110.772 Y109.08 E0.43822
G1 X110.411 Y108.871 E0.4521
G1 X110.009 Y108.8 E0.46568
G1 X109.71 Y108.839 E0.4757
G1 X109.399 Y108.96 E0.4868
G1 X109.08 Y109.228 E0.50066
G1 X108.871 Y109.589 E0.51454
G1 X108.799 Y110 E0.52841
G1 X108.871 Y110.411 E0.54229
G1 X109.08 Y110.772 E0.55617
G1 X109.4 Y111.04 E0.57005
G1 X109.791 Y111.183 E0.5839
G0 F9000 X109.714 Y111.616
G1 F1500 E-5.9161
G0 F9000 X110.006 Y111.774
G0 X110 Y110.332
G0 X109.736 Y116.401
G0 X109.818 Y114.945
G0 X109.999 Y115.148
;TYPE:WALL-INNER
G1 F1500 E0.5839
G1 F1979.7 X109.378 Y115.111 E0.60459
G1 X108.773 Y115 E0.62504
G1 X108.171 Y114.812 E0.64602
G1 X107.604 Y114.558 E0.66669
G1 X107.079 Y114.24 E0.6871
G1 X106.584 Y113.853 E0.708
G1 X106.147 Y113.416 E0.72855
G1 X105.76 Y112.921 E0.74945
G1 X105.443 Y112.397 E0.76982
G1 X105.189 Y111.83 E0.79049
G1 X105.001 Y111.228 E0.81146
G1 X104.89 Y110.624 E0.83189
G1 X104.852 Y109.998 E0.85275
G1 X104.889 Y109.378 E0.8734
G1 X105 Y108.773 E0.89386
G1 X105.188 Y108.171 E0.91484
G1 X105.442 Y107.604 E0.9355
G1 X105.76 Y107.079 E0.95592
G1 X106.147 Y106.584 E0.97682
G1 X106.584 Y106.147 E0.99737
G1 X107.078 Y105.761 E1.01822
G1 X107.603 Y105.443 E1.03864
G1 X108.17 Y105.189 E1.0593
G1 X108.772 Y105.001 E1.08028
G1 X109.376 Y104.89 E1.1007
G1 X110.001 Y104.852 E1.12153
G1 X110.622 Y104.889 E1.14222
G1 X111.227 Y105 E1.16268
G1 X111.829 Y105.188 E1.18366
G1 X112.396 Y105.442 E1.20432
G1 X112.921 Y105.76 E1.22474
G1 X113.415 Y106.146 E1.24559
G1 X113.852 Y106.583 E1.26614
G1 X114.239 Y107.078 E1.28704
G1 X114.557 Y107.604 E1.30748
G1 X114.809 Y108.164 E1.32791
G1 X114.999 Y108.772 E1.34909
G1 X115.11 Y109.376 E1.36952
G1 X115.148 Y109.999 E1.39028
G1 X115.111 Y110.623 E1.41107
G1 X115 Y111.227 E1.4315
G1 X114.812 Y111.829 E1.45247
G1 X114.558 Y112.396 E1.47314
G1 X114.241 Y112.92 E1.49351
G1 X113.854 Y113.415 E1.5144
G1 X113.417 Y113.852 E1.53496
G1 X112.922 Y114.239 E1.55586
G1 X112.397 Y114.557 E1.57627
G1 X111.83 Y114.811 E1.59694
G1 X111.228 Y114.999 E1.61791
G1 X110.624 Y115.11 E1.63834
G1 X109.999 Y115.148 E1.65916
G0 F9000 X110 Y115.548
;TYPE:WALL-OUTER
G1 F1979.7 X109.331 Y115.509 E1.68145
G1 X108.672 Y115.388 E1.70374
G1 X108.028 Y115.187 E1.72618
G1 X107.421 Y114.914 E1.74831
G1 X106.852 Y114.57 E1.77043
G1 X106.315 Y114.15 E1.7931
G1 X105.85 Y113.685 E1.81498
G1 X105.43 Y113.148 E1.83765
G1 X105.087 Y112.58 E1.85972
G1 X104.814 Y111.973 E1.88186
G1 X104.613 Y111.329 E1.90429
G1 X104.492 Y110.671 E1.92655
G1 X104.452 Y109.999 E1.94894
G1 X104.491 Y109.331 E1.97119
G1 X104.612 Y108.672 E1.99348
G1 X104.813 Y108.028 E2.01592
G1 X105.086 Y107.421 E2.03805
G1 X105.43 Y106.852 E2.06017
G1 X105.85 Y106.315 E2.08284
G1 X106.315 Y105.85 E2.10471
G1 X106.851 Y105.431 E2.12734
G1 X107.42 Y105.087 E2.14946
G1 X108.027 Y104.814 E2.17159
G1 X108.671 Y104.613 E2.19403
G1 X109.329 Y104.492 E2.21629
G1 X110 Y104.452 E2.23864
G1 X110.669 Y104.491 E2.26093
G1 X111.328 Y104.612 E2.28322
G1 X111.972 Y104.813 E2.30565
G1 X112.579 Y105.086 E2.32779
G1 X113.148 Y105.43 E2.34991
G1 X113.684 Y105.849 E2.37253
G1 X114.149 Y106.314 E2.39441
G1 X114.569 Y106.851 E2.41708
G1 X114.913 Y107.42 E2.4392
G1 X115.184 Y108.021 E2.46112
G1 X115.387 Y108.671 E2.48377
G1 X115.508 Y109.329 E2.50602
G1 X115.548 Y109.999 E2.52835
G1 X115.509 Y110.67 E2.5507
G1 X115.388 Y111.328 E2.57296
G1 X115.187 Y111.972 E2.59539
G1 X114.914 Y112.579 E2.61753
G1 X114.571 Y113.147 E2.6396
G1 X114.151 Y113.684 E2.66228
G1 X113.686 Y114.149 E2.68415
G1 X113.149 Y114.569 E2.70682
G1 X112.58 Y114.913 E2.72894
G1 X111.973 Y115.186 E2.75107
G1 X111.329 Y115.387 E2.77351
G1 X110.671 Y115.508 E2.79576
G1 X110 Y115.548 E2.81812
G0 F9000 X110 Y115.108
G0 X109.999 Y114.756
;TYPE:SKIN
G1 F1979.7 X109.422 Y114.723 E2.83734
G1 X108.864 Y114.62 E2.85622
G1 X108.309 Y114.446 E2.87556
G1 X107.786 Y114.213 E2.89461
G1 X107.305 Y113.92 E2.91334
G1 X106.834 Y113.553 E2.9332
G1 X106.447 Y113.166 E2.9514
G1 X106.075 Y112.69 E2.97149
G1 X105.79 Y112.219 E2.9898
G1 X105.555 Y111.692 E3.009
G1 X105.382 Y111.138 E3.0283
G1 X105.278 Y110.579 E3.04721
G1 X105.244 Y109.998 E3.06657
G1 X105.277 Y109.422 E3.08576
G1 X105.38 Y108.864 E3.10463
G1 X105.554 Y108.309 E3.12398
G1 X105.787 Y107.786 E3.14302
G1 X106.08 Y107.305 E3.16175
G1 X106.447 Y106.834 E3.18161
G1 X106.834 Y106.447 E3.19981
G1 X107.304 Y106.081 E3.21963
G1 X107.785 Y105.788 E3.23836
G1 X108.308 Y105.555 E3.2574
G1 X108.862 Y105.382 E3.27671
G1 X109.421 Y105.278 E3.29562
G1 X110.001 Y105.244 E3.31494
G1 X110.578 Y105.277 E3.33416
G1 X111.136 Y105.38 E3.35304
G1 X111.691 Y105.554 E3.37238
G1 X112.214 Y105.787 E3.39143
G1 X112.695 Y106.08 E3.41016
G1 X113.165 Y106.446 E3.42997
G1 X113.552 Y106.833 E3.44817
G1 X113.92 Y107.304 E3.46805
G1 X114.213 Y107.788 E3.48687
G1 X114.442 Y108.298 E3.50547
G1 X114.618 Y108.862 E3.52512
G1 X114.722 Y109.422 E3.54406
G1 X114.756 Y109.998 E3.56325
G1 X114.723 Y110.578 E3.58258
G1 X114.619 Y111.137 E3.60149
G1 X114.446 Y111.691 E3.62079
G1 X114.211 Y112.218 E3.63998
G1 X113.926 Y112.689 E3.65829
G1 X113.554 Y113.165 E3.67839
G1 X113.167 Y113.552 E3.69659
G1 X112.696 Y113.919 E3.71645
G1 X112.215 Y114.212 E3.73518
G1 X111.692 Y114.445 E3.75422
G1 X111.138 Y114.618 E3.77353
G1 X110.579 Y114.722 E3.79244
G1 X109.999 Y114.756 E3.81176
G1 F1500 E-2.68824
G0 F9000 X109.983 Y115.035
G0 X110.453 Y114.91
G0 X110.541 Y116.381
G0 X110.041 Y110.329
G0 X110.271 Y111.775
G0 X110.297 Y111.974
G1 F1500 E3.81176
G1 F1979.7 X110.746 Y111.852 E3.82724
G1 X111.29 Y111.532 E3.84823
G1 X111.735 Y111.002 E3.87125
G1 X111.973 Y110.349 E3.89436
G1 X111.973 Y109.651 E3.91758
G1 X111.735 Y108.998 E3.9407
G1 X111.288 Y108.466 E3.96381
G1 X110.686 Y108.117 E3.98695
G1 X110.026 Y108.001 E4.00924
G1 X109.512 Y108.069 E4.02648
G1 X108.991 Y108.271 E4.04507
G1 X108.465 Y108.712 E4.0679
G1 X108.117 Y109.315 E4.09106
G1 X107.997 Y110 E4.11419
G1 X108.117 Y110.685 E4.13732
G1 X108.466 Y111.288 E4.16049
G1 X108.998 Y111.735 E4.1836
G1 X109.65 Y111.973 E4.20669
G1 X110.297 Y111.974 E4.2282
G1 F1500 E-2.2718
G0 F9000 X110.261 Y111.694
G0 X109.1 Y111.56
G0 X109.833 Y110.288
G0 X106.715 Y115.497
G0 X107.467 Y114.252
G0 X107.826 Y114.049
G1 F1500 E4.2282
G1 F1979.7 X105.946 Y112.169 E4.31663
G0 F9000 X105.572 Y112.394
G0 X105.16 Y111.367
G0 X105.58 Y111.237
G1 F1979.7 X108.761 Y114.418 E4.46626
G0 F9000 X109.473 Y114.564
G1 F1979.7 X105.435 Y110.526 E4.65619
G0 F9000 X105.407 Y109.933
G1 F1979.7 X110.064 Y114.59 E4.87524
G0 F9000 X110.595 Y114.555
G1 F1979.7 X105.442 Y109.402 E5.11763
G0 F9000 X105.53 Y108.924
G1 F1979.7 X111.071 Y114.465 E5.37826
G0 F9000 X111.505 Y114.333
G1 F1979.7 X109.12 Y111.949 E5.49042
G0 F9000 X109.87 Y112.132
G1 F1979.7 X111.908 Y114.171 E5.5863
G0 F9000 X112.283 Y113.98
G1 F1979.7 X110.411 Y112.108 E5.67436
G0 F9000 X110.847 Y111.978
G1 F1979.7 X112.632 Y113.763 E5.75832
G0 F9000 X112.95 Y113.516
G1 F1979.7 X111.203 Y111.768 E5.84051
G0 F9000 X111.512 Y111.512
G1 F1979.7 X113.246 Y113.246 E5.92208
G0 F9000 X113.517 Y112.951
G1 F1979.7 X111.77 Y111.205 E6.00423
G0 F9000 X111.964 Y110.833
G1 F1979.7 X113.765 Y112.634 E6.08894
G0 F9000 X113.982 Y112.285
G1 F1979.7 X112.116 Y110.418 E6.17673
G0 F9000 X112.132 Y109.869
G1 F1979.7 X114.172 Y111.909 E6.27269
G0 F9000 X114.334 Y111.506
G1 F1979.7 X111.948 Y109.12 E6.38492
G0 F9000 X111.537 Y109.269
G0 X110.642 Y108.415
G0 X110.863 Y108.035
G1 F1979.7 X108.494 Y105.665 E6.49637
G0 F9000 X108.09 Y105.827
G1 F1979.7 X110.117 Y107.854 E6.59172
G0 F9000 X109.593 Y107.896
G1 F1979.7 X107.715 Y106.018 E6.68005
G0 F9000 X107.367 Y106.235
G1 F1979.7 X109.163 Y108.031 E6.76453
G0 F9000 X108.793 Y108.227
G1 F1979.7 X107.048 Y106.483 E6.84659
G0 F9000 X106.752 Y106.752
G1 F1979.7 X108.485 Y108.485 E6.9281
G0 F9000 X108.231 Y108.796
G1 F1979.7 X106.481 Y107.047 E7.01039
G0 F9000 X106.235 Y107.366
G1 F1979.7 X108.024 Y109.156 E7.09456
G0 F9000 X107.903 Y109.6
G1 F1979.7 X106.017 Y107.714 E7.18328
G0 F9000 X105.827 Y108.089
G1 F1979.7 X107.854 Y110.117 E7.27864
G0 F9000 X108.036 Y110.865
G1 F1979.7 X105.664 Y108.492 E7.39024
G0 F9000 X105.245 Y108.361
G0 X105.906 Y107.17
G0 X106.696 Y106.276
G0 X107.584 Y105.664
G0 X108.848 Y105.099
G0 X108.927 Y105.533
G1 F1979.7 X114.467 Y111.073 E7.65082
G0 F9000 X114.556 Y110.596
G1 F1979.7 X109.403 Y105.443 E7.8932
G0 F9000 X109.934 Y105.409
G1 F1979.7 X114.59 Y110.065 E8.11221
G0 F9000 X114.564 Y109.473
G1 F1979.7 X110.525 Y105.434 E8.30219
G0 F9000 X111.237 Y105.58
G1 F1979.7 X114.419 Y108.762 E8.45186
G0 F9000 X114.84 Y108.632
G0 X114.425 Y107.599
G0 X114.049 Y107.826
G1 F1979.7 X112.172 Y105.95 E8.54013
G0 F9000 X112.354 Y105.65
G1 F1500 E2.04013
;MESH:NONMESH
G0 F300 X112.354 Y105.65 Z0.4
G0 F9000 X112.4 Y105.575
G0 X112.808 Y105.938
G0 X113.714 Y104.776
G0 X110.213 Y109.743
G0 X111.158 Y108.621
G0 X111.422 Y109.75
G0 X111.422 Y110.25
G0 X111.25 Y110.722
G0 X110.99 Y111.031
G0 X110.002 Y111.607
;TIME_ELAPSED:20.443943
;LAYER:1
M106 S85
;TYPE:WALL-INNER
;MESH:TopConnector.STL
G1 F1500 E8.54013
G1 F1739.9 X110.556 Y111.507 E8.55885
G1 X111.033 Y111.231 E8.57718
G1 X111.385 Y110.811 E8.59541
G1 X111.528 Y110.479 E8.60743
G1 X111.607 Y109.997 E8.62368
G1 X111.507 Y109.444 E8.64237
G1 X111.231 Y108.967 E8.6607
G1 X110.812 Y108.616 E8.67888
G1 X110.48 Y108.472 E8.69091
G1 X110.007 Y108.394 E8.70686
G1 X109.442 Y108.492 E8.72593
G1 X108.966 Y108.77 E8.74426
G1 X108.605 Y109.202 E8.76299
G1 X108.417 Y109.72 E8.78132
G1 X108.416 Y110.245 E8.79878
G1 X108.511 Y110.593 E8.81078
G1 X108.77 Y111.034 E8.82779
G1 X109.184 Y111.381 E8.84575
G1 X109.479 Y111.517 E8.85656
G1 X110.002 Y111.607 E8.87421
G0 F10500 X110 Y111.201
;TYPE:WALL-OUTER
G1 F1739.9 X110.416 Y111.126 E8.88827
G1 X110.772 Y110.92 E8.90195
G1 X111.041 Y110.599 E8.91588
G1 X111.141 Y110.366 E8.92431
G1 X111.201 Y110 E8.93665
G1 X111.126 Y109.584 E8.95071
G1 X110.92 Y109.228 E8.96439
G1 X110.6 Y108.96 E8.97827
G1 X110.366 Y108.859 E8.98675
G1 X110.009 Y108.8 E8.99878
G1 X109.581 Y108.874 E9.01323
G1 X109.228 Y109.08 E9.02682
G1 X108.957 Y109.404 E9.04087
G1 X108.817 Y109.791 E9.05456
G1 X108.816 Y110.192 E9.06789
G1 X108.883 Y110.436 E9.07631
G1 X109.08 Y110.772 E9.08927
G1 X109.4 Y111.04 E9.10315
G1 X109.599 Y111.132 E9.11044
G1 X110 Y111.201 E9.12397
G0 F10500 X110.001 Y111.641
G1 F1500 E2.62397
G0 F10500 X110 Y110.332
G0 X109.726 Y116.399
G0 X109.812 Y114.945
G0 X110 Y115.149
;TYPE:WALL-INNER
G1 F1500 E9.12397
G1 F1739.9 X109.377 Y115.111 E9.14473
G1 X108.773 Y115 E9.16516
G1 X108.171 Y114.812 E9.18613
G1 X107.604 Y114.558 E9.2068
G1 X107.079 Y114.24 E9.22721
G1 X106.584 Y113.853 E9.24811
G1 X106.147 Y113.416 E9.26867
G1 X105.76 Y112.921 E9.28957
G1 X105.442 Y112.396 E9.30998
G1 X105.188 Y111.829 E9.33064
G1 X105 Y111.227 E9.35162
G1 X104.889 Y110.623 E9.37205
G1 X104.851 Y110 E9.39281
G1 X104.889 Y109.377 E9.41357
G1 X105 Y108.773 E9.43399
G1 X105.188 Y108.171 E9.45497
G1 X105.442 Y107.604 E9.47563
G1 X105.76 Y107.079 E9.49605
G1 X106.147 Y106.584 E9.51695
G1 X106.584 Y106.147 E9.5375
G1 X107.079 Y105.76 E9.5584
G1 X107.604 Y105.442 E9.57881
G1 X108.171 Y105.188 E9.59948
G1 X108.773 Y105 E9.62045
G1 X109.377 Y104.889 E9.64088
G1 X110 Y104.851 E9.66164
G1 X110.623 Y104.889 E9.6824
G1 X111.227 Y105 E9.70282
G1 X111.829 Y105.188 E9.7238
G1 X112.396 Y105.442 E9.74446
G1 X112.921 Y105.76 E9.76488
G1 X113.416 Y106.147 E9.78578
G1 X113.853 Y106.584 E9.80633
G1 X114.24 Y107.079 E9.82723
G1 X114.558 Y107.604 E9.84765
G1 X114.812 Y108.171 E9.86831
G1 X115 Y108.773 E9.88929
G1 X115.111 Y109.377 E9.90971
G1 X115.149 Y110 E9.93047
G1 X115.111 Y110.623 E9.95123
G1 X115 Y111.227 E9.97166
G1 X114.812 Y111.829 E9.99263
G1 X114.558 Y112.396 E10.0133
G1 X114.24 Y112.921 E10.03371
G1 X113.853 Y113.416 E10.05461
G1 X113.416 Y113.853 E10.07517
G1 X112.921 Y114.24 E10.09606
G1 X112.396 Y114.558 E10.11648
G1 X111.829 Y114.812 E10.13714
G1 X111.227 Y115 E10.15812
G1 X110.623 Y115.111 E10.17855
G1 X110 Y115.149 E10.19931
G0 F10500 X110 Y115.549
;TYPE:WALL-OUTER
G1 F1739.9 X109.33 Y115.509 E10.22163
G1 X108.672 Y115.388 E10.24388
G1 X108.028 Y115.187 E10.26632
G1 X107.421 Y114.914 E10.28846
G1 X106.852 Y114.57 E10.31057
G1 X106.315 Y114.15 E10.33325
G1 X105.85 Y113.685 E10.35512
G1 X105.43 Y113.148 E10.37779
G1 X105.086 Y112.579 E10.39991
G1 X104.813 Y111.972 E10.42204
G1 X104.612 Y111.328 E10.44448
G1 X104.491 Y110.67 E10.46674
G1 X104.451 Y110 E10.48906
G1 X104.491 Y109.33 E10.51138
G1 X104.612 Y108.672 E10.53364
G1 X104.813 Y108.028 E10.55607
G1 X105.086 Y107.421 E10.57821
G1 X105.43 Y106.852 E10.60033
G1 X105.85 Y106.315 E10.623
G1 X106.315 Y105.85 E10.64487
G1 X106.852 Y105.43 E10.66755
G1 X107.421 Y105.086 E10.68966
G1 X108.028 Y104.813 E10.7118
G1 X108.672 Y104.612 E10.73424
G1 X109.33 Y104.491 E10.75649
G1 X110 Y104.451 E10.77881
G1 X110.67 Y104.491 E10.80114
G1 X111.328 Y104.612 E10.82339
G1 X111.972 Y104.813 E10.84583
G1 X112.579 Y105.086 E10.86797
G1 X113.148 Y105.43 E10.89008
G1 X113.685 Y105.85 E10.91275
G1 X114.15 Y106.315 E10.93463
G1 X114.57 Y106.852 E10.9573
G1 X114.914 Y107.421 E10.97942
G1 X115.187 Y108.028 E11.00155
G1 X115.388 Y108.672 E11.02399
G1 X115.509 Y109.33 E11.04624
G1 X115.549 Y110 E11.06857
G1 X115.509 Y110.67 E11.09089
G1 X115.388 Y111.328 E11.11314
G1 X115.187 Y111.972 E11.13558
G1 X114.914 Y112.579 E11.15772
G1 X114.57 Y113.148 E11.17983
G1 X114.15 Y113.685 E11.20251
G1 X113.685 Y114.15 E11.22438
G1 X113.148 Y114.57 E11.24706
G1 X112.579 Y114.914 E11.26917
G1 X111.972 Y115.187 E11.29131
G1 X111.328 Y115.388 E11.31375
G1 X110.67 Y115.509 E11.336
G1 X110 Y115.549 E11.35832
G0 F10500 X110 Y115.109
G0 X110 Y114.757
;TYPE:SKIN
G1 F1739.9 X109.423 Y114.723 E11.37755
G1 X108.863 Y114.619 E11.39649
G1 X108.309 Y114.446 E11.41579
G1 X107.786 Y114.213 E11.43484
G1 X107.305 Y113.92 E11.45357
G1 X106.834 Y113.553 E11.47343
G1 X106.447 Y113.166 E11.49163
G1 X106.08 Y112.695 E11.51149
G1 X105.787 Y112.214 E11.53023
G1 X105.554 Y111.691 E11.54927
G1 X105.381 Y111.137 E11.56857
G1 X105.277 Y110.577 E11.58752
G1 X105.243 Y110 E11.60674
G1 X105.277 Y109.423 E11.62596
G1 X105.381 Y108.863 E11.64491
G1 X105.554 Y108.309 E11.66421
G1 X105.787 Y107.786 E11.68326
G1 X106.08 Y107.305 E11.70199
G1 X106.447 Y106.834 E11.72185
G1 X106.834 Y106.447 E11.74005
G1 X107.305 Y106.08 E11.75991
G1 X107.786 Y105.787 E11.77864
G1 X108.309 Y105.554 E11.79769
G1 X108.863 Y105.381 E11.81699
