;FLAVOR:Marlin
;TIME:913
;Filament used: 0.366859m
;Layer height: 0.2
;MINX:104.451
;MINY:104.451
;MINZ:0.2
;MAXX:115.549
;MAXY:115.549
;MAXZ:14.8
;Generated with Cura_SteamEngine 4.10.0
M140 S60
M105
M190 S60
M104 S205
M105
M109 S205
M82 ;absolute extrusion mode
; Ender 3 Custom Start G-code
G92 E0 ; Reset Extruder
G28 ; Home all axes
G1 Z2.0 F3000 ; Move Z Axis up little to prevent scratching of Heat Bed
G1 X0.1 Y20 Z0.3 F5000.0 ; Move to start position
G1 X0.1 Y200.0 Z0.3 F1500.0 E15 ; Draw the first line
G1 X0.4 Y200.0 Z0.3 F5000.0 ; Move to side a little
G1 X0.4 Y20 Z0.3 F1500.0 E30 ; Draw the second line
G92 E0 ; Reset Extruder
G1 Z2.0 F3000 ; Move Z Axis up little to prevent scratching of Heat Bed
G1 X5 Y20 Z0.3 F5000.0 ; Move over to prevent blob squish
G92 E0
G92 E0
G1 F1500 E-6.5
;LAYER_COUNT:75
;LAYER:0
M107
;MESH:TopConnectorV2.STL
G0 F9000 X107.55 Y113.35 Z0.2
;TYPE:WALL-INNER
G1 F1500 E0
G1 F1596.4 X112.45 Y113.35 E0.16297
G1 X112.45 Y106.65 E0.38582
G1 X107.55 Y106.65 E0.54879
G1 X107.55 Y113.35 E0.77164
G0 F9000 X107.95 Y112.95
;TYPE:WALL-OUTER
G1 F1596.4 X112.05 Y112.95 E0.908
G1 X112.05 Y107.05 E1.10424
G1 X107.95 Y107.05 E1.2406
G1 X107.95 Y112.95 E1.43684
G1 F1500 E-5.06316
G0 F9000 X107.65 Y112.95
G0 X109.999 Y113.54
G0 X110.082 Y114.932
G0 X109.999 Y115.148
;TYPE:WALL-INNER
G1 F1500 E1.43684
G1 F1596.4 X109.378 Y115.111 E1.45753
G1 X108.773 Y115 E1.47799
G1 X108.171 Y114.812 E1.49896
G1 X107.604 Y114.558 E1.51963
G1 X107.079 Y114.24 E1.54004
G1 X106.584 Y113.853 E1.56094
G1 X106.147 Y113.416 E1.5815
G1 X105.76 Y112.921 E1.60239
G1 X105.443 Y112.397 E1.62276
G1 X105.189 Y111.83 E1.64343
G1 X105.001 Y111.228 E1.6644
G1 X104.89 Y110.624 E1.68483
G1 X104.852 Y109.998 E1.70569
G1 X104.889 Y109.378 E1.72635
G1 X105 Y108.773 E1.74681
G1 X105.188 Y108.171 E1.76778
G1 X105.442 Y107.604 E1.78845
G1 X105.76 Y107.079 E1.80886
G1 X106.147 Y106.584 E1.82976
G1 X106.584 Y106.147 E1.85031
G1 X107.078 Y105.761 E1.87117
G1 X107.603 Y105.443 E1.89158
G1 X108.17 Y105.189 E1.91225
G1 X108.772 Y105.001 E1.93322
G1 X109.376 Y104.89 E1.95365
G1 X110.001 Y104.852 E1.97447
G1 X110.622 Y104.889 E1.99516
G1 X111.227 Y105 E2.01562
G1 X111.829 Y105.188 E2.0366
G1 X112.396 Y105.442 E2.05726
G1 X112.921 Y105.76 E2.07768
G1 X113.415 Y106.146 E2.09853
G1 X113.852 Y106.583 E2.11908
G1 X114.239 Y107.078 E2.13998
G1 X114.557 Y107.604 E2.16043
G1 X114.809 Y108.164 E2.18085
G1 X114.999 Y108.772 E2.20204
G1 X115.11 Y109.376 E2.22246
G1 X115.148 Y109.999 E2.24322
G1 X115.111 Y110.622 E2.26398
G1 X115 Y111.227 E2.28444
G1 X114.812 Y111.829 E2.30541
G1 X114.558 Y112.396 E2.32608
G1 X114.241 Y112.92 E2.34645
G1 X113.854 Y113.415 E2.36735
G1 X113.417 Y113.852 E2.3879
G1 X112.922 Y114.239 E2.4088
G1 X112.397 Y114.557 E2.42921
G1 X111.83 Y114.811 E2.44988
G1 X111.228 Y114.999 E2.47086
G1 X110.624 Y115.11 E2.49128
G1 X109.999 Y115.148 E2.51211
G0 F9000 X110 Y115.548
;TYPE:WALL-OUTER
G1 F1596.4 X109.331 Y115.509 E2.5344
G1 X108.672 Y115.388 E2.55668
G1 X108.028 Y115.187 E2.57912
G1 X107.421 Y114.914 E2.60126
G1 X106.852 Y114.57 E2.62337
G1 X106.315 Y114.15 E2.64605
G1 X105.85 Y113.685 E2.66792
G1 X105.43 Y113.148 E2.69059
G1 X105.087 Y112.58 E2.71266
G1 X104.814 Y111.973 E2.7348
G1 X104.613 Y111.329 E2.75724
G1 X104.492 Y110.671 E2.77949
G1 X104.452 Y109.999 E2.80188
G1 X104.491 Y109.331 E2.82414
G1 X104.612 Y108.672 E2.84642
G1 X104.813 Y108.028 E2.86886
G1 X105.086 Y107.421 E2.891
G1 X105.43 Y106.852 E2.91311
G1 X105.85 Y106.315 E2.93578
G1 X106.315 Y105.85 E2.95766
G1 X106.851 Y105.431 E2.98029
G1 X107.42 Y105.087 E3.0024
G1 X108.027 Y104.814 E3.02454
G1 X108.671 Y104.613 E3.04698
G1 X109.329 Y104.492 E3.06923
G1 X110 Y104.452 E3.09158
G1 X110.669 Y104.491 E3.11387
G1 X111.328 Y104.612 E3.13616
G1 X111.972 Y104.813 E3.1586
G1 X112.579 Y105.086 E3.18073
G1 X113.148 Y105.43 E3.20285
G1 X113.684 Y105.849 E3.22548
G1 X114.149 Y106.314 E3.24735
G1 X114.569 Y106.851 E3.27002
G1 X114.913 Y107.42 E3.29214
G1 X115.184 Y108.021 E3.31407
G1 X115.387 Y108.671 E3.33671
G1 X115.508 Y109.329 E3.35897
G1 X115.548 Y109.999 E3.38129
G1 X115.509 Y110.669 E3.40361
G1 X115.388 Y111.328 E3.4259
G1 X115.187 Y111.972 E3.44834
G1 X114.914 Y112.579 E3.47047
G1 X114.571 Y113.147 E3.49254
G1 X114.151 Y113.684 E3.51522
G1 X113.686 Y114.149 E3.53709
G1 X113.149 Y114.569 E3.55976
G1 X112.58 Y114.913 E3.58188
G1 X111.973 Y115.186 E3.60402
G1 X111.329 Y115.387 E3.62645
G1 X110.671 Y115.508 E3.64871
G1 X110 Y115.548 E3.67106
G0 F9000 X110 Y115.108
G0 X109.999 Y114.756
;TYPE:SKIN
G1 F1596.4 X109.422 Y114.723 E3.69029
G1 X108.864 Y114.62 E3.70916
G1 X108.309 Y114.446 E3.7285
G1 X107.786 Y114.213 E3.74755
G1 X107.305 Y113.92 E3.76628
G1 X106.834 Y113.553 E3.78614
G1 X106.447 Y113.166 E3.80434
G1 X106.075 Y112.69 E3.82444
G1 X105.79 Y112.219 E3.84275
G1 X105.555 Y111.692 E3.86194
G1 X105.382 Y111.138 E3.88124
G1 X105.278 Y110.579 E3.90015
G1 X105.244 Y109.998 E3.91951
G1 X105.277 Y109.422 E3.9387
G1 X105.38 Y108.864 E3.95757
G1 X105.554 Y108.309 E3.97692
G1 X105.787 Y107.786 E3.99596
G1 X106.08 Y107.305 E4.01469
G1 X106.447 Y106.834 E4.03455
G1 X106.834 Y106.447 E4.05276
G1 X107.304 Y106.081 E4.07257
G1 X107.785 Y105.788 E4.0913
G1 X108.308 Y105.555 E4.11034
G1 X108.862 Y105.382 E4.12965
G1 X109.421 Y105.278 E4.14856
G1 X110.001 Y105.244 E4.16788
G1 X110.578 Y105.277 E4.18711
G1 X111.136 Y105.38 E4.20598
G1 X111.691 Y105.554 E4.22532
G1 X112.214 Y105.787 E4.24437
G1 X112.695 Y106.08 E4.2631
G1 X113.165 Y106.446 E4.28291
G1 X113.552 Y106.833 E4.30112
G1 X113.92 Y107.304 E4.321
G1 X114.213 Y107.788 E4.33981
G1 X114.442 Y108.298 E4.35841
G1 X114.618 Y108.862 E4.37806
G1 X114.722 Y109.422 E4.397
G1 X114.756 Y109.998 E4.41619
G1 X114.723 Y110.578 E4.43552
G1 X114.62 Y111.136 E4.45439
G1 X114.446 Y111.691 E4.47373
G1 X114.211 Y112.218 E4.49293
G1 X113.926 Y112.689 E4.51124
G1 X113.554 Y113.165 E4.53133
G1 X113.167 Y113.552 E4.54953
G1 X112.696 Y113.919 E4.56939
G1 X112.215 Y114.212 E4.58813
G1 X111.692 Y114.445 E4.60717
G1 X111.138 Y114.618 E4.62647
G1 X110.579 Y114.722 E4.64538
G1 X109.999 Y114.756 E4.66471
G0 F9000 X109.983 Y115.035
G0 X111.193 Y114.831
G0 X112.102 Y114.487
G0 X113.045 Y114.003
G0 X112.84 Y113.74
G1 F1596.4 X112.84 Y106.26 E4.91349
G1 X107.16 Y106.26 E5.10241
G1 X107.16 Y113.74 E5.3512
G1 X112.84 Y113.74 E5.54011
G1 F1500 E-0.95989
G0 F9000 X113.044 Y114.003
G0 X112.317 Y114.405
G0 X111.713 Y114.633
G0 X111.75 Y113.54
G0 X107.44 Y113.222
G0 X107 Y113.222
G1 F1500 E5.54011
G1 F1596.4 X105.946 Y112.169 E5.58967
G0 F9000 X105.572 Y112.394
G0 X105.16 Y111.367
G0 X105.58 Y111.237
G1 F1596.4 X107 Y112.656 E5.65644
G0 F9000 X107 Y112.091
G1 F1596.4 X105.435 Y110.526 E5.73005
G0 F9000 X105.407 Y109.933
G1 F1596.4 X107 Y111.525 E5.80496
G0 F9000 X107 Y110.959
G1 F1596.4 X105.442 Y109.402 E5.87822
G0 F9000 X105.53 Y108.924
G1 F1596.4 X107 Y110.394 E5.94736
G0 F9000 X107 Y109.828
G1 F1596.4 X105.664 Y108.492 E6.0102
G0 F9000 X105.827 Y108.089
G1 F1596.4 X107 Y109.262 E6.06538
G0 F9000 X107 Y108.697
G1 F1596.4 X106.017 Y107.714 E6.11161
G0 F9000 X106.235 Y107.366
G1 F1596.4 X107 Y108.131 E6.1476
G0 F9000 X107 Y107.565
G1 F1596.4 X106.481 Y107.047 E6.17198
G0 F9000 X106.753 Y106.753
G1 F1596.4 X107 Y107 E6.1836
G0 F9000 X107.44 Y107
G0 X107.797 Y106.54
G0 X107.797 Y106.099
G1 F1596.4 X107.714 Y106.017 E6.18748
G0 F9000 X108.09 Y105.827
G1 F1596.4 X108.362 Y106.099 E6.20028
G0 F9000 X108.494 Y105.665
G1 F1596.4 X108.928 Y106.099 E6.22069
G0 F9000 X109.494 Y106.099
G1 F1596.4 X108.927 Y105.533 E6.24734
G0 F9000 X109.403 Y105.443
G1 F1596.4 X110.059 Y106.099 E6.27819
G0 F9000 X110.625 Y106.099
G1 F1596.4 X109.934 Y105.409 E6.31067
G0 F9000 X110.525 Y105.434
G1 F1596.4 X111.191 Y106.099 E6.34198
G0 F9000 X111.237 Y105.58
G1 F1596.4 X111.756 Y106.099 E6.36639
G0 F9000 X112.172 Y105.95
G1 F1596.4 X112.31 Y106.087 E6.37286
G0 F9000 X112.999 Y106.776
G1 F1596.4 X114.049 Y107.826 E6.42225
G0 F9000 X114.425 Y107.599
G0 X114.84 Y108.632
G0 X114.419 Y108.762
G1 F1596.4 X112.999 Y107.342 E6.48904
G0 F9000 X112.999 Y107.908
G1 F1596.4 X114.564 Y109.473 E6.56265
G0 F9000 X114.59 Y110.065
G1 F1596.4 X112.999 Y108.473 E6.63751
G0 F9000 X112.999 Y109.039
G1 F1596.4 X114.556 Y110.596 E6.71075
G0 F9000 X114.468 Y111.074
G1 F1596.4 X112.999 Y109.605 E6.77984
G0 F9000 X112.999 Y110.17
G1 F1596.4 X114.334 Y111.506 E6.84266
G0 F9000 X114.172 Y111.909
G1 F1596.4 X112.999 Y110.736 E6.89784
G0 F9000 X112.999 Y111.302
G1 F1596.4 X113.982 Y112.285 E6.94407
G0 F9000 X113.765 Y112.634
G1 F1596.4 X112.999 Y111.867 E6.98013
G0 F9000 X112.999 Y112.433
G1 F1596.4 X113.517 Y112.951 E7.00449
G0 F9000 X113.245 Y113.245
G1 F1596.4 X112.999 Y112.999 E7.01606
G0 F9000 X112.56 Y112.999
G0 X112.202 Y113.46
G0 X112.202 Y113.899
G1 F1596.4 X112.284 Y113.981 E7.01992
G0 F9000 X111.908 Y114.171
G1 F1596.4 X111.636 Y113.899 E7.03271
G0 F9000 X111.505 Y114.333
G1 F1596.4 X111.07 Y113.899 E7.05315
G0 F9000 X110.505 Y113.899
G1 F1596.4 X111.071 Y114.465 E7.07977
G0 F9000 X110.595 Y114.555
G1 F1596.4 X109.939 Y113.899 E7.11063
G0 F9000 X109.373 Y113.899
G1 F1596.4 X110.064 Y114.59 E7.14313
G0 F9000 X109.473 Y114.564
G1 F1596.4 X108.808 Y113.899 E7.17441
G0 F9000 X108.761 Y114.418
G1 F1596.4 X108.242 Y113.899 E7.19882
G0 F9000 X107.826 Y114.049
G1 F1596.4 X107.688 Y113.911 E7.20532
G0 F9000 X107.468 Y113.432
;MESH:NONMESH
G0 F300 X107.468 Y113.432 Z0.4
G0 F9000 X107.55 Y113.35
;TIME_ELAPSED:18.893384
;LAYER:1
M106 S85
;TYPE:WALL-INNER
;MESH:TopConnectorV2.STL
G1 F1362.7 X112.45 Y113.35 E7.36829
G1 X112.45 Y106.65 E7.59113
G1 X107.55 Y106.65 E7.75411
G1 X107.55 Y113.35 E7.97695
G0 F10500 X107.95 Y112.95
;TYPE:WALL-OUTER
G1 F1362.7 X112.05 Y112.95 E8.11332
G1 X112.05 Y107.05 E8.30955
G1 X107.95 Y107.05 E8.44592
G1 X107.95 Y112.95 E8.64215
G1 F1500 E2.14215
G0 F10500 X107.65 Y112.95
G0 X110 Y113.54
G0 X109.914 Y114.951
G0 X110 Y115.149
;TYPE:WALL-INNER
G1 F1500 E8.64215
G1 F1362.7 X109.377 Y115.111 E8.66291
G1 X108.773 Y115 E8.68334
G1 X108.171 Y114.812 E8.70432
G1 X107.604 Y114.558 E8.72498
G1 X107.079 Y114.24 E8.74539
G1 X106.584 Y113.853 E8.76629
G1 X106.147 Y113.416 E8.78685
G1 X105.76 Y112.921 E8.80775
G1 X105.442 Y112.396 E8.82816
G1 X105.188 Y111.829 E8.84883
G1 X105 Y111.227 E8.8698
G1 X104.889 Y110.623 E8.89023
G1 X104.851 Y110 E8.91099
G1 X104.889 Y109.377 E8.93175
G1 X105 Y108.773 E8.95217
G1 X105.188 Y108.171 E8.97315
G1 X105.442 Y107.604 E8.99381
G1 X105.76 Y107.079 E9.01423
G1 X106.147 Y106.584 E9.03513
G1 X106.584 Y106.147 E9.05568
G1 X107.079 Y105.76 E9.07658
G1 X107.604 Y105.442 E9.09699
G1 X108.171 Y105.188 E9.11766
G1 X108.773 Y105 E9.13863
G1 X109.377 Y104.889 E9.15906
G1 X110 Y104.851 E9.17982
G1 X110.623 Y104.889 E9.20058
G1 X111.227 Y105 E9.221
G1 X111.829 Y105.188 E9.24198
G1 X112.396 Y105.442 E9.26265
G1 X112.921 Y105.76 E9.28306
G1 X113.416 Y106.147 E9.30396
G1 X113.853 Y106.584 E9.32451
G1 X114.24 Y107.079 E9.34541
G1 X114.558 Y107.604 E9.36583
G1 X114.812 Y108.171 E9.38649
G1 X115 Y108.773 E9.40747
G1 X115.111 Y109.377 E9.42789
G1 X115.149 Y110 E9.44865
G1 X115.111 Y110.623 E9.46941
G1 X115 Y111.227 E9.48984
G1 X114.812 Y111.829 E9.51081
G1 X114.558 Y112.396 E9.53148
G1 X114.24 Y112.921 E9.55189
G1 X113.853 Y113.416 E9.57279
G1 X113.416 Y113.853 E9.59335
G1 X112.921 Y114.24 E9.61424
G1 X112.396 Y114.558 E9.63466
G1 X111.829 Y114.812 E9.65532
G1 X111.227 Y115 E9.6763
G1 X110.623 Y115.111 E9.69673
G1 X110 Y115.149 E9.71749
G0 F10500 X110 Y115.549
;TYPE:WALL-OUTER
G1 F1362.7 X109.33 Y115.509 E9.73981
G1 X108.672 Y115.388 E9.76206
G1 X108.028 Y115.187 E9.7845
G1 X107.421 Y114.914 E9.80664
G1 X106.852 Y114.57 E9.82875
G1 X106.315 Y114.15 E9.85143
G1 X105.85 Y113.685 E9.8733
G1 X105.43 Y113.148 E9.89597
G1 X105.086 Y112.579 E9.91809
G1 X104.813 Y111.972 E9.94023
G1 X104.612 Y111.328 E9.96266
G1 X104.491 Y110.67 E9.98492
G1 X104.451 Y110 E10.00724
G1 X104.491 Y109.33 E10.02956
G1 X104.612 Y108.672 E10.05182
G1 X104.813 Y108.028 E10.07425
G1 X105.086 Y107.421 E10.09639
G1 X105.43 Y106.852 E10.11851
G1 X105.85 Y106.315 E10.14118
G1 X106.315 Y105.85 E10.16305
G1 X106.852 Y105.43 E10.18573
G1 X107.421 Y105.086 E10.20784
G1 X108.028 Y104.813 E10.22998
G1 X108.672 Y104.612 E10.25242
G1 X109.33 Y104.491 E10.27467
G1 X110 Y104.451 E10.29699
G1 X110.67 Y104.491 E10.31932
G1 X111.328 Y104.612 E10.34157
G1 X111.972 Y104.813 E10.36401
G1 X112.579 Y105.086 E10.38615
G1 X113.148 Y105.43 E10.40826
G1 X113.685 Y105.85 E10.43094
G1 X114.15 Y106.315 E10.45281
G1 X114.57 Y106.852 E10.47548
G1 X114.914 Y107.421 E10.4976
G1 X115.187 Y108.028 E10.51973
G1 X115.388 Y108.672 E10.54217
G1 X115.509 Y109.33 E10.56442
G1 X115.549 Y110 E10.58675
G1 X115.509 Y110.67 E10.60907
G1 X115.388 Y111.328 E10.63132
G1 X115.187 Y111.972 E10.65376
G1 X114.914 Y112.579 E10.6759
G1 X114.57 Y113.148 E10.69801
G1 X114.15 Y113.685 E10.72069
G1 X113.685 Y114.15 E10.74256
G1 X113.148 Y114.57 E10.76524
G1 X112.579 Y114.914 E10.78735
G1 X111.972 Y115.187 E10.80949
G1 X111.328 Y115.388 E10.83193
G1 X110.67 Y115.509 E10.85418
G1 X110 Y115.549 E10.8765
G0 F10500 X110 Y115.109
G0 X110 Y114.757
;TYPE:SKIN
G1 F1362.7 X109.423 Y114.723 E10.89573
G1 X108.863 Y114.619 E10.91467
G1 X108.309 Y114.446 E10.93397
G1 X107.786 Y114.213 E10.95302
G1 X107.305 Y113.92 E10.97175
G1 X106.834 Y113.553 E10.99161
G1 X106.447 Y113.166 E11.00981
G1 X106.08 Y112.695 E11.02967
G1 X105.787 Y112.214 E11.04841
G1 X105.554 Y111.691 E11.06745
G1 X105.381 Y111.137 E11.08675
G1 X105.277 Y110.577 E11.1057
G1 X105.243 Y110 E11.12492
G1 X105.277 Y109.423 E11.14415
G1 X105.381 Y108.863 E11.16309
G1 X105.554 Y108.309 E11.18239
G1 X105.787 Y107.786 E11.20144
G1 X106.08 Y107.305 E11.22017
G1 X106.447 Y106.834 E11.24003
G1 X106.834 Y106.447 E11.25823
G1 X107.305 Y106.08 E11.27809
G1 X107.786 Y105.787 E11.29682
G1 X108.309 Y105.554 E11.31587
G1 X108.863 Y105.381 E11.33517
G1 X109.423 Y105.277 E11.35412
G1 X110 Y105.243 E11.37334
G1 X110.577 Y105.277 E11.39256
G1 X111.137 Y105.381 E11.41151
G1 X111.691 Y105.554 E11.43081
G1 X112.214 Y105.787 E11.44985
G1 X112.695 Y106.08 E11.46859
G1 X113.166 Y106.447 E11.48845
G1 X113.553 Y106.834 E11.50665
G1 X113.92 Y107.305 E11.52651
G1 X114.213 Y107.786 E11.54524
G1 X114.446 Y108.309 E11.56429
G1 X114.619 Y108.863 E11.58359
G1 X114.723 Y109.423 E11.60253
G1 X114.757 Y110 E11.62176
G1 X114.723 Y110.577 E11.64098
G1 X114.619 Y111.137 E11.65993
G1 X114.446 Y111.691 E11.67923
G1 X114.213 Y112.214 E11.69827
G1 X113.92 Y112.695 E11.71701
G1 X113.553 Y113.166 E11.73687
G1 X113.166 Y113.553 E11.75507
G1 X112.695 Y113.92 E11.77493
G1 X112.214 Y114.213 E11.79366
G1 X111.691 Y114.446 E11.8127
G1 X111.137 Y114.619 E11.83201
G1 X110.577 Y114.723 E11.85095
G1 X110 Y114.757 E11.87018
G0 F10500 X109.983 Y115.036
G0 X111.192 Y114.832
G0 X112.101 Y114.488
G0 X113.045 Y114.003
G0 X112.84 Y113.74
G1 F1362.7 X112.84 Y106.26 E12.11896
G1 X107.16 Y106.26 E12.30788
G1 X107.16 Y113.74 E12.55667
G1 X112.84 Y113.74 E12.74558
G0 F10500 X112.999 Y113.274
G1 F1362.7 X113.967 Y112.306 E12.79112
G0 F10500 X112.999 Y112.142
G1 F1362.7 X114.557 Y110.585 E12.86438
G0 F10500 X114.593 Y109.983
G1 F1362.7 X112.999 Y111.577 E12.93935
G0 F10500 X112.999 Y111.011
G1 F1362.7 X114.563 Y109.448 E13.01289
G0 F10500 X114.474 Y108.97
G1 F1362.7 X112.999 Y110.445 E13.08227
G0 F10500 X112.999 Y109.88
G1 F1362.7 X114.346 Y108.533 E13.14563
G0 F10500 X114.187 Y108.126
G1 F1362.7 X112.999 Y109.314 E13.20151
G0 F10500 X112.999 Y108.748
G1 F1362.7 X114.001 Y107.747 E13.24862
G0 F10500 X113.786 Y107.396
G1 F1362.7 X112.999 Y108.183 E13.28564
G0 F10500 X112.999 Y107.617
G1 F1362.7 X113.538 Y107.078 E13.31099
G0 F10500 X113.272 Y106.779
G1 F1362.7 X112.999 Y107.051 E13.32381
G0 F10500 X112.56 Y107.051
G0 X112.254 Y106.54
G0 X112.254 Y106.099
G1 F1362.7 X112.317 Y106.037 E13.32675
G0 F10500 X111.946 Y105.842
G1 F1362.7 X111.688 Y106.099 E13.33886
G0 F10500 X111.546 Y105.676
G1 F1362.7 X111.123 Y106.099 E13.35876
G0 F10500 X111.116 Y105.541
G1 F1362.7 X110.557 Y106.099 E13.38503
G0 F10500 X109.991 Y106.099
G1 F1362.7 X110.64 Y105.45 E13.41555
G0 F10500 X110.115 Y105.41
