;FLAVOR:Marlin
;TIME:3502
;Filament used: 3.40833m
;Layer height: 0.2
;MINX:97.45
;MINY:91.7
;MINZ:0.2
;MAXX:122.55
;MAXY:128.3
;MAXZ:44.4
;Generated with Cura_SteamEngine 4.10.0
M140 S60
M105
M190 S60
M104 S205
M105
M109 S205
M82 ;absolute extrusion mode
; Ender 3 Custom Start G-code
G92 E0 ; Reset Extruder
G28 ; Home all axes
G1 Z2.0 F3000 ; Move Z Axis up little to prevent scratching of Heat Bed
G1 X0.1 Y20 Z0.3 F5000.0 ; Move to start position
G1 X0.1 Y200.0 Z0.3 F1500.0 E15 ; Draw the first line
G1 X0.4 Y200.0 Z0.3 F5000.0 ; Move to side a little
G1 X0.4 Y20 Z0.3 F1500.0 E30 ; Draw the second line
G92 E0 ; Reset Extruder
G1 Z2.0 F3000 ; Move Z Axis up little to prevent scratching of Heat Bed
G1 X5 Y20 Z0.3 F5000.0 ; Move over to prevent blob squish
G92 E0
G92 E0
G1 F1500 E-6.5
;LAYER_COUNT:223
;LAYER:0
M107
;MESH:holder.STL
G0 F9000 X97.851 Y127.9 Z0.2
;TYPE:WALL-INNER
G1 F1500 E0
G1 F2100 X97.851 Y127.701 E0.00662
G1 X97.85 Y92.101 E1.19068
G1 X121.95 Y92.1 E1.99225
G1 X122.149 Y92.1 E1.99887
G1 X122.149 Y92.299 E2.00315
G1 X122.15 Y127.899 E3.18721
G1 X98.05 Y127.9 E3.98878
G1 X97.851 Y127.9 E3.99306
G0 F9000 X97.451 Y128.3
;TYPE:WALL-OUTER
G1 F2100 X97.45 Y91.701 E5.21035
G1 X122.549 Y91.7 E6.04515
G1 X122.55 Y128.299 E7.26243
G1 X97.451 Y128.3 E8.09723
G0 F9000 X97.721 Y128.03
G0 X98.241 Y127.79
G0 X98.241 Y127.51
;TYPE:SKIN
G1 F2100 X98.24 Y92.491 E9.26197
G1 X121.759 Y92.49 E10.04421
G1 X121.76 Y127.509 E11.20895
G1 X98.241 Y127.51 E11.99119
G0 F9000 X98.499 Y127.349
G1 F2100 X98.4 Y127.25 E11.99585
G0 F9000 X98.4 Y126.684
G1 F2100 X99.064 Y127.349 E12.02711
G0 F9000 X99.63 Y127.349
G1 F2100 X98.4 Y126.118 E12.08499
G0 F9000 X98.4 Y125.553
G1 F2100 X100.196 Y127.349 E12.16946
G0 F9000 X100.762 Y127.349
G1 F2100 X98.4 Y124.987 E12.28056
G0 F9000 X98.4 Y124.421
G1 F2100 X101.327 Y127.349 E12.41827
G0 F9000 X101.893 Y127.349
G1 F2100 X98.4 Y123.856 E12.58257
G0 F9000 X98.4 Y123.29
G1 F2100 X102.459 Y127.349 E12.77349
G0 F9000 X103.024 Y127.349
G1 F2100 X98.4 Y122.724 E12.99101
G0 F9000 X98.4 Y122.159
G1 F2100 X103.59 Y127.349 E13.23513
G0 F9000 X104.156 Y127.349
G1 F2100 X98.4 Y121.593 E13.50588
G0 F9000 X98.4 Y121.027
G1 F2100 X104.721 Y127.349 E13.80322
G0 F9000 X105.287 Y127.349
G1 F2100 X98.4 Y120.462 E14.12716
G0 F9000 X98.4 Y119.896
G1 F2100 X105.853 Y127.349 E14.47773
G0 F9000 X106.418 Y127.349
G1 F2100 X98.4 Y119.33 E14.8549
G0 F9000 X98.4 Y118.764
G1 F2100 X106.984 Y127.349 E15.25868
G0 F9000 X107.55 Y127.349
G1 F2100 X98.4 Y118.199 E15.68907
G0 F9000 X98.4 Y117.633
G1 F2100 X108.115 Y127.349 E16.14606
G0 F9000 X108.681 Y127.349
G1 F2100 X98.4 Y117.067 E16.62967
G0 F9000 X98.4 Y116.502
G1 F2100 X109.247 Y127.349 E17.13988
G0 F9000 X109.812 Y127.349
G1 F2100 X98.4 Y115.936 E17.67669
G0 F9000 X98.4 Y115.37
G1 F2100 X110.377 Y127.348 E18.24007
G0 F9000 X110.943 Y127.348
G1 F2100 X98.4 Y114.805 E18.83006
G0 F9000 X98.4 Y114.239
G1 F2100 X111.509 Y127.348 E19.44667
G0 F9000 X112.075 Y127.348
G1 F2100 X98.4 Y113.673 E20.0899
G0 F9000 X98.4 Y113.108
G1 F2100 X112.64 Y127.348 E20.7597
G0 F9000 X113.206 Y127.348
G1 F2100 X98.4 Y112.542 E21.45613
G0 F9000 X98.4 Y111.976
G1 F2100 X113.772 Y127.348 E22.17918
G0 F9000 X114.337 Y127.348
G1 F2100 X98.4 Y111.411 E22.92881
G0 F9000 X98.4 Y110.845
G1 F2100 X114.903 Y127.348 E23.70506
G0 F9000 X115.469 Y127.348
G1 F2100 X98.4 Y110.279 E24.50793
G0 F9000 X98.399 Y109.713
G1 F2100 X116.034 Y127.348 E25.33743
G0 F9000 X116.6 Y127.348
G1 F2100 X98.399 Y109.147 E26.19355
G0 F9000 X98.399 Y108.581
G1 F2100 X117.166 Y127.348 E27.07629
G0 F9000 X117.731 Y127.348
G1 F2100 X98.399 Y108.016 E27.98561
G0 F9000 X98.399 Y107.45
G1 F2100 X118.297 Y127.348 E28.92155
G0 F9000 X118.863 Y127.348
G1 F2100 X98.399 Y106.884 E29.88411
G0 F9000 X98.399 Y106.319
G1 F2100 X119.428 Y127.348 E30.87325
G0 F9000 X119.994 Y127.348
G1 F2100 X98.399 Y105.753 E31.88902
G0 F9000 X98.399 Y105.187
G1 F2100 X120.56 Y127.348 E32.9314
G0 F9000 X121.125 Y127.348
G1 F2100 X98.399 Y104.622 E34.00036
G0 F9000 X98.399 Y104.056
G1 F2100 X121.599 Y127.256 E35.09162
G0 F9000 X121.599 Y126.69
G1 F2100 X98.399 Y103.49 E36.18288
G0 F9000 X98.399 Y102.925
G1 F2100 X121.599 Y126.125 E37.27413
G0 F9000 X121.599 Y125.559
G1 F2100 X98.399 Y102.359 E38.36539
G0 F9000 X98.399 Y101.793
G1 F2100 X121.599 Y124.993 E39.45665
G0 F9000 X121.599 Y124.428
G1 F2100 X98.399 Y101.227 E40.54793
G0 F9000 X98.399 Y100.662
G1 F2100 X121.599 Y123.862 E41.63918
G0 F9000 X121.599 Y123.296
G1 F2100 X98.399 Y100.096 E42.73044
G0 F9000 X98.399 Y99.53
G1 F2100 X121.599 Y122.731 E43.82172
G0 F9000 X121.599 Y122.165
G1 F2100 X98.399 Y98.965 E44.91298
G0 F9000 X98.399 Y98.399
G1 F2100 X121.599 Y121.599 E46.00424
G0 F9000 X121.599 Y121.034
G1 F2100 X98.399 Y97.833 E47.09552
G0 F9000 X98.399 Y97.268
G1 F2100 X121.599 Y120.468 E48.18677
G0 F9000 X121.599 Y119.902
G1 F2100 X98.399 Y96.702 E49.27803
G0 F9000 X98.399 Y96.136
G1 F2100 X121.599 Y119.336 E50.36929
G0 F9000 X121.599 Y118.771
G1 F2100 X98.399 Y95.571 E51.46054
G0 F9000 X98.399 Y95.005
G1 F2100 X121.599 Y118.205 E52.5518
G0 F9000 X121.599 Y117.639
G1 F2100 X98.399 Y94.439 E53.64306
G0 F9000 X98.399 Y93.874
G1 F2100 X121.599 Y117.074 E54.73431
G0 F9000 X121.599 Y116.508
G1 F2100 X98.399 Y93.308 E55.82557
G0 F9000 X98.399 Y92.742
G1 F2100 X121.599 Y115.942 E56.91683
G0 F9000 X121.599 Y115.377
G1 F2100 X98.873 Y92.65 E57.98581
G0 F9000 X99.439 Y92.65
G1 F2100 X121.599 Y114.811 E59.02817
G0 F9000 X121.599 Y114.245
G1 F2100 X100.004 Y92.65 E60.04394
G0 F9000 X100.57 Y92.65
G1 F2100 X121.599 Y113.68 E61.0331
G0 F9000 X121.599 Y113.114
G1 F2100 X101.136 Y92.65 E61.99564
G0 F9000 X101.701 Y92.65
G1 F2100 X121.599 Y112.548 E62.93158
G0 F9000 X121.599 Y111.983
G1 F2100 X102.267 Y92.65 E63.84092
G0 F9000 X102.833 Y92.65
G1 F2100 X121.599 Y111.417 E64.72364
G0 F9000 X121.599 Y110.851
G1 F2100 X103.398 Y92.65 E65.57976
G0 F9000 X103.964 Y92.65
G1 F2100 X121.599 Y110.286 E66.40928
G0 F9000 X121.599 Y109.719
G1 F2100 X104.53 Y92.65 E67.21215
G0 F9000 X105.095 Y92.65
G1 F2100 X121.599 Y109.153 E67.98843
G0 F9000 X121.599 Y108.588
G1 F2100 X105.661 Y92.65 E68.7381
G0 F9000 X106.227 Y92.65
G1 F2100 X121.599 Y108.022 E69.46115
G0 F9000 X121.599 Y107.456
G1 F2100 X106.792 Y92.65 E70.15761
G0 F9000 X107.358 Y92.65
G1 F2100 X121.599 Y106.891 E70.82746
G0 F9000 X121.599 Y106.325
G1 F2100 X107.924 Y92.65 E71.47069
G0 F9000 X108.489 Y92.65
G1 F2100 X121.599 Y105.759 E72.08732
G0 F9000 X121.599 Y105.194
G1 F2100 X109.055 Y92.65 E72.67735
G0 F9000 X109.621 Y92.65
G1 F2100 X121.599 Y104.628 E73.24076
G0 F9000 X121.599 Y104.062
G1 F2100 X110.186 Y92.65 E73.77757
G0 F9000 X110.752 Y92.65
G1 F2100 X121.599 Y103.497 E74.28778
G0 F9000 X121.599 Y102.931
G1 F2100 X111.317 Y92.65 E74.77139
G0 F9000 X111.883 Y92.65
G1 F2100 X121.599 Y102.365 E75.22838
G0 F9000 X121.599 Y101.8
G1 F2100 X112.449 Y92.65 E75.65876
G0 F9000 X113.014 Y92.65
G1 F2100 X121.599 Y101.234 E76.06255
G0 F9000 X121.599 Y100.668
G1 F2100 X113.58 Y92.65 E76.43972
G0 F9000 X114.146 Y92.65
G1 F2100 X121.599 Y100.102 E76.79026
G0 F9000 X121.599 Y99.537
G1 F2100 X114.711 Y92.65 E77.11423
G0 F9000 X115.277 Y92.65
G1 F2100 X121.599 Y98.971 E77.41157
G0 F9000 X121.599 Y98.405
G1 F2100 X115.843 Y92.65 E77.68229
G0 F9000 X116.408 Y92.65
G1 F2100 X121.599 Y97.84 E77.92644
G0 F9000 X121.599 Y97.274
G1 F2100 X116.974 Y92.65 E78.14396
G0 F9000 X117.54 Y92.65
G1 F2100 X121.599 Y96.708 E78.33486
G0 F9000 X121.599 Y96.143
G1 F2100 X118.105 Y92.65 E78.49918
G0 F9000 X118.671 Y92.65
G1 F2100 X121.599 Y95.577 E78.63688
G0 F9000 X121.599 Y95.011
G1 F2100 X119.237 Y92.65 E78.74796
G0 F9000 X119.802 Y92.65
G1 F2100 X121.599 Y94.446 E78.83246
G0 F9000 X121.599 Y93.88
G1 F2100 X120.368 Y92.65 E78.89034
G0 F9000 X120.934 Y92.65
G1 F2100 X121.599 Y93.314 E78.9216
G0 F9000 X121.599 Y92.749
G1 F2100 X121.5 Y92.65 E78.92626
G0 F9000 X121.499 Y92.301
G1 F1500 E72.42626
;MESH:NONMESH
G0 F300 X121.499 Y92.301 Z0.4
G0 F9000 X121.5 Y92.21
G0 X121.967 Y92.282
G0 X122.15 Y127.9
;TIME_ELAPSED:83.841743
;LAYER:1
M106 S85
;TYPE:WALL-INNER
;MESH:holder.STL
G1 F1500 E78.92626
G1 F2100 X97.85 Y127.9 E79.73448
G1 X97.85 Y92.1 E80.92519
G1 X122.15 Y92.1 E81.73341
G1 X122.15 Y127.9 E82.92412
G0 F10500 X122.55 Y128.3
;TYPE:WALL-OUTER
G1 F2100 X97.45 Y128.3 E83.75895
G1 X97.45 Y91.7 E84.97627
G1 X122.55 Y91.7 E85.8111
G1 X122.55 Y128.3 E87.02842
G0 F10500 X122.28 Y128.03
G0 X122.04 Y127.51
G0 X121.76 Y127.51
;TYPE:SKIN
G1 F2100 X98.24 Y127.51 E87.8107
G1 X98.24 Y92.49 E88.97547
G1 X121.76 Y92.49 E89.75775
G1 X121.76 Y127.51 E90.92252
G0 F10500 X120.986 Y127.349
G1 F2100 X121.599 Y126.736 E90.95136
G0 F10500 X121.599 Y126.17
G1 F2100 X120.42 Y127.349 E91.00681
G0 F10500 X119.855 Y127.349
G1 F2100 X121.599 Y125.604 E91.08887
G0 F10500 X121.599 Y125.039
G1 F2100 X119.289 Y127.349 E91.19752
G0 F10500 X118.723 Y127.349
G1 F2100 X121.599 Y124.473 E91.3328
G0 F10500 X121.599 Y123.907
G1 F2100 X118.158 Y127.349 E91.49468
G0 F10500 X117.592 Y127.349
G1 F2100 X121.599 Y123.342 E91.68316
G0 F10500 X121.599 Y122.776
G1 F2100 X117.026 Y127.349 E91.89826
G0 F10500 X116.461 Y127.349
G1 F2100 X121.599 Y122.21 E92.13995
G0 F10500 X121.599 Y121.644
G1 F2100 X115.895 Y127.349 E92.40828
G0 F10500 X115.329 Y127.349
G1 F2100 X121.599 Y121.079 E92.7032
G0 F10500 X121.599 Y120.513
G1 F2100 X114.764 Y127.349 E93.02472
G0 F10500 X114.198 Y127.349
G1 F2100 X121.599 Y119.947 E93.37286
G0 F10500 X121.599 Y119.382
G1 F2100 X113.632 Y127.349 E93.74761
G0 F10500 X113.067 Y127.349
G1 F2100 X121.599 Y118.816 E94.14895
G0 F10500 X121.599 Y118.25
G1 F2100 X112.501 Y127.349 E94.57691
G0 F10500 X111.935 Y127.349
G1 F2100 X121.599 Y117.685 E95.03148
G0 F10500 X121.599 Y117.119
G1 F2100 X111.37 Y127.349 E95.51264
G0 F10500 X110.804 Y127.349
G1 F2100 X121.599 Y116.553 E96.02043
G0 F10500 X121.599 Y115.988
G1 F2100 X110.238 Y127.349 E96.55482
G0 F10500 X109.672 Y127.349
G1 F2100 X121.599 Y115.422 E97.11583
G0 F10500 X121.599 Y114.856
G1 F2100 X109.107 Y127.349 E97.70344
G0 F10500 X108.541 Y127.349
G1 F2100 X121.599 Y114.291 E98.31764
G0 F10500 X121.599 Y113.725
G1 F2100 X107.975 Y127.349 E98.95848
G0 F10500 X107.41 Y127.349
G1 F2100 X121.599 Y113.159 E99.62591
G0 F10500 X121.599 Y112.594
G1 F2100 X106.844 Y127.349 E100.31994
G0 F10500 X106.278 Y127.349
G1 F2100 X121.599 Y112.028 E101.04059
G0 F10500 X121.599 Y111.462
G1 F2100 X105.713 Y127.349 E101.78784
G0 F10500 X105.147 Y127.349
G1 F2100 X121.599 Y110.896 E102.56172
G0 F10500 X121.599 Y110.331
G1 F2100 X104.581 Y127.349 E103.36219
G0 F10500 X104.016 Y127.349
G1 F2100 X121.599 Y109.766 E104.18924
G0 F10500 X121.599 Y109.2
G1 F2100 X103.45 Y127.349 E105.04291
G0 F10500 X102.884 Y127.349
G1 F2100 X121.599 Y108.634 E105.92321
G0 F10500 X121.599 Y108.069
G1 F2100 X102.319 Y127.349 E106.83008
G0 F10500 X101.753 Y127.349
G1 F2100 X121.599 Y107.503 E107.76358
G0 F10500 X121.599 Y106.937
G1 F2100 X101.187 Y127.349 E108.7237
G0 F10500 X100.622 Y127.349
G1 F2100 X121.599 Y106.372 E109.71039
G0 F10500 X121.599 Y105.806
G1 F2100 X100.056 Y127.349 E110.72371
G0 F10500 X99.49 Y127.349
G1 F2100 X121.599 Y105.24 E111.76365
G0 F10500 X121.599 Y104.675
G1 F2100 X98.924 Y127.349 E112.83019
G0 F10500 X98.4 Y127.308
G1 F2100 X121.599 Y104.109 E113.92139
G0 F10500 X121.599 Y103.543
G1 F2100 X98.4 Y126.742 E115.0126
G0 F10500 X98.4 Y126.176
G1 F2100 X121.599 Y102.978 E116.10379
G0 F10500 X121.599 Y102.412
G1 F2100 X98.4 Y125.611 E117.195
G0 F10500 X98.4 Y125.045
G1 F2100 X121.599 Y101.846 E118.28621
G0 F10500 X121.599 Y101.281
G1 F2100 X98.4 Y124.479 E119.3774
G0 F10500 X98.4 Y123.914
G1 F2100 X121.599 Y100.715 E120.46861
G0 F10500 X121.599 Y100.149
G1 F2100 X98.4 Y123.348 E121.55982
G0 F10500 X98.4 Y122.782
G1 F2100 X121.599 Y99.583 E122.65103
G0 F10500 X121.599 Y99.018
G1 F2100 X98.4 Y122.217 E123.74224
G0 F10500 X98.4 Y121.651
G1 F2100 X121.599 Y98.452 E124.83345
G0 F10500 X121.599 Y97.886
G1 F2100 X98.4 Y121.085 E125.92466
G0 F10500 X98.4 Y120.519
G1 F2100 X121.599 Y97.321 E127.01584
G0 F10500 X121.599 Y96.755
G1 F2100 X98.4 Y119.954 E128.10705
G0 F10500 X98.4 Y119.388
G1 F2100 X121.599 Y96.189 E129.19826
G0 F10500 X121.599 Y95.624
G1 F2100 X98.4 Y118.822 E130.28945
G0 F10500 X98.4 Y118.257
G1 F2100 X121.599 Y95.058 E131.38066
G0 F10500 X121.599 Y94.492
G1 F2100 X98.4 Y117.691 E132.47187
G0 F10500 X98.4 Y117.125
G1 F2100 X121.599 Y93.927 E133.56305
G0 F10500 X121.599 Y93.361
G1 F2100 X98.4 Y116.56 E134.65426
G0 F10500 X98.4 Y115.994
G1 F2100 X121.599 Y92.795 E135.74547
G0 F10500 X121.179 Y92.65
G1 F2100 X98.4 Y115.428 E136.8169
G0 F10500 X98.4 Y114.863
G1 F2100 X120.613 Y92.65 E137.86174
G0 F10500 X120.047 Y92.65
G1 F2100 X98.4 Y114.297 E138.87994
G0 F10500 X98.4 Y113.731
G1 F2100 X119.481 Y92.65 E139.87153
G0 F10500 X118.916 Y92.65
G1 F2100 X98.4 Y113.166 E140.83654
G0 F10500 X98.4 Y112.6
G1 F2100 X118.35 Y92.65 E141.77493
G0 F10500 X117.784 Y92.65
G1 F2100 X98.4 Y112.034 E142.68669
G0 F10500 X98.4 Y111.469
G1 F2100 X117.219 Y92.65 E143.57188
G0 F10500 X116.653 Y92.65
G1 F2100 X98.4 Y110.903 E144.43044
G0 F10500 X98.4 Y110.337
G1 F2100 X116.087 Y92.65 E145.26239
G0 F10500 X115.522 Y92.65
G1 F2100 X98.399 Y109.772 E146.06778
G0 F10500 X98.399 Y109.206
G1 F2100 X114.956 Y92.65 E146.84654
G0 F10500 X114.39 Y92.65
G1 F2100 X98.399 Y108.641 E147.59871
G0 F10500 X98.399 Y108.075
G1 F2100 X113.825 Y92.65 E148.32428
G0 F10500 X113.259 Y92.65
G1 F2100 X98.399 Y107.509 E149.02322
G0 F10500 X98.399 Y106.944
G1 F2100 X112.693 Y92.65 E149.69557
G0 F10500 X112.128 Y92.65
G1 F2100 X98.399 Y106.378 E150.34132
G0 F10500 X98.399 Y105.812
G1 F2100 X111.562 Y92.65 E150.96044
G0 F10500 X110.996 Y92.65
G1 F2100 X98.399 Y105.247 E151.55296
G0 F10500 X98.399 Y104.681
G1 F2100 X110.43 Y92.65 E152.11887
G0 F10500 X109.865 Y92.65
G1 F2100 X98.399 Y104.115 E152.65817
G0 F10500 X98.399 Y103.55
G1 F2100 X109.299 Y92.65 E153.17087
G0 F10500 X108.733 Y92.65
G1 F2100 X98.399 Y102.984 E153.65695
G0 F10500 X98.399 Y102.418
G1 F2100 X108.168 Y92.65 E154.11643
G0 F10500 X107.602 Y92.65
G1 F2100 X98.399 Y101.853 E154.54931
G0 F10500 X98.399 Y101.287
G1 F2100 X107.036 Y92.65 E154.95557
G0 F10500 X106.471 Y92.65
G1 F2100 X98.399 Y100.721 E155.33523
G0 F10500 X98.399 Y100.156
G1 F2100 X105.905 Y92.65 E155.68829
G0 F10500 X105.339 Y92.65
G1 F2100 X98.399 Y99.59 E156.01472
G0 F10500 X98.399 Y99.024
G1 F2100 X104.774 Y92.65 E156.31456
G0 F10500 X104.208 Y92.65
G1 F2100 X98.399 Y98.458 E156.58777
G0 F10500 X98.399 Y97.893
G1 F2100 X103.642 Y92.65 E156.83439
G0 F10500 X103.077 Y92.65
G1 F2100 X98.399 Y97.327 E157.0544
G0 F10500 X98.399 Y96.761
G1 F2100 X102.511 Y92.65 E157.2478
G0 F10500 X101.945 Y92.65
G1 F2100 X98.399 Y96.196 E157.41459
G0 F10500 X98.399 Y95.63
G1 F2100 X101.38 Y92.65 E157.55478
G0 F10500 X100.814 Y92.65
G1 F2100 X98.399 Y95.064 E157.66835
G0 F10500 X98.399 Y94.499
G1 F2100 X100.248 Y92.65 E157.75533
G0 F10500 X99.682 Y92.65
G1 F2100 X98.399 Y93.933 E157.81567
G0 F10500 X98.399 Y93.367
G1 F2100 X99.117 Y92.65 E157.84942
G0 F10500 X98.551 Y92.65
G1 F2100 X98.399 Y92.802 E157.85657
G0 F10500 X98.05 Y92.802
G1 F1500 E151.35657
;MESH:NONMESH
G0 F300 X98.05 Y92.802 Z0.6
G0 F10500 X97.96 Y92.802
G0 X98.032 Y127.718
G0 X122.15 Y127.9
;TIME_ELAPSED:163.914476
;LAYER:2
M106 S170
;TYPE:WALL-INNER
;MESH:holder.STL
G1 F1500 E157.85657
G1 F2100 X97.85 Y127.9 E158.66479
G1 X97.85 Y92.1 E159.85551
G1 X122.15 Y92.1 E160.66373
G1 X122.15 Y127.9 E161.85444
G0 F10500 X122.55 Y128.3
;TYPE:WALL-OUTER
G1 F2100 X97.45 Y128.3 E162.68927
G1 X97.45 Y91.7 E163.90659
G1 X122.55 Y91.7 E164.74142
G1 X122.55 Y128.3 E165.95874
G0 F10500 X122.28 Y128.03
G0 X122.04 Y127.51
G0 X121.76 Y127.51
;TYPE:SKIN
G1 F2100 X98.24 Y127.51 E166.74102
G1 X98.24 Y92.49 E167.90579
G1 X121.76 Y92.49 E168.68807
G1 X121.76 Y127.51 E169.85284
G0 F10500 X122.04 Y127.51
G0 X98.499 Y127.79
G0 X98.499 Y127.349
G1 F2100 X98.399 Y127.249 E169.85754
G0 F10500 X98.399 Y126.683
G1 F2100 X99.064 Y127.349 E169.88884
G0 F10500 X99.63 Y127.349
G1 F2100 X98.399 Y126.118 E169.94675
G0 F10500 X98.399 Y125.552
G1 F2100 X100.196 Y127.349 E170.03127
G0 F10500 X100.762 Y127.349
