;FLAVOR:Marlin
;TIME:2248
;Filament used: 1.99185m
;Layer height: 0.2
;MINX:96.95
;MINY:91.7
;MINZ:0.2
;MAXX:123.05
;MAXY:128.3
;MAXZ:16.4
;Generated with Cura_SteamEngine 4.10.0
M140 S60
M105
M190 S60
M104 S205
M105
M109 S205
M82 ;absolute extrusion mode
; Ender 3 Custom Start G-code
G92 E0 ; Reset Extruder
G28 ; Home all axes
G1 Z2.0 F3000 ; Move Z Axis up little to prevent scratching of Heat Bed
G1 X0.1 Y20 Z0.3 F5000.0 ; Move to start position
G1 X0.1 Y200.0 Z0.3 F1500.0 E15 ; Draw the first line
G1 X0.4 Y200.0 Z0.3 F5000.0 ; Move to side a little
G1 X0.4 Y20 Z0.3 F1500.0 E30 ; Draw the second line
G92 E0 ; Reset Extruder
G1 Z2.0 F3000 ; Move Z Axis up little to prevent scratching of Heat Bed
G1 X5 Y20 Z0.3 F5000.0 ; Move over to prevent blob squish
G92 E0
G92 E0
G1 F1500 E-6.5
;LAYER_COUNT:83
;LAYER:0
M107
;MESH:Testholder.STL
G0 F9000 X122.65 Y127.9 Z0.2
;TYPE:WALL-INNER
G1 F1500 E0
G1 F2100 X122.451 Y127.9 E0.00662
G1 X97.35 Y127.9 E0.84148
G1 X97.35 Y92.1 E2.03219
G1 X122.649 Y92.1 E2.87364
G1 X122.65 Y127.701 E4.05774
G1 X122.65 Y127.9 E4.06202
G0 F9000 X123.05 Y128.3
;TYPE:WALL-OUTER
G1 F2100 X96.95 Y128.3 E4.93011
G1 X96.95 Y91.7 E6.14743
G1 X123.049 Y91.7 E7.01549
G1 X123.05 Y128.3 E8.23281
G0 F9000 X122.78 Y128.03
G0 X122.54 Y127.51
G0 X122.26 Y127.51
;TYPE:SKIN
G1 F2100 X97.74 Y127.51 E9.04834
G1 X97.74 Y92.49 E10.21311
G1 X122.259 Y92.49 E11.02862
G1 X122.26 Y127.51 E12.19339
G0 F9000 X122.54 Y127.51
G0 X98.499 Y127.79
G0 X98.499 Y127.349
G1 F2100 X97.899 Y126.749 E12.22161
G0 F9000 X97.899 Y126.183
G1 F2100 X99.064 Y127.349 E12.27643
G0 F9000 X99.63 Y127.349
G1 F2100 X97.899 Y125.618 E12.35785
G0 F9000 X97.899 Y125.052
G1 F2100 X100.196 Y127.349 E12.4659
G0 F9000 X100.762 Y127.349
G1 F2100 X97.899 Y124.486 E12.60057
G0 F9000 X97.899 Y123.921
G1 F2100 X101.327 Y127.349 E12.76181
G0 F9000 X101.893 Y127.349
G1 F2100 X97.899 Y123.355 E12.94967
G0 F9000 X97.899 Y122.789
G1 F2100 X102.459 Y127.349 E13.16416
G0 F9000 X103.024 Y127.349
G1 F2100 X97.899 Y122.224 E13.40523
G0 F9000 X97.899 Y121.658
G1 F2100 X103.59 Y127.349 E13.67291
G0 F9000 X104.156 Y127.349
G1 F2100 X97.899 Y121.092 E13.96722
G0 F9000 X97.899 Y120.527
G1 F2100 X104.721 Y127.349 E14.28811
G0 F9000 X105.287 Y127.349
G1 F2100 X97.899 Y119.961 E14.63562
G0 F9000 X97.899 Y119.395
G1 F2100 X105.853 Y127.349 E15.00975
G0 F9000 X106.418 Y127.349
G1 F2100 X97.899 Y118.83 E15.41046
G0 F9000 X97.899 Y118.264
G1 F2100 X106.984 Y127.349 E15.83779
G0 F9000 X107.55 Y127.349
G1 F2100 X97.899 Y117.698 E16.29174
G0 F9000 X97.899 Y117.132
G1 F2100 X108.115 Y127.349 E16.77229
G0 F9000 X108.681 Y127.349
G1 F2100 X97.899 Y116.567 E17.27945
G0 F9000 X97.899 Y116.001
G1 F2100 X109.247 Y127.349 E17.81322
G0 F9000 X109.812 Y127.349
G1 F2100 X97.899 Y115.435 E18.3736
G0 F9000 X97.899 Y114.87
G1 F2100 X110.378 Y127.349 E18.96057
G0 F9000 X110.944 Y127.349
G1 F2100 X97.899 Y114.304 E19.57417
G0 F9000 X97.899 Y113.738
G1 F2100 X111.51 Y127.349 E20.21439
G0 F9000 X112.075 Y127.349
G1 F2100 X97.899 Y113.173 E20.88118
G0 F9000 X97.899 Y112.607
G1 F2100 X112.641 Y127.349 E21.5746
G0 F9000 X113.207 Y127.349
G1 F2100 X97.899 Y112.041 E22.29464
G0 F9000 X97.899 Y111.476
G1 F2100 X113.772 Y127.349 E23.04126
G0 F9000 X114.338 Y127.349
G1 F2100 X97.899 Y110.91 E23.8145
G0 F9000 X97.899 Y110.344
G1 F2100 X114.904 Y127.349 E24.61436
G0 F9000 X115.469 Y127.349
G1 F2100 X97.899 Y109.779 E25.4408
G0 F9000 X97.899 Y109.213
G1 F2100 X116.035 Y127.349 E26.29386
G0 F9000 X116.601 Y127.349
G1 F2100 X97.899 Y108.647 E27.17355
G0 F9000 X97.899 Y108.081
G1 F2100 X117.166 Y127.349 E28.07983
G0 F9000 X117.732 Y127.349
G1 F2100 X97.899 Y107.516 E29.01272
G0 F9000 X97.899 Y106.95
G1 F2100 X118.298 Y127.349 E29.97222
G0 F9000 X118.863 Y127.349
G1 F2100 X97.899 Y106.384 E30.95833
G0 F9000 X97.899 Y105.819
G1 F2100 X119.429 Y127.349 E31.97103
G0 F9000 X119.995 Y127.349
G1 F2100 X97.899 Y105.253 E33.01036
G0 F9000 X97.899 Y104.687
G1 F2100 X120.56 Y127.349 E34.07629
G0 F9000 X121.126 Y127.349
G1 F2100 X97.899 Y104.122 E35.16882
G0 F9000 X97.899 Y103.556
G1 F2100 X121.692 Y127.349 E36.28797
G0 F9000 X122.099 Y127.19
G1 F2100 X97.899 Y102.99 E37.42626
G0 F9000 X97.899 Y102.425
G1 F2100 X122.099 Y126.625 E38.56455
G0 F9000 X122.099 Y126.059
G1 F2100 X97.899 Y101.859 E39.70285
G0 F9000 X97.899 Y101.293
G1 F2100 X122.099 Y125.493 E40.84114
G0 F9000 X122.099 Y124.928
G1 F2100 X97.899 Y100.728 E41.97943
G0 F9000 X97.899 Y100.162
G1 F2100 X122.099 Y124.362 E43.11773
G0 F9000 X122.099 Y123.796
G1 F2100 X97.899 Y99.596 E44.25602
G0 F9000 X97.899 Y99.031
G1 F2100 X122.099 Y123.231 E45.39432
G0 F9000 X122.099 Y122.665
G1 F2100 X97.899 Y98.465 E46.53261
G0 F9000 X97.899 Y97.899
G1 F2100 X122.099 Y122.099 E47.6709
G0 F9000 X122.099 Y121.533
G1 F2100 X97.899 Y97.333 E48.8092
G0 F9000 X97.899 Y96.768
G1 F2100 X122.099 Y120.968 E49.94749
G0 F9000 X122.099 Y120.402
G1 F2100 X97.899 Y96.202 E51.08578
G0 F9000 X97.899 Y95.636
G1 F2100 X122.099 Y119.836 E52.22408
G0 F9000 X122.099 Y119.271
G1 F2100 X97.899 Y95.071 E53.36237
G0 F9000 X97.899 Y94.505
G1 F2100 X122.099 Y118.705 E54.50067
G0 F9000 X122.099 Y118.139
G1 F2100 X97.899 Y93.939 E55.63896
G0 F9000 X97.899 Y93.374
G1 F2100 X122.099 Y117.574 E56.77725
G0 F9000 X122.099 Y117.008
G1 F2100 X97.899 Y92.808 E57.91555
G0 F9000 X98.306 Y92.65
G1 F2100 X122.099 Y116.442 E59.03467
G0 F9000 X122.099 Y115.877
G1 F2100 X98.872 Y92.65 E60.1272
G0 F9000 X99.438 Y92.65
G1 F2100 X122.099 Y115.311 E61.1931
G0 F9000 X122.099 Y114.745
G1 F2100 X100.003 Y92.65 E62.23241
G0 F9000 X100.569 Y92.65
G1 F2100 X122.099 Y114.18 E63.24511
G0 F9000 X122.099 Y113.614
G1 F2100 X101.135 Y92.65 E64.2312
G0 F9000 X101.701 Y92.65
G1 F2100 X122.099 Y113.048 E65.19066
G0 F9000 X122.099 Y112.483
G1 F2100 X102.266 Y92.65 E66.12354
G0 F9000 X102.832 Y92.65
G1 F2100 X122.099 Y111.917 E67.0298
G0 F9000 X122.099 Y111.351
G1 F2100 X103.398 Y92.65 E67.90944
G0 F9000 X103.963 Y92.65
G1 F2100 X122.099 Y110.785 E68.76248
G0 F9000 X122.099 Y110.22
G1 F2100 X104.529 Y92.65 E69.58892
G0 F9000 X105.095 Y92.65
G1 F2100 X122.098 Y109.653 E70.38868
G0 F9000 X122.098 Y109.088
G1 F2100 X105.66 Y92.65 E71.16188
G0 F9000 X106.226 Y92.65
G1 F2100 X122.098 Y108.522 E71.90845
G0 F9000 X122.098 Y107.956
G1 F2100 X106.792 Y92.65 E72.6284
G0 F9000 X107.357 Y92.65
G1 F2100 X122.098 Y107.391 E73.32177
G0 F9000 X122.098 Y106.825
G1 F2100 X107.923 Y92.65 E73.98851
G0 F9000 X108.489 Y92.65
G1 F2100 X122.098 Y106.259 E74.62864
G0 F9000 X122.098 Y105.694
G1 F2100 X109.054 Y92.65 E75.24219
G0 F9000 X109.62 Y92.65
G1 F2100 X122.098 Y105.128 E75.82912
G0 F9000 X122.098 Y104.562
G1 F2100 X110.186 Y92.65 E76.38942
G0 F9000 X110.752 Y92.65
G1 F2100 X122.098 Y103.997 E76.92313
G0 F9000 X122.098 Y103.431
G1 F2100 X111.317 Y92.65 E77.43023
G0 F9000 X111.883 Y92.65
G1 F2100 X122.098 Y102.865 E77.91071
G0 F9000 X122.098 Y102.299
G1 F2100 X112.449 Y92.65 E78.36457
G0 F9000 X113.014 Y92.65
G1 F2100 X122.098 Y101.734 E78.79186
G0 F9000 X122.098 Y101.168
G1 F2100 X113.58 Y92.65 E79.19252
G0 F9000 X114.146 Y92.65
G1 F2100 X122.098 Y100.602 E79.56655
G0 F9000 X122.098 Y100.037
G1 F2100 X114.711 Y92.65 E79.91402
G0 F9000 X115.277 Y92.65
G1 F2100 X122.098 Y99.471 E80.23486
G0 F9000 X122.098 Y98.905
G1 F2100 X115.843 Y92.65 E80.52907
G0 F9000 X116.408 Y92.65
G1 F2100 X122.098 Y98.34 E80.79671
G0 F9000 X122.098 Y97.774
G1 F2100 X116.974 Y92.65 E81.03773
G0 F9000 X117.54 Y92.65
G1 F2100 X122.098 Y97.208 E81.25212
G0 F9000 X122.098 Y96.643
G1 F2100 X118.105 Y92.65 E81.43994
G0 F9000 X118.671 Y92.65
G1 F2100 X122.098 Y96.077 E81.60114
G0 F9000 X122.098 Y95.511
G1 F2100 X119.237 Y92.65 E81.73571
G0 F9000 X119.802 Y92.65
G1 F2100 X122.098 Y94.946 E81.84371
G0 F9000 X122.098 Y94.38
G1 F2100 X120.368 Y92.65 E81.92508
G0 F9000 X120.934 Y92.65
G1 F2100 X122.098 Y93.814 E81.97983
G0 F9000 X122.098 Y93.248
G1 F2100 X121.5 Y92.65 E82.00796
G0 F9000 X121.5 Y92.3
G1 F1500 E75.50796
;MESH:NONMESH
G0 F300 X121.5 Y92.3 Z0.4
G0 F9000 X121.5 Y92.21
G0 X122.467 Y92.282
G0 X122.65 Y127.9
;TIME_ELAPSED:87.020438
;LAYER:1
M106 S85
;TYPE:WALL-INNER
;MESH:Testholder.STL
G1 F1500 E82.00796
G1 F2100 X97.35 Y127.9 E82.84944
G1 X97.35 Y92.1 E84.04015
G1 X122.65 Y92.1 E84.88164
G1 X122.65 Y127.9 E86.07235
G0 F10500 X123.05 Y128.3
;TYPE:WALL-OUTER
G1 F2100 X96.95 Y128.3 E86.94044
G1 X96.95 Y91.7 E88.15776
G1 X123.05 Y91.7 E89.02585
G1 X123.05 Y128.3 E90.24317
G0 F10500 X122.78 Y128.03
G0 X122.54 Y127.51
G0 X122.26 Y127.51
;TYPE:SKIN
G1 F2100 X97.74 Y127.51 E91.05871
G1 X97.74 Y92.49 E92.22348
G1 X122.26 Y92.49 E93.03902
G1 X122.26 Y127.51 E94.20379
G0 F10500 X121.552 Y127.349
G1 F2100 X122.099 Y126.801 E94.22954
G0 F10500 X122.099 Y126.236
G1 F2100 X120.986 Y127.349 E94.28189
G0 F10500 X120.42 Y127.349
G1 F2100 X122.099 Y125.67 E94.36087
G0 F10500 X122.099 Y125.104
G1 F2100 X119.855 Y127.349 E94.46644
G0 F10500 X119.289 Y127.349
G1 F2100 X122.099 Y124.539 E94.59861
G0 F10500 X122.099 Y123.973
G1 F2100 X118.723 Y127.349 E94.75741
G0 F10500 X118.158 Y127.349
G1 F2100 X122.099 Y123.407 E94.94281
G0 F10500 X122.099 Y122.842
G1 F2100 X117.592 Y127.349 E95.1548
G0 F10500 X117.026 Y127.349
G1 F2100 X122.099 Y122.276 E95.39342
G0 F10500 X122.099 Y121.71
G1 F2100 X116.461 Y127.349 E95.65864
G0 F10500 X115.895 Y127.349
G1 F2100 X122.099 Y121.145 E95.95046
G0 F10500 X122.099 Y120.579
G1 F2100 X115.329 Y127.349 E96.2689
G0 F10500 X114.764 Y127.349
G1 F2100 X122.099 Y120.013 E96.61393
G0 F10500 X122.099 Y119.448
G1 F2100 X114.198 Y127.349 E96.98557
G0 F10500 X113.632 Y127.349
G1 F2100 X122.099 Y118.882 E97.38384
G0 F10500 X122.099 Y118.316
G1 F2100 X113.067 Y127.349 E97.8087
G0 F10500 X112.501 Y127.349
G1 F2100 X122.099 Y117.75 E98.26018
G0 F10500 X122.099 Y117.185
G1 F2100 X111.935 Y127.349 E98.73826
G0 F10500 X111.37 Y127.349
G1 F2100 X122.099 Y116.619 E99.24295
G0 F10500 X122.099 Y116.053
G1 F2100 X110.804 Y127.349 E99.77425
G0 F10500 X110.238 Y127.349
G1 F2100 X122.099 Y115.488 E100.33216
G0 F10500 X122.099 Y114.922
G1 F2100 X109.672 Y127.349 E100.91669
G0 F10500 X109.107 Y127.349
G1 F2100 X122.099 Y114.356 E101.52781
G0 F10500 X122.099 Y113.791
G1 F2100 X108.541 Y127.349 E102.16554
G0 F10500 X107.975 Y127.349
G1 F2100 X122.099 Y113.225 E102.82989
G0 F10500 X122.099 Y112.659
G1 F2100 X107.41 Y127.349 E103.52084
G0 F10500 X106.844 Y127.349
G1 F2100 X122.099 Y112.094 E104.23839
G0 F10500 X122.099 Y111.528
G1 F2100 X106.278 Y127.349 E104.98256
G0 F10500 X105.713 Y127.349
G1 F2100 X122.099 Y110.962 E105.75333
G0 F10500 X122.099 Y110.397
G1 F2100 X105.147 Y127.349 E106.5507
G0 F10500 X104.581 Y127.349
G1 F2100 X122.099 Y109.831 E107.37469
G0 F10500 X122.099 Y109.265
G1 F2100 X104.016 Y127.349 E108.22528
G0 F10500 X103.45 Y127.349
G1 F2100 X122.099 Y108.699 E109.1025
G0 F10500 X122.099 Y108.134
G1 F2100 X102.884 Y127.349 E110.00631
G0 F10500 X102.319 Y127.349
G1 F2100 X122.099 Y107.568 E110.93673
G0 F10500 X122.099 Y107.002
G1 F2100 X101.753 Y127.349 E111.89377
G0 F10500 X101.187 Y127.349
G1 F2100 X122.099 Y106.437 E112.8774
G0 F10500 X122.099 Y105.871
G1 F2100 X100.622 Y127.349 E113.88764
G0 F10500 X100.056 Y127.349
G1 F2100 X122.099 Y105.305 E114.9245
G0 F10500 X122.099 Y104.74
G1 F2100 X99.49 Y127.349 E115.98795
G0 F10500 X98.924 Y127.349
G1 F2100 X122.099 Y104.174 E117.07804
G0 F10500 X122.099 Y103.608
G1 F2100 X98.359 Y127.349 E118.19472
G0 F10500 X97.899 Y127.243
G1 F2100 X122.099 Y103.043 E119.33301
G0 F10500 X122.099 Y102.477
G1 F2100 X97.899 Y126.677 E120.4713
G0 F10500 X97.899 Y126.111
G1 F2100 X122.099 Y101.911 E121.6096
G0 F10500 X122.099 Y101.346
G1 F2100 X97.899 Y125.546 E122.74789
G0 F10500 X97.899 Y124.98
G1 F2100 X122.099 Y100.78 E123.88618
G0 F10500 X122.099 Y100.214
G1 F2100 X97.899 Y124.414 E125.02448
G0 F10500 X97.899 Y123.849
G1 F2100 X122.099 Y99.649 E126.16277
G0 F10500 X122.099 Y99.083
G1 F2100 X97.899 Y123.283 E127.30107
G0 F10500 X97.899 Y122.717
G1 F2100 X122.099 Y98.517 E128.43936
G0 F10500 X122.099 Y97.951
G1 F2100 X97.899 Y122.151 E129.57765
G0 F10500 X97.899 Y121.586
G1 F2100 X122.099 Y97.386 E130.71595
G0 F10500 X122.099 Y96.82
G1 F2100 X97.899 Y121.02 E131.85424
G0 F10500 X97.899 Y120.454
G1 F2100 X122.099 Y96.254 E132.99253
G0 F10500 X122.099 Y95.689
G1 F2100 X97.899 Y119.889 E134.13083
G0 F10500 X97.899 Y119.323
G1 F2100 X122.099 Y95.123 E135.26912
G0 F10500 X122.099 Y94.557
G1 F2100 X97.899 Y118.757 E136.40742
G0 F10500 X97.899 Y118.192
G1 F2100 X122.099 Y93.992 E137.54571
G0 F10500 X122.099 Y93.426
G1 F2100 X97.899 Y117.626 E138.684
G0 F10500 X97.899 Y117.06
G1 F2100 X122.099 Y92.86 E139.8223
G0 F10500 X121.744 Y92.65
G1 F2100 X97.899 Y116.495 E140.94389
G0 F10500 X97.899 Y115.929
G1 F2100 X121.179 Y92.65 E142.03889
G0 F10500 X120.613 Y92.65
G1 F2100 X97.899 Y115.363 E143.10726
G0 F10500 X97.899 Y114.798
G1 F2100 X120.047 Y92.65 E144.14904
G0 F10500 X119.481 Y92.65
G1 F2100 X97.899 Y114.232 E145.16419
G0 F10500 X97.899 Y113.666
G1 F2100 X118.916 Y92.65 E146.15274
G0 F10500 X118.35 Y92.65
G1 F2100 X97.899 Y113.101 E147.11469
G0 F10500 X97.899 Y112.535
G1 F2100 X117.784 Y92.65 E148.05002
G0 F10500 X117.219 Y92.65
G1 F2100 X97.899 Y111.969 E148.95875
G0 F10500 X97.899 Y111.403
G1 F2100 X116.653 Y92.65 E149.84086
G0 F10500 X116.087 Y92.65
G1 F2100 X97.899 Y110.838 E150.69637
G0 F10500 X97.899 Y110.272
G1 F2100 X115.522 Y92.65 E151.52527
G0 F10500 X114.956 Y92.65
G1 F2100 X97.899 Y109.706 E152.32756
G0 F10500 X97.899 Y109.141
G1 F2100 X114.39 Y92.65 E153.10325
G0 F10500 X113.825 Y92.65
G1 F2100 X97.899 Y108.575 E153.85233
G0 F10500 X97.899 Y108.009
G1 F2100 X113.259 Y92.65 E154.5748
G0 F10500 X112.693 Y92.65
G1 F2100 X97.899 Y107.444 E155.27066
G0 F10500 X97.899 Y106.878
G1 F2100 X112.128 Y92.65 E155.93993
G0 F10500 X111.562 Y92.65
G1 F2100 X97.899 Y106.312 E156.58257
G0 F10500 X97.899 Y105.747
G1 F2100 X110.996 Y92.65 E157.19861
G0 F10500 X110.43 Y92.65
G1 F2100 X97.899 Y105.181 E157.78803
G0 F10500 X97.899 Y104.615
G1 F2100 X109.865 Y92.65 E158.35085
G0 F10500 X109.299 Y92.65
G1 F2100 X97.899 Y104.05 E158.88707
G0 F10500 X97.899 Y103.484
G1 F2100 X108.733 Y92.65 E159.39667
G0 F10500 X108.168 Y92.65
G1 F2100 X97.899 Y102.918 E159.87967
G0 F10500 X97.899 Y102.352
G1 F2100 X107.602 Y92.65 E160.33605
G0 F10500 X107.036 Y92.65
G1 F2100 X97.899 Y101.787 E160.76582
G0 F10500 X97.899 Y101.221
G1 F2100 X106.471 Y92.65 E161.169
G0 F10500 X105.905 Y92.65
G1 F2100 X97.899 Y100.655 E161.54555
G0 F10500 X97.899 Y100.09
G1 F2100 X105.339 Y92.65 E161.89551
G0 F10500 X104.774 Y92.65
G1 F2100 X97.899 Y99.524 E162.21886
G0 F10500 X97.899 Y98.958
G1 F2100 X104.208 Y92.65 E162.5156
G0 F10500 X103.642 Y92.65
G1 F2100 X97.899 Y98.393 E162.78573
G0 F10500 X97.899 Y97.827
G1 F2100 X103.077 Y92.65 E163.02926
G0 F10500 X102.511 Y92.65
G1 F2100 X97.899 Y97.261 E163.24617
G0 F10500 X97.899 Y96.696
G1 F2100 X101.945 Y92.65 E163.43648
G0 F10500 X101.38 Y92.65
G1 F2100 X97.899 Y96.13 E163.6002
G0 F10500 X97.899 Y95.564
G1 F2100 X100.814 Y92.65 E163.73729
G0 F10500 X100.248 Y92.65
G1 F2100 X97.899 Y94.999 E163.84778
G0 F10500 X97.899 Y94.433
G1 F2100 X99.682 Y92.65 E163.93164
G0 F10500 X99.117 Y92.65
G1 F2100 X97.899 Y93.867 E163.98891
G0 F10500 X97.899 Y93.302
G1 F2100 X98.551 Y92.65 E164.01958
G0 F10500 X97.985 Y92.65
G1 F2100 X97.899 Y92.736 E164.02362
G0 F10500 X97.55 Y92.736
G1 F1500 E157.52362
;MESH:NONMESH
G0 F300 X97.55 Y92.736 Z0.6
G0 F10500 X97.46 Y92.736
G0 X97.532 Y127.718
G0 X122.65 Y127.9
;TIME_ELAPSED:169.932647
;LAYER:2
M106 S170
;TYPE:WALL-INNER
;MESH:Testholder.STL
G1 F1500 E164.02362
G1 F2100 X97.35 Y127.9 E164.8651
G1 X97.35 Y92.1 E166.05582
G1 X122.65 Y92.1 E166.8973
G1 X122.65 Y127.9 E168.08801
G0 F10500 X123.05 Y128.3
;TYPE:WALL-OUTER
G1 F2100 X96.95 Y128.3 E168.9561
G1 X96.95 Y91.7 E170.17342
G1 X123.05 Y91.7 E171.04151
G1 X123.05 Y128.3 E172.25883
G0 F10500 X122.78 Y128.03
G0 X122.54 Y127.51
G0 X122.26 Y127.51
;TYPE:SKIN
G1 F2100 X97.74 Y127.51 E173.07437
G1 X97.74 Y92.49 E174.23914
G1 X122.26 Y92.49 E175.05468
G1 X122.26 Y127.51 E176.21945
G0 F10500 X122.54 Y127.51
G0 X98.499 Y127.79
G0 X98.499 Y127.349
G1 F2100 X97.899 Y126.749 E176.24767
