;FLAVOR:Marlin
;TIME:2084
;Filament used: 1.28447m
;Layer height: 0.2
;MINX:130.57
;MINY:139.835
;MINZ:0.2
;MAXX:169.434
;MAXY:159.279
;MAXZ:9.4
;Generated with Cura_SteamEngine 4.13.1
M140 S60
M105
M190 S60
M104 S200
M105
M109 S200
M82 ;absolute extrusion mode

; Script based on an original created by tjjfvi (https://github.com/tjjfvi)
; An up-to-date version of the tjjfvi's original script can be found
; here:  https://csi.t6.fyi/
; Note - This script will not work in Cura V4.2 and above!
; max_feedrate_z_override = {max_feedrate_z_override}
; retraction_amount = 6.5
; retraction_hop = 0.2
; retraction_hop_enabled = False
; retraction_prime_speed = 25
; retraction_retract_speed = 25
; retraction_speed = 25
; speed_travel = 225.0
; retraction_enable = True
; layer_height = 0.2
; smooth_spiralized_contours = True


; Ender 3 Custom Start G-code
G92 E0 ; Reset Extruder
G28 ; Home all axes
G1 Z2.0 F3000 ; Move Z Axis up little to prevent scratching of Heat Bed
G1 X0.1 Y20 Z0.3 F5000.0 ; Move to start position
G1 X0.1 Y200.0 Z0.3 F1500.0 E15 ; Draw the first line
G1 X0.4 Y200.0 Z0.3 F5000.0 ; Move to side a little
G1 X0.4 Y20 Z0.3 F1500.0 E30 ; Draw the second line
G92 E0 ; Reset Extruder
G1 Z2.0 F3000 ; Move Z Axis up little to prevent scratching of Heat Bed
G1 X5 Y20 Z0.3 F5000.0 ; Move over to prevent blob squish
G92 E0
G92 E0
G1 F1500 E-6.5
;LAYER_COUNT:47
;LAYER:0
M107
;MESH:screws.STL(1)
G0 F6000 X168.169 Y147.9 Z0.2
;TYPE:WALL-INNER
G1 F1500 E0
G1 F1200 X131.831 Y147.9 E1.20861
G1 X131.831 Y141.1 E1.43478
G1 X168.169 Y141.1 E2.64338
G1 X168.169 Y147.9 E2.86955
G0 F6000 X168.569 Y148.3
;TYPE:WALL-OUTER
G1 F1200 X131.431 Y148.3 E4.10477
G1 X131.431 Y140.7 E4.35754
G1 X168.569 Y140.7 E5.59276
G1 X168.569 Y148.3 E5.84554
G0 F6000 X168.299 Y148.03
G0 X168.059 Y147.51
G0 X167.779 Y147.51
;TYPE:SKIN
G1 F1200 X132.221 Y147.51 E7.0282
G1 X132.221 Y141.49 E7.22843
G1 X167.779 Y141.49 E8.41109
G1 X167.779 Y147.51 E8.61132
G0 F6000 X168.059 Y147.51
G0 X168.059 Y142.162
G0 X167.618 Y142.162
G1 F1200 X167.106 Y141.65 E8.6354
G0 F6000 X166.54 Y141.65
G1 F1200 X167.618 Y142.728 E8.6861
G0 F6000 X167.618 Y143.293
G1 F1200 X165.974 Y141.65 E8.76341
G0 F6000 X165.409 Y141.65
G1 F1200 X167.618 Y143.859 E8.86731
G0 F6000 X167.618 Y144.425
G1 F1200 X164.843 Y141.65 E8.99784
G0 F6000 X164.277 Y141.65
G1 F1200 X167.618 Y144.99 E9.15497
G0 F6000 X167.618 Y145.556
G1 F1200 X163.712 Y141.65 E9.33869
G0 F6000 X163.146 Y141.65
G1 F1200 X167.618 Y146.122 E9.54904
G0 F6000 X167.618 Y146.687
G1 F1200 X162.58 Y141.65 E9.78599
G0 F6000 X162.015 Y141.65
G1 F1200 X167.618 Y147.253 E10.04954
G0 F6000 X167.148 Y147.349
G1 F1200 X161.449 Y141.65 E10.3176
G0 F6000 X160.883 Y141.65
G1 F1200 X166.582 Y147.349 E10.58567
G0 F6000 X166.016 Y147.349
G1 F1200 X160.318 Y141.65 E10.85371
G0 F6000 X159.752 Y141.65
G1 F1200 X165.45 Y147.349 E11.12175
G0 F6000 X164.885 Y147.349
G1 F1200 X159.186 Y141.65 E11.38981
G0 F6000 X158.621 Y141.65
G1 F1200 X164.319 Y147.349 E11.65785
G0 F6000 X163.753 Y147.349
G1 F1200 X158.055 Y141.65 E11.92589
G0 F6000 X157.489 Y141.65
G1 F1200 X163.188 Y147.349 E12.19395
G0 F6000 X162.622 Y147.349
G1 F1200 X156.923 Y141.65 E12.46202
G0 F6000 X156.358 Y141.65
G1 F1200 X162.056 Y147.349 E12.73006
G0 F6000 X161.491 Y147.349
G1 F1200 X155.792 Y141.65 E12.99812
G0 F6000 X155.226 Y141.65
G1 F1200 X160.925 Y147.349 E13.26618
G0 F6000 X160.359 Y147.349
G1 F1200 X154.661 Y141.65 E13.53422
G0 F6000 X154.095 Y141.65
G1 F1200 X159.794 Y147.349 E13.80229
G0 F6000 X159.228 Y147.349
G1 F1200 X153.529 Y141.65 E14.07035
G0 F6000 X152.964 Y141.65
G1 F1200 X158.662 Y147.349 E14.33839
G0 F6000 X158.097 Y147.349
G1 F1200 X152.398 Y141.65 E14.60645
G0 F6000 X151.832 Y141.65
G1 F1200 X157.531 Y147.349 E14.87452
G0 F6000 X156.965 Y147.349
G1 F1200 X151.267 Y141.65 E15.14256
G0 F6000 X150.701 Y141.65
G1 F1200 X156.399 Y147.349 E15.4106
G0 F6000 X155.834 Y147.349
G1 F1200 X150.135 Y141.65 E15.67866
G0 F6000 X149.57 Y141.65
G1 F1200 X155.268 Y147.349 E15.9467
G0 F6000 X154.702 Y147.349
G1 F1200 X149.004 Y141.65 E16.21474
G0 F6000 X148.438 Y141.65
G1 F1200 X154.137 Y147.349 E16.4828
G0 F6000 X153.571 Y147.349
G1 F1200 X147.872 Y141.65 E16.75087
G0 F6000 X147.307 Y141.65
G1 F1200 X153.005 Y147.349 E17.01891
G0 F6000 X152.44 Y147.349
G1 F1200 X146.741 Y141.65 E17.28697
G0 F6000 X146.175 Y141.65
G1 F1200 X151.874 Y147.349 E17.55504
G0 F6000 X151.308 Y147.349
G1 F1200 X145.61 Y141.65 E17.82308
G0 F6000 X145.044 Y141.65
G1 F1200 X150.743 Y147.349 E18.09114
G0 F6000 X150.177 Y147.349
G1 F1200 X144.478 Y141.65 E18.3592
G0 F6000 X143.913 Y141.65
G1 F1200 X149.611 Y147.349 E18.62724
G0 F6000 X149.046 Y147.349
G1 F1200 X143.347 Y141.65 E18.89531
G0 F6000 X142.781 Y141.65
G1 F1200 X148.48 Y147.349 E19.16337
G0 F6000 X147.914 Y147.349
G1 F1200 X142.216 Y141.65 E19.43141
G0 F6000 X141.65 Y141.65
G1 F1200 X147.349 Y147.349 E19.69947
G0 F6000 X146.783 Y147.349
G1 F1200 X141.084 Y141.65 E19.96754
G0 F6000 X140.519 Y141.65
G1 F1200 X146.217 Y147.349 E20.23558
G0 F6000 X145.651 Y147.349
G1 F1200 X139.953 Y141.65 E20.50362
G0 F6000 X139.387 Y141.65
G1 F1200 X145.086 Y147.349 E20.77168
G0 F6000 X144.52 Y147.349
G1 F1200 X138.822 Y141.65 E21.03972
G0 F6000 X138.256 Y141.65
G1 F1200 X143.954 Y147.349 E21.30776
G0 F6000 X143.389 Y147.349
G1 F1200 X137.69 Y141.65 E21.57582
G0 F6000 X137.124 Y141.65
G1 F1200 X142.823 Y147.349 E21.84389
G0 F6000 X142.257 Y147.349
G1 F1200 X136.559 Y141.65 E22.11193
G0 F6000 X135.993 Y141.65
G1 F1200 X141.692 Y147.349 E22.37999
G0 F6000 X141.126 Y147.349
G1 F1200 X135.427 Y141.65 E22.64805
G0 F6000 X134.862 Y141.65
G1 F1200 X140.56 Y147.349 E22.91609
G0 F6000 X139.995 Y147.349
G1 F1200 X134.296 Y141.65 E23.18416
G0 F6000 X133.73 Y141.65
G1 F1200 X139.429 Y147.349 E23.45222
G0 F6000 X138.863 Y147.349
G1 F1200 X133.165 Y141.65 E23.72026
G0 F6000 X132.599 Y141.65
G1 F1200 X138.298 Y147.349 E23.98832
G0 F6000 X137.732 Y147.349
G1 F1200 X132.38 Y141.997 E24.24007
G0 F6000 X132.38 Y142.563
G1 F1200 X137.166 Y147.349 E24.46518
G0 F6000 X136.601 Y147.349
G1 F1200 X132.38 Y143.129 E24.6637
G0 F6000 X132.38 Y143.694
G1 F1200 X136.035 Y147.349 E24.83562
G0 F6000 X135.469 Y147.349
G1 F1200 X132.38 Y144.26 E24.98092
G0 F6000 X132.38 Y144.826
G1 F1200 X134.903 Y147.349 E25.09959
G0 F6000 X134.338 Y147.349
G1 F1200 X132.38 Y145.391 E25.19169
G0 F6000 X132.38 Y145.957
G1 F1200 X133.772 Y147.349 E25.25717
G0 F6000 X133.206 Y147.349
G1 F1200 X132.38 Y146.523 E25.29602
G0 F6000 X132.38 Y147.088
G1 F1200 X132.641 Y147.349 E25.3083
G0 F6000 X132.641 Y147.7
G1 F1500 E18.8083
;MESH:screws.STL
G0 F6000 X132.641 Y147.79
G0 X163.742 Y148.08
G0 X163.742 Y149.165
G0 X164.1 Y154.376
G0 X164.099 Y152.914
G0 X162.917 Y153.8
G0 X162.508 Y154.292
G0 X162.289 Y154.894
G0 X162.29 Y155.532
G0 X162.511 Y156.131
G0 X162.843 Y156.527
G0 X163.742 Y157.28
;TYPE:WALL-INNER
G1 F1500 E25.3083
G1 F1200 X164.107 Y157.31 E25.32048
G1 X164.472 Y157.278 E25.33267
G1 X164.827 Y157.182 E25.3449
G1 X165.158 Y157.025 E25.35708
G1 X165.456 Y156.817 E25.36917
G1 X165.716 Y156.557 E25.3814
G1 X165.925 Y156.254 E25.39364
G1 X166.079 Y155.923 E25.40578
G1 X166.173 Y155.571 E25.4179
G1 X166.206 Y155.204 E25.43016
G1 X166.172 Y154.839 E25.44235
G1 X166.077 Y154.485 E25.45454
G1 X165.921 Y154.153 E25.46674
G1 X165.711 Y153.855 E25.47887
G1 X165.451 Y153.595 E25.4911
G1 X165.15 Y153.386 E25.50328
G1 X164.818 Y153.231 E25.51547
G1 X164.464 Y153.138 E25.52764
G1 X164.099 Y153.105 E25.53983
G1 X163.733 Y153.139 E25.55206
G1 X163.38 Y153.235 E25.56423
G1 X163.05 Y153.389 E25.57634
G1 X162.748 Y153.6 E25.58859
G1 X162.489 Y153.861 E25.60082
G1 X162.281 Y154.16 E25.61294
G1 X162.126 Y154.492 E25.62512
G1 X162.031 Y154.849 E25.63741
G1 X162.001 Y155.212 E25.64952
G1 X162.033 Y155.578 E25.66174
G1 X162.129 Y155.932 E25.67394
G1 X162.285 Y156.262 E25.68608
G1 X162.494 Y156.562 E25.69824
G1 X162.754 Y156.822 E25.71047
G1 X163.056 Y157.03 E25.72267
G1 X163.387 Y157.185 E25.73483
G1 X163.742 Y157.28 E25.74705
G0 F6000 X163.811 Y156.884
;TYPE:WALL-OUTER
G1 F1200 X164.106 Y156.909 E25.7569
G1 X164.401 Y156.883 E25.76675
G1 X164.688 Y156.805 E25.77664
G1 X164.956 Y156.678 E25.7865
G1 X165.198 Y156.509 E25.79632
G1 X165.408 Y156.3 E25.80617
G1 X165.577 Y156.055 E25.81607
G1 X165.702 Y155.786 E25.82594
G1 X165.778 Y155.501 E25.83575
G1 X165.804 Y155.205 E25.84563
G1 X165.777 Y154.91 E25.85548
G1 X165.7 Y154.623 E25.86537
G1 X165.574 Y154.355 E25.87522
G1 X165.404 Y154.113 E25.88505
G1 X165.194 Y153.903 E25.89493
G1 X164.95 Y153.734 E25.9048
G1 X164.681 Y153.609 E25.91467
G1 X164.395 Y153.533 E25.92451
G1 X164.1 Y153.507 E25.93436
G1 X163.804 Y153.534 E25.94425
G1 X163.518 Y153.612 E25.95411
G1 X163.251 Y153.737 E25.96391
G1 X163.007 Y153.907 E25.9738
G1 X162.798 Y154.118 E25.98368
G1 X162.629 Y154.361 E25.99353
G1 X162.503 Y154.629 E26.00338
G1 X162.427 Y154.917 E26.01328
G1 X162.402 Y155.211 E26.0231
G1 X162.428 Y155.507 E26.03298
G1 X162.506 Y155.793 E26.04284
G1 X162.632 Y156.061 E26.05269
G1 X162.802 Y156.304 E26.06255
G1 X163.011 Y156.513 E26.07238
G1 X163.256 Y156.682 E26.08228
G1 X163.524 Y156.808 E26.09213
G1 X163.811 Y156.884 E26.10201
G0 F6000 X163.736 Y157.317
G1 F1500 E19.60201
G0 F6000 X162.347 Y156.685
G0 X160.706 Y156.711
G0 X158.912 Y157.361
;TYPE:WALL-INNER
G1 F1500 E26.10201
G1 F1200 X159.285 Y157.327 E26.11446
G1 X159.648 Y157.23 E26.12696
G1 X159.989 Y157.07 E26.13949
G1 X160.294 Y156.854 E26.15192
G1 X160.559 Y156.588 E26.16441
G1 X160.773 Y156.281 E26.17686
G1 X160.932 Y155.941 E26.18934
G1 X161.029 Y155.577 E26.20187
G1 X161.061 Y155.204 E26.21432
G1 X161.027 Y154.83 E26.22681
G1 X160.929 Y154.467 E26.23932
G1 X160.768 Y154.127 E26.25183
G1 X160.553 Y153.822 E26.26424
G1 X160.288 Y153.557 E26.27671
G1 X159.98 Y153.343 E26.28918
G1 X159.64 Y153.184 E26.30166
G1 X159.278 Y153.089 E26.31411
G1 X158.904 Y153.055 E26.3266
G1 X158.53 Y153.09 E26.3391
G1 X158.168 Y153.187 E26.35156
G1 X157.827 Y153.347 E26.36409
G1 X157.522 Y153.563 E26.37652
G1 X157.257 Y153.828 E26.38898
G1 X157.043 Y154.136 E26.40146
G1 X156.884 Y154.476 E26.41394
G1 X156.789 Y154.838 E26.42639
G1 X156.755 Y155.212 E26.43888
G1 X156.79 Y155.586 E26.45137
G1 X156.887 Y155.948 E26.46384
G1 X157.047 Y156.288 E26.47634
G1 X157.262 Y156.595 E26.4888
G1 X157.529 Y156.86 E26.50131
G1 X157.836 Y157.074 E26.51376
G1 X158.176 Y157.233 E26.52625
G1 X158.539 Y157.329 E26.53873
G1 X158.912 Y157.361 E26.55119
G0 F6000 X158.911 Y156.959
;TYPE:WALL-OUTER
G1 F1200 X159.215 Y156.932 E26.56134
G1 X159.51 Y156.853 E26.57149
G1 X159.787 Y156.723 E26.58167
G1 X160.035 Y156.547 E26.59179
G1 X160.251 Y156.331 E26.60195
G1 X160.425 Y156.08 E26.6121
G1 X160.555 Y155.804 E26.62225
G1 X160.633 Y155.508 E26.63243
G1 X160.659 Y155.205 E26.64255
G1 X160.632 Y154.901 E26.6527
G1 X160.552 Y154.606 E26.66286
G1 X160.421 Y154.329 E26.67305
G1 X160.246 Y154.081 E26.68315
G1 X160.03 Y153.865 E26.69331
G1 X159.78 Y153.691 E26.70344
G1 X159.503 Y153.562 E26.7136
G1 X159.209 Y153.484 E26.72372
G1 X158.905 Y153.457 E26.73387
G1 X158.601 Y153.485 E26.74403
G1 X158.306 Y153.564 E26.75418
G1 X158.029 Y153.694 E26.76436
G1 X157.781 Y153.87 E26.77447
G1 X157.565 Y154.086 E26.78463
G1 X157.391 Y154.336 E26.79477
G1 X157.262 Y154.613 E26.80493
G1 X157.184 Y154.907 E26.81505
G1 X157.157 Y155.211 E26.8252
G1 X157.185 Y155.515 E26.83535
G1 X157.264 Y155.81 E26.84551
G1 X157.394 Y156.087 E26.85568
G1 X157.569 Y156.336 E26.86581
G1 X157.786 Y156.552 E26.87599
G1 X158.036 Y156.726 E26.88612
G1 X158.313 Y156.855 E26.89628
G1 X158.608 Y156.933 E26.90643
G1 X158.911 Y156.959 E26.91655
G0 F6000 X158.911 Y157.399
G1 F1500 E20.41655
G0 F6000 X157.116 Y156.719
G0 X155.945 Y156.169
G0 X153.767 Y157.411
;TYPE:WALL-INNER
G1 F1500 E26.91655
G1 F1200 X154.148 Y157.376 E26.92927
G1 X154.52 Y157.277 E26.94208
G1 X154.869 Y157.113 E26.9549
G1 X155.181 Y156.892 E26.96762
G1 X155.452 Y156.62 E26.98039
G1 X155.671 Y156.305 E26.99315
G1 X155.834 Y155.958 E27.0059
G1 X155.931 Y155.587 E27.01866
G1 X155.966 Y155.204 E27.03145
G1 X155.93 Y154.821 E27.04424
G1 X155.831 Y154.451 E27.05698
G1 X155.667 Y154.102 E27.06981
G1 X155.446 Y153.79 E27.08252
G1 X155.175 Y153.519 E27.09527
G1 X154.86 Y153.3 E27.10803
G1 X154.512 Y153.137 E27.12081
G1 X154.141 Y153.04 E27.13357
G1 X153.759 Y153.005 E27.14633
G1 X153.377 Y153.041 E27.15909
G1 X153.005 Y153.14 E27.17189
G1 X152.657 Y153.304 E27.18469
G1 X152.344 Y153.524 E27.19741
G1 X152.073 Y153.797 E27.2102
G1 X151.854 Y154.111 E27.22294
G1 X151.691 Y154.459 E27.23572
G1 X151.593 Y154.83 E27.24848
G1 X151.56 Y155.212 E27.26123
G1 X151.595 Y155.594 E27.27399
G1 X151.694 Y155.966 E27.2868
G1 X151.858 Y156.314 E27.29959
G1 X152.078 Y156.627 E27.31232
G1 X152.351 Y156.898 E27.32511
G1 X152.666 Y157.117 E27.33787
G1 X153.013 Y157.28 E27.35062
G1 X153.385 Y157.378 E27.36342
G1 X153.767 Y157.411 E27.37617
G0 F6000 X153.766 Y157.009
;TYPE:WALL-OUTER
G1 F1200 X154.078 Y156.981 E27.38659
G1 X154.382 Y156.9 E27.39705
G1 X154.667 Y156.766 E27.40753
G1 X154.922 Y156.585 E27.41793
G1 X155.144 Y156.363 E27.42837
G1 X155.323 Y156.105 E27.43881
G1 X155.456 Y155.821 E27.44924
G1 X155.536 Y155.518 E27.45967
G1 X155.564 Y155.205 E27.47012
G1 X155.535 Y154.892 E27.48057
G1 X155.454 Y154.589 E27.49101
G1 X155.32 Y154.304 E27.50148
G1 X155.139 Y154.049 E27.51188
G1 X154.917 Y153.827 E27.52232
G1 X154.66 Y153.648 E27.53274
G1 X154.375 Y153.515 E27.5432
G1 X154.072 Y153.435 E27.55362
G1 X153.76 Y153.407 E27.56404
G1 X153.447 Y153.436 E27.5745
G1 X153.143 Y153.517 E27.58496
G1 X152.859 Y153.651 E27.59541
G1 X152.603 Y153.831 E27.60582
G1 X152.381 Y154.054 E27.61628
G1 X152.202 Y154.311 E27.6267
G1 X152.069 Y154.596 E27.63716
G1 X151.989 Y154.899 E27.64758
G1 X151.962 Y155.211 E27.658
G1 X151.99 Y155.524 E27.66845
G1 X152.071 Y155.828 E27.67891
G1 X152.205 Y156.112 E27.68936
G1 X152.385 Y156.368 E27.69977
G1 X152.608 Y156.59 E27.71023
G1 X152.866 Y156.769 E27.72068
G1 X153.15 Y156.902 E27.73111
G1 X153.454 Y156.982 E27.74156
G1 X153.766 Y157.009 E27.75198
G0 F6000 X153.766 Y157.449
G1 F1500 E21.25198
G0 F6000 X151.932 Y156.751
G0 X153.048 Y155.809
G0 X148.69 Y155.843
G0 X146.289 Y155.879
G0 X142.716 Y155.892
G0 X143.978 Y156.625
G0 X142.334 Y157.453
G0 X141.517 Y157.599
G0 X139.683 Y157.364
G0 X139.036 Y156.613
G0 X136.517 Y157.911
;TYPE:WALL-INNER
G1 F1500 E27.75198
G1 F1200 X136.986 Y157.868 E27.76764
G1 X137.441 Y157.746 E27.78331
G1 X137.87 Y157.546 E27.79905
G1 X138.256 Y157.273 E27.81478
G1 X138.585 Y156.94 E27.83035
G1 X138.855 Y156.555 E27.84599
G1 X139.039 Y156.157 E27.86057
G1 X139.218 Y156.538 E27.86749
G1 X139.484 Y156.917 E27.8829
G1 X139.812 Y157.243 E27.89828
G1 X140.192 Y157.508 E27.91369
G1 X140.612 Y157.703 E27.92909
G1 X141.058 Y157.821 E27.94443
G1 X141.517 Y157.861 E27.95976
G1 X141.978 Y157.819 E27.97515
G1 X142.425 Y157.699 E27.99055
G1 X142.844 Y157.503 E28.00593
G1 X143.221 Y157.236 E28.0213
G1 X143.547 Y156.91 E28.03663
G1 X143.812 Y156.529 E28.05207
G1 X144.006 Y156.11 E28.06742
G1 X144.125 Y155.664 E28.08278
G1 X144.166 Y155.204 E28.09814
G1 X144.124 Y154.741 E28.1136
G1 X144.002 Y154.296 E28.12895
G1 X143.807 Y153.877 E28.14432
G1 X143.54 Y153.5 E28.15968
G1 X143.214 Y153.174 E28.17502
G1 X142.834 Y152.909 E28.19043
G1 X142.415 Y152.715 E28.20578
G1 X141.969 Y152.596 E28.22114
G1 X141.509 Y152.555 E28.2365
G1 X141.046 Y152.597 E28.25196
G1 X140.601 Y152.719 E28.26731
G1 X140.183 Y152.913 E28.28263
G1 X139.804 Y153.18 E28.29805
G1 X139.478 Y153.507 E28.31341
G1 X139.213 Y153.887 E28.32882
G1 X139.04 Y154.259 E28.34246
G1 X138.85 Y153.851 E28.35038
G1 X138.577 Y153.466 E28.36608
G1 X138.245 Y153.136 E28.38164
G1 X137.859 Y152.866 E28.39731
G1 X137.432 Y152.667 E28.41298
G1 X136.977 Y152.547 E28.42863
G1 X136.509 Y152.505 E28.44426
G1 X136.037 Y152.548 E28.46002
G1 X135.584 Y152.672 E28.47564
G1 X135.156 Y152.871 E28.49134
G1 X134.772 Y153.143 E28.50699
G1 X134.44 Y153.475 E28.52261
G1 X134.17 Y153.862 E28.53831
G1 X133.971 Y154.29 E28.554
G1 X133.852 Y154.745 E28.56965
G1 X133.81 Y155.212 E28.58524
G1 X133.853 Y155.682 E28.60094
G1 X133.975 Y156.138 E28.61664
