;FLAVOR:Marlin
;TIME:459
;Filament used: 0.268234m
;Layer height: 0.2
;MINX:139.2
;MINY:144.7
;MINZ:0.2
;MAXX:160.8
;MAXY:155.3
;MAXZ:5
;Generated with Cura_SteamEngine 4.13.1
M140 S60
M105
M190 S60
M104 S200
M105
M109 S200
M82 ;absolute extrusion mode

; Script based on an original created by tjjfvi (https://github.com/tjjfvi)
; An up-to-date version of the tjjfvi's original script can be found
; here:  https://csi.t6.fyi/
; Note - This script will not work in Cura V4.2 and above!
; max_feedrate_z_override = {max_feedrate_z_override}
; retraction_amount = 6.5
; retraction_hop = 0.2
; retraction_hop_enabled = False
; retraction_prime_speed = 25
; retraction_retract_speed = 25
; retraction_speed = 25
; speed_travel = 225.0
; retraction_enable = True
; layer_height = 0.2
; smooth_spiralized_contours = True


; Ender 3 Custom Start G-code
G92 E0 ; Reset Extruder
G28 ; Home all axes
G1 Z2.0 F3000 ; Move Z Axis up little to prevent scratching of Heat Bed
G1 X0.1 Y20 Z0.3 F5000.0 ; Move to start position
G1 X0.1 Y200.0 Z0.3 F1500.0 E15 ; Draw the first line
G1 X0.4 Y200.0 Z0.3 F5000.0 ; Move to side a little
G1 X0.4 Y20 Z0.3 F1500.0 E30 ; Draw the second line
G92 E0 ; Reset Extruder
G1 Z2.0 F3000 ; Move Z Axis up little to prevent scratching of Heat Bed
G1 X5 Y20 Z0.3 F5000.0 ; Move over to prevent blob squish
G92 E0
G92 E0
G1 F1500 E-6.5
;LAYER_COUNT:25
;LAYER:0
M107
;MESH:testWiresCapper.STL
G0 F6000 X145.4 Y153.9 Z0.2
;TYPE:WALL-INNER
G1 F1500 E0
G1 F1200 X145.4 Y154.9 E0.03326
G1 X139.6 Y154.9 E0.22617
G1 X139.6 Y145.1 E0.55212
G1 X145.4 Y145.1 E0.74503
G1 X145.4 Y146.1 E0.77829
G1 X160.4 Y146.1 E1.27719
G1 X160.4 Y153.9 E1.53662
G1 X145.4 Y153.9 E2.03552
G0 F6000 X145.8 Y154.3
;TYPE:WALL-OUTER
G1 F1200 X145.8 Y155.3 E2.06878
G1 X139.2 Y155.3 E2.2883
G1 X139.2 Y144.7 E2.64085
G1 X145.8 Y144.7 E2.86037
G1 X145.8 Y145.7 E2.89363
G1 X160.8 Y145.7 E3.39253
G1 X160.8 Y154.3 E3.67857
G1 X145.8 Y154.3 E4.17747
G0 F6000 X145.01 Y154.51
;TYPE:SKIN
G1 F1200 X139.99 Y154.51 E4.34444
G1 X139.99 Y145.49 E4.64445
G1 X145.01 Y145.49 E4.81141
G1 X145.01 Y146.49 E4.84467
G1 X160.01 Y146.49 E5.34357
G1 X160.01 Y153.51 E5.57706
G1 X145.01 Y153.51 E6.07596
G1 X145.01 Y154.51 E6.10922
G0 F6000 X145.29 Y154.51
G0 X140.206 Y154.79
G0 X140.206 Y154.348
G1 F1200 X140.149 Y154.292 E6.11188
G0 F6000 X140.149 Y153.726
G1 F1200 X140.772 Y154.348 E6.14116
G0 F6000 X141.337 Y154.348
G1 F1200 X140.149 Y153.16 E6.19704
G0 F6000 X140.149 Y152.595
G1 F1200 X141.903 Y154.348 E6.27952
G0 F6000 X142.469 Y154.348
G1 F1200 X140.149 Y152.029 E6.38862
G0 F6000 X140.149 Y151.463
G1 F1200 X143.034 Y154.348 E6.52432
G0 F6000 X143.6 Y154.348
G1 F1200 X140.149 Y150.898 E6.68662
G0 F6000 X140.149 Y150.332
G1 F1200 X144.166 Y154.348 E6.87555
G0 F6000 X144.732 Y154.348
G1 F1200 X140.149 Y149.766 E7.09109
G0 F6000 X140.149 Y149.2
G1 F1200 X144.85 Y153.901 E7.31221
G0 F6000 X144.864 Y153.349
G1 F1200 X140.149 Y148.635 E7.53397
G0 F6000 X140.149 Y148.069
G1 F1200 X145.429 Y153.349 E7.78233
G0 F6000 X145.995 Y153.349
G1 F1200 X140.149 Y147.503 E8.0573
G0 F6000 X140.149 Y146.938
G1 F1200 X146.561 Y153.349 E8.35888
G0 F6000 X147.127 Y153.349
G1 F1200 X140.149 Y146.372 E8.68708
G0 F6000 X140.149 Y145.806
G1 F1200 X147.692 Y153.349 E9.04188
G0 F6000 X148.258 Y153.349
G1 F1200 X140.558 Y145.649 E9.40406
G0 F6000 X141.124 Y145.649
G1 F1200 X148.824 Y153.349 E9.76625
G0 F6000 X149.389 Y153.349
G1 F1200 X141.69 Y145.649 E10.12841
G0 F6000 X142.255 Y145.649
G1 F1200 X149.955 Y153.349 E10.49059
G0 F6000 X150.521 Y153.349
G1 F1200 X142.821 Y145.649 E10.85278
G0 F6000 X143.387 Y145.649
G1 F1200 X151.086 Y153.349 E11.21494
G0 F6000 X151.652 Y153.349
G1 F1200 X144.952 Y146.649 E11.53009
G1 X144.85 Y146.547
G1 X143.952 Y145.649 E11.57233
G0 F6000 X144.518 Y145.649
G1 F1200 X144.85 Y145.981 E11.58794
G0 F6000 X145.518 Y146.649
G1 F1200 X152.218 Y153.349 E11.90309
G0 F6000 X152.783 Y153.349
G1 F1200 X146.084 Y146.649 E12.21821
G0 F6000 X146.649 Y146.649
G1 F1200 X153.349 Y153.349 E12.53336
G0 F6000 X153.915 Y153.349
G1 F1200 X147.215 Y146.649 E12.84851
G0 F6000 X147.781 Y146.649
G1 F1200 X154.48 Y153.349 E13.16363
G0 F6000 X155.046 Y153.349
G1 F1200 X148.346 Y146.649 E13.47878
G0 F6000 X148.912 Y146.649
G1 F1200 X155.612 Y153.349 E13.79393
G0 F6000 X156.177 Y153.349
G1 F1200 X149.478 Y146.649 E14.10905
G0 F6000 X150.043 Y146.649
G1 F1200 X156.743 Y153.349 E14.4242
G0 F6000 X157.309 Y153.349
G1 F1200 X150.609 Y146.649 E14.73935
G0 F6000 X151.175 Y146.649
G1 F1200 X157.875 Y153.349 E15.05449
G0 F6000 X158.44 Y153.349
G1 F1200 X151.74 Y146.649 E15.36964
G0 F6000 X152.306 Y146.649
G1 F1200 X159.006 Y153.349 E15.68479
G0 F6000 X159.572 Y153.349
G1 F1200 X152.872 Y146.65 E15.99991
G0 F6000 X153.438 Y146.65
G1 F1200 X159.849 Y153.061 E16.30147
G0 F6000 X159.849 Y152.495
G1 F1200 X154.004 Y146.65 E16.5764
G0 F6000 X154.57 Y146.65
G1 F1200 X159.849 Y151.929 E16.82471
G0 F6000 X159.849 Y151.363
G1 F1200 X155.135 Y146.65 E17.04641
G0 F6000 X155.701 Y146.65
G1 F1200 X159.849 Y150.798 E17.24152
G0 F6000 X159.849 Y150.232
G1 F1200 X156.267 Y146.65 E17.41001
G0 F6000 X156.832 Y146.65
G1 F1200 X159.849 Y149.666 E17.5519
G0 F6000 X159.849 Y149.101
G1 F1200 X157.398 Y146.65 E17.66718
G0 F6000 X157.964 Y146.65
G1 F1200 X159.849 Y148.535 E17.75585
G0 F6000 X159.849 Y147.969
G1 F1200 X158.529 Y146.65 E17.81791
G0 F6000 X159.095 Y146.65
G1 F1200 X159.849 Y147.404 E17.85338
G0 F6000 X159.849 Y146.838
G1 F1200 X159.661 Y146.65 E17.86222
G0 F6000 X159.661 Y146.3
;MESH:NONMESH
G0 F300 X159.661 Y146.3 Z0.4
G0 F6000 X159.661 Y146.21
G0 X160.218 Y146.282
G0 X160.218 Y153.718
G0 X145.4 Y153.9
;TIME_ELAPSED:36.494699
;LAYER:1
M106 S85
;TYPE:WALL-INNER
;MESH:testWiresCapper.STL
G1 F1950 X145.4 Y154.9 E17.89548
G1 X139.6 Y154.9 E18.08839
G1 X139.6 Y145.1 E18.41434
G1 X145.4 Y145.1 E18.60725
G1 X145.4 Y146.1 E18.64051
G1 X160.4 Y146.1 E19.13941
G1 X160.4 Y153.9 E19.39884
G1 X145.4 Y153.9 E19.89774
G0 F9750 X145.8 Y154.3
;TYPE:WALL-OUTER
G1 F1950 X145.8 Y155.3 E19.931
G1 X139.2 Y155.3 E20.15052
G1 X139.2 Y144.7 E20.50308
G1 X145.8 Y144.7 E20.72259
G1 X145.8 Y145.7 E20.75585
G1 X160.8 Y145.7 E21.25476
G1 X160.8 Y154.3 E21.54079
G1 X145.8 Y154.3 E22.0397
G0 F9750 X145.01 Y154.51
;TYPE:SKIN
G1 F1950 X139.99 Y154.51 E22.20666
G1 X139.99 Y145.49 E22.50667
G1 X145.01 Y145.49 E22.67363
G1 X145.01 Y146.49 E22.70689
G1 X160.01 Y146.49 E23.2058
G1 X160.01 Y153.51 E23.43928
G1 X145.01 Y153.51 E23.93818
G1 X145.01 Y154.51 E23.97144
G0 F9750 X145.29 Y154.51
G0 X139.782 Y154.718
G0 X139.71 Y146.086
G0 X140.149 Y146.086
G1 F1950 X140.587 Y145.649 E23.99202
G0 F9750 X141.153 Y145.649
G1 F1950 X140.149 Y146.652 E24.03922
G0 F9750 X140.149 Y147.218
G1 F1950 X141.719 Y145.649 E24.11305
G0 F9750 X142.284 Y145.649
G1 F1950 X140.149 Y147.783 E24.21345
G0 F9750 X140.149 Y148.349
G1 F1950 X142.85 Y145.649 E24.34047
G0 F9750 X143.416 Y145.649
G1 F1950 X140.149 Y148.915 E24.49412
G0 F9750 X140.149 Y149.48
G1 F1950 X143.981 Y145.649 E24.67434
G0 F9750 X144.547 Y145.649
G1 F1950 X140.149 Y150.046 E24.88119
G0 F9750 X140.149 Y150.612
G1 F1950 X144.85 Y145.912 E25.10228
G0 F9750 X144.85 Y146.477
G1 F1950 X140.149 Y151.178 E25.3234
G0 F9750 X140.149 Y151.743
G1 F1950 X145.244 Y146.648 E25.56306
G0 F9750 X145.81 Y146.648
G1 F1950 X140.149 Y152.309 E25.82933
G0 F9750 X140.149 Y152.875
G1 F1950 X146.376 Y146.648 E26.12223
G0 F9750 X146.941 Y146.648
G1 F1950 X140.149 Y153.44 E26.44171
G0 F9750 X140.149 Y154.006
G1 F1950 X147.507 Y146.648 E26.7878
G0 F9750 X148.073 Y146.648
G1 F1950 X140.372 Y154.349 E27.15004
G0 F9750 X140.938 Y154.349
G1 F1950 X148.638 Y146.648 E27.51224
G0 F9750 X149.204 Y146.648
G1 F1950 X141.504 Y154.349 E27.87445
G0 F9750 X142.069 Y154.349
G1 F1950 X149.77 Y146.648 E28.23668
G0 F9750 X150.335 Y146.648
G1 F1950 X142.635 Y154.349 E28.59889
G0 F9750 X143.201 Y154.349
G1 F1950 X150.901 Y146.648 E28.9611
G0 F9750 X151.467 Y146.648
G1 F1950 X143.766 Y154.349 E29.32333
G0 F9750 X144.332 Y154.349
G1 F1950 X144.85 Y153.831 E29.3477
G0 F9750 X145.332 Y153.349
G1 F1950 X152.032 Y146.648 E29.66287
G0 F9750 X152.597 Y146.649
G1 F1950 X145.898 Y153.349 E29.97799
G0 F9750 X146.463 Y153.349
G1 F1950 X153.163 Y146.649 E30.29314
G0 F9750 X153.729 Y146.649
G1 F1950 X147.029 Y153.349 E30.60829
G0 F9750 X147.595 Y153.349
G1 F1950 X154.294 Y146.649 E30.92341
G0 F9750 X154.86 Y146.649
G1 F1950 X148.16 Y153.349 E31.23856
G0 F9750 X148.726 Y153.349
G1 F1950 X155.426 Y146.649 E31.5537
G0 F9750 X155.991 Y146.649
G1 F1950 X149.292 Y153.349 E31.86883
G0 F9750 X149.857 Y153.349
G1 F1950 X156.557 Y146.649 E32.18398
G0 F9750 X157.123 Y146.649
G1 F1950 X150.423 Y153.349 E32.49912
G0 F9750 X150.989 Y153.349
G1 F1950 X157.689 Y146.649 E32.81427
G0 F9750 X158.254 Y146.649
G1 F1950 X151.554 Y153.349 E33.12942
G0 F9750 X152.12 Y153.349
G1 F1950 X158.82 Y146.649 E33.44457
G0 F9750 X159.386 Y146.649
G1 F1950 X152.686 Y153.349 E33.75971
G0 F9750 X153.251 Y153.349
G1 F1950 X159.849 Y146.752 E34.07004
G0 F9750 X159.849 Y147.317
G1 F1950 X153.817 Y153.349 E34.35377
G0 F9750 X154.383 Y153.349
G1 F1950 X159.849 Y147.883 E34.61087
G0 F9750 X159.849 Y148.449
G1 F1950 X154.949 Y153.349 E34.84135
G0 F9750 X155.514 Y153.349
G1 F1950 X159.849 Y149.014 E35.04526
G0 F9750 X159.849 Y149.58
G1 F1950 X156.08 Y153.349 E35.22254
G0 F9750 X156.646 Y153.349
G1 F1950 X159.849 Y150.146 E35.3732
G0 F9750 X159.849 Y150.712
G1 F1950 X157.211 Y153.349 E35.49726
G0 F9750 X157.777 Y153.349
G1 F1950 X159.849 Y151.277 E35.59472
G0 F9750 X159.849 Y151.843
G1 F1950 X158.343 Y153.349 E35.66556
G0 F9750 X158.908 Y153.349
G1 F1950 X159.849 Y152.409 E35.70979
G0 F9750 X159.849 Y152.974
G1 F1950 X159.474 Y153.349 E35.72743
G0 F9750 X159.474 Y153.7
;MESH:NONMESH
G0 F300 X159.474 Y153.7 Z0.6
G0 F9750 X159.474 Y153.79
G0 X145.4 Y153.9
;TIME_ELAPSED:59.470987
;LAYER:2
M106 S170
;TYPE:WALL-INNER
;MESH:testWiresCapper.STL
G1 F2700 X145.4 Y154.9 E35.76069
G1 X139.6 Y154.9 E35.9536
G1 X139.6 Y145.1 E36.27955
G1 X145.4 Y145.1 E36.47246
G1 X145.4 Y146.1 E36.50572
G1 X160.4 Y146.1 E37.00462
G1 X160.4 Y153.9 E37.26405
G1 X145.4 Y153.9 E37.76295
G0 F13500 X145.8 Y154.3
;TYPE:WALL-OUTER
G1 F2700 X145.8 Y155.3 E37.79621
G1 X139.2 Y155.3 E38.01573
G1 X139.2 Y144.7 E38.36829
G1 X145.8 Y144.7 E38.5878
G1 X145.8 Y145.7 E38.62106
G1 X160.8 Y145.7 E39.11997
G1 X160.8 Y154.3 E39.406
G1 X145.8 Y154.3 E39.90491
G0 F13500 X145.01 Y154.51
;TYPE:SKIN
G1 F2700 X139.99 Y154.51 E40.07187
G1 X139.99 Y145.49 E40.37188
G1 X145.01 Y145.49 E40.53884
G1 X145.01 Y146.49 E40.5721
G1 X160.01 Y146.49 E41.07101
G1 X160.01 Y153.51 E41.30449
G1 X145.01 Y153.51 E41.80339
G1 X145.01 Y154.51 E41.83665
G0 F13500 X145.29 Y154.51
G0 X140.206 Y154.79
G0 X140.206 Y154.348
G1 F2700 X140.149 Y154.292 E41.83931
G0 F13500 X140.149 Y153.726
G1 F2700 X140.772 Y154.348 E41.86859
G0 F13500 X141.337 Y154.348
G1 F2700 X140.149 Y153.16 E41.92447
G0 F13500 X140.149 Y152.595
G1 F2700 X141.903 Y154.348 E42.00695
G0 F13500 X142.469 Y154.348
G1 F2700 X140.149 Y152.029 E42.11605
G0 F13500 X140.149 Y151.463
G1 F2700 X143.034 Y154.348 E42.25176
G0 F13500 X143.6 Y154.348
G1 F2700 X140.149 Y150.898 E42.41406
G0 F13500 X140.149 Y150.332
G1 F2700 X144.166 Y154.348 E42.60298
G0 F13500 X144.732 Y154.348
G1 F2700 X140.149 Y149.766 E42.81853
G0 F13500 X140.149 Y149.2
G1 F2700 X144.85 Y153.901 E43.03965
G0 F13500 X144.864 Y153.349
G1 F2700 X140.149 Y148.635 E43.2614
G0 F13500 X140.149 Y148.069
G1 F2700 X145.429 Y153.349 E43.50976
G0 F13500 X145.995 Y153.349
G1 F2700 X140.149 Y147.503 E43.78474
G0 F13500 X140.149 Y146.938
G1 F2700 X146.561 Y153.349 E44.08631
G0 F13500 X147.127 Y153.349
G1 F2700 X140.149 Y146.372 E44.41451
G0 F13500 X140.149 Y145.806
G1 F2700 X147.692 Y153.349 E44.76931
G0 F13500 X148.258 Y153.349
G1 F2700 X140.558 Y145.649 E45.1315
G0 F13500 X141.124 Y145.649
G1 F2700 X148.824 Y153.349 E45.49368
G0 F13500 X149.389 Y153.349
G1 F2700 X141.69 Y145.649 E45.85584
G0 F13500 X142.255 Y145.649
G1 F2700 X149.955 Y153.349 E46.21803
G0 F13500 X150.521 Y153.349
G1 F2700 X142.821 Y145.649 E46.58021
G0 F13500 X143.387 Y145.649
G1 F2700 X151.086 Y153.349 E46.94237
G0 F13500 X151.652 Y153.349
G1 F2700 X144.952 Y146.649 E47.25752
G1 X144.85 Y146.547
G1 X143.952 Y145.649 E47.29976
G0 F13500 X144.518 Y145.649
G1 F2700 X144.85 Y145.981 E47.31538
G0 F13500 X145.518 Y146.649
G1 F2700 X152.218 Y153.349 E47.63052
G0 F13500 X152.783 Y153.349
G1 F2700 X146.084 Y146.649 E47.94565
G0 F13500 X146.649 Y146.649
G1 F2700 X153.349 Y153.349 E48.26079
G0 F13500 X153.915 Y153.349
G1 F2700 X147.215 Y146.649 E48.57594
G0 F13500 X147.781 Y146.649
G1 F2700 X154.48 Y153.349 E48.89107
G0 F13500 X155.046 Y153.349
G1 F2700 X148.346 Y146.649 E49.20621
G0 F13500 X148.912 Y146.649
G1 F2700 X155.612 Y153.349 E49.52136
G0 F13500 X156.177 Y153.349
G1 F2700 X149.478 Y146.649 E49.83648
G0 F13500 X150.043 Y146.649
G1 F2700 X156.743 Y153.349 E50.15163
G0 F13500 X157.309 Y153.349
G1 F2700 X150.609 Y146.649 E50.46678
G0 F13500 X151.175 Y146.649
G1 F2700 X157.875 Y153.349 E50.78193
G0 F13500 X158.44 Y153.349
G1 F2700 X151.74 Y146.649 E51.09707
G0 F13500 X152.306 Y146.649
G1 F2700 X159.006 Y153.349 E51.41222
G0 F13500 X159.572 Y153.349
G1 F2700 X152.872 Y146.65 E51.72735
G0 F13500 X153.438 Y146.65
G1 F2700 X159.849 Y153.061 E52.0289
G0 F13500 X159.849 Y152.495
G1 F2700 X154.004 Y146.65 E52.30383
G0 F13500 X154.57 Y146.65
G1 F2700 X159.849 Y151.929 E52.55214
G0 F13500 X159.849 Y151.363
G1 F2700 X155.135 Y146.65 E52.77385
G0 F13500 X155.701 Y146.65
G1 F2700 X159.849 Y150.798 E52.96896
G0 F13500 X159.849 Y150.232
G1 F2700 X156.267 Y146.65 E53.13744
G0 F13500 X156.832 Y146.65
G1 F2700 X159.849 Y149.666 E53.27933
G0 F13500 X159.849 Y149.101
G1 F2700 X157.398 Y146.65 E53.39462
G0 F13500 X157.964 Y146.65
G1 F2700 X159.849 Y148.535 E53.48328
G0 F13500 X159.849 Y147.969
G1 F2700 X158.529 Y146.65 E53.54535
G0 F13500 X159.095 Y146.65
G1 F2700 X159.849 Y147.404 E53.58081
G0 F13500 X159.849 Y146.838
G1 F2700 X159.661 Y146.65 E53.58966
G0 F13500 X159.661 Y146.3
;MESH:NONMESH
G0 F300 X159.661 Y146.3 Z0.8
G0 F13500 X159.661 Y146.21
G0 X160.218 Y146.282
G0 X160.218 Y153.718
G0 X145.4 Y153.9
;TIME_ELAPSED:79.514795
;LAYER:3
M106 S255
;TYPE:WALL-INNER
;MESH:testWiresCapper.STL
G1 F2700 X145.4 Y154.9 E53.62292
G1 X139.6 Y154.9 E53.81582
G1 X139.6 Y145.1 E54.14177
G1 X145.4 Y145.1 E54.33468
G1 X145.4 Y146.1 E54.36794
G1 X160.4 Y146.1 E54.86684
G1 X160.4 Y153.9 E55.12627
G1 X145.4 Y153.9 E55.62518
G0 F13500 X145.8 Y154.3
;TYPE:WALL-OUTER
G1 F2700 X145.8 Y155.3 E55.65844
G1 X139.2 Y155.3 E55.87795
G1 X139.2 Y144.7 E56.23051
G1 X145.8 Y144.7 E56.45003
G1 X145.8 Y145.7 E56.48329
G1 X160.8 Y145.7 E56.98219
G1 X160.8 Y154.3 E57.26823
G1 X145.8 Y154.3 E57.76713
G0 F13500 X145.01 Y154.51
;TYPE:SKIN
G1 F2700 X139.99 Y154.51 E57.93409
G1 X139.99 Y145.49 E58.2341
G1 X145.01 Y145.49 E58.40107
G1 X145.01 Y146.49 E58.43433
G1 X160.01 Y146.49 E58.93323
G1 X160.01 Y153.51 E59.16671
G1 X145.01 Y153.51 E59.66562
G1 X145.01 Y154.51 E59.69888
G0 F13500 X145.29 Y154.51
G0 X139.782 Y154.718
G0 X139.71 Y146.086
G0 X140.149 Y146.086
G1 F2700 X140.587 Y145.649 E59.71946
G0 F13500 X141.153 Y145.649
G1 F2700 X140.149 Y146.652 E59.76666
G0 F13500 X140.149 Y147.218
G1 F2700 X141.719 Y145.649 E59.84048
G0 F13500 X142.284 Y145.649
G1 F2700 X140.149 Y147.783 E59.94088
G0 F13500 X140.149 Y148.349
G1 F2700 X142.85 Y145.649 E60.06791
G0 F13500 X143.416 Y145.649
G1 F2700 X140.149 Y148.915 E60.22155
G0 F13500 X140.149 Y149.48
G1 F2700 X143.981 Y145.649 E60.40177
G0 F13500 X144.547 Y145.649
G1 F2700 X140.149 Y150.046 E60.60862
G0 F13500 X140.149 Y150.612
G1 F2700 X144.85 Y145.912 E60.82972
G0 F13500 X144.85 Y146.477
G1 F2700 X140.149 Y151.178 E61.05084
G0 F13500 X140.149 Y151.743
G1 F2700 X145.244 Y146.648 E61.29049
G0 F13500 X145.81 Y146.648
G1 F2700 X140.149 Y152.309 E61.55677
G0 F13500 X140.149 Y152.875
G1 F2700 X146.376 Y146.648 E61.84966
G0 F13500 X146.941 Y146.648
G1 F2700 X140.149 Y153.44 E62.16914
G0 F13500 X140.149 Y154.006
G1 F2700 X147.507 Y146.648 E62.51524
G0 F13500 X148.073 Y146.648
G1 F2700 X140.372 Y154.349 E62.87747
G0 F13500 X140.938 Y154.349
