;FLAVOR:Marlin
;TIME:2333
;Filament used: 1.62066m
;Layer height: 0.2
;MINX:118.121
;MINY:135.835
;MINZ:0.2
;MAXX:181.714
;MAXY:164.165
;MAXZ:10
;Generated with Cura_SteamEngine 4.13.1
M140 S60
M105
M190 S60
M104 S200
M105
M109 S200
M82 ;absolute extrusion mode

; Script based on an original created by tjjfvi (https://github.com/tjjfvi)
; An up-to-date version of the tjjfvi's original script can be found
; here:  https://csi.t6.fyi/
; Note - This script will not work in Cura V4.2 and above!
; max_feedrate_z_override = {max_feedrate_z_override}
; retraction_amount = 6.5
; retraction_hop = 0.2
; retraction_hop_enabled = False
; retraction_prime_speed = 25
; retraction_retract_speed = 25
; retraction_speed = 25
; speed_travel = 225.0
; retraction_enable = True
; layer_height = 0.2
; smooth_spiralized_contours = True


; Ender 3 Custom Start G-code
G92 E0 ; Reset Extruder
G28 ; Home all axes
G1 Z2.0 F3000 ; Move Z Axis up little to prevent scratching of Heat Bed
G1 X0.1 Y20 Z0.3 F5000.0 ; Move to start position
G1 X0.1 Y200.0 Z0.3 F1500.0 E15 ; Draw the first line
G1 X0.4 Y200.0 Z0.3 F5000.0 ; Move to side a little
G1 X0.4 Y20 Z0.3 F1500.0 E30 ; Draw the second line
G92 E0 ; Reset Extruder
G1 Z2.0 F3000 ; Move Z Axis up little to prevent scratching of Heat Bed
G1 X5 Y20 Z0.3 F5000.0 ; Move over to prevent blob squish
G92 E0
G92 E0
G1 F1500 E-6.5
;LAYER_COUNT:50
;LAYER:0
M107
G0 F6000 X123.323 Y150.244 Z0.2
;TYPE:SKIRT
G1 F1500 E0
G1 F1200 X123.791 Y150.293 E0.01565
G1 X124.376 Y150.293 E0.03511
G1 X124.83 Y150.253 E0.05027
G1 X124.9 Y150.234 E0.05268
G1 X124.9 Y150.783 E0.07094
G1 X124.065 Y150.684 E0.09891
G1 X123.61 Y150.67 E0.11405
G1 X123.323 Y150.712 E0.12369
G1 X123.323 Y150.244 E0.13926
G0 F6000 X123.342 Y149.847
G1 F1200 X123.791 Y149.893 E0.15427
G1 X124.376 Y149.893 E0.17373
G1 X124.793 Y149.853 E0.18766
G1 X125.149 Y149.753 E0.19996
G1 X125.3 Y149.696 E0.20533
G1 X125.3 Y151.274 E0.25781
G1 X125.291 Y151.27 E0.25814
G1 X124.9 Y151.186 E0.27144
G1 X124.018 Y151.081 E0.30098
G1 X123.599 Y151.072 E0.31492
G1 X123.017 Y151.195 E0.33471
G1 X122.923 Y151.229 E0.33803
G1 X122.923 Y149.76 E0.38689
G1 X123.342 Y149.847 E0.40113
G0 F6000 X123.424 Y149.455
G1 F1200 X123.791 Y149.493 E0.4134
G1 X124.376 Y149.493 E0.43285
G1 X124.753 Y149.453 E0.44546
G1 X125.008 Y149.378 E0.4543
G1 X125.456 Y149.209 E0.47023
G1 X125.7 Y149.108 E0.47901
G1 X125.7 Y151.897 E0.57178
G1 X125.489 Y151.784 E0.57974
G1 X125.138 Y151.641 E0.59234
G1 X124.853 Y151.584 E0.60201
G1 X123.971 Y151.479 E0.63155
G1 X123.592 Y151.474 E0.64416
G1 X123.152 Y151.571 E0.65914
G1 X122.632 Y151.757 E0.67751
G1 X122.523 Y151.801 E0.68142
G1 X122.523 Y149.209 E0.76763
G1 X122.944 Y149.355 E0.78245
G1 X123.424 Y149.455 E0.79876
G0 F6000 X123.505 Y149.064
G1 F1200 X123.791 Y149.093 E0.80832
G1 X124.376 Y149.093 E0.82778
G1 X124.708 Y149.053 E0.8389
G1 X124.868 Y149.004 E0.84447
G1 X125.302 Y148.84 E0.8599
G1 X125.663 Y148.69 E0.8729
G1 X126.051 Y148.448 E0.88811
G1 X126.1 Y148.405 E0.89028
G1 X126.1 Y152.597 E1.02971
G1 X125.96 Y152.489 E1.03559
G1 X125.3 Y152.136 E1.06048
G1 X124.989 Y152.015 E1.07158
G1 X124.805 Y151.981 E1.0778
G1 X123.923 Y151.876 E1.10735
G1 X123.589 Y151.876 E1.11845
G1 X123.286 Y151.948 E1.12881
G1 X122.766 Y152.134 E1.14718
G1 X122.678 Y152.169 E1.15033
G1 X122.385 Y152.297 E1.16097
G1 X122.123 Y152.448 E1.17102
G1 X122.123 Y148.564 E1.30021
G1 X122.685 Y148.845 E1.3211
G1 X123.025 Y148.964 E1.33309
G1 X123.505 Y149.064 E1.34939
G0 F6000 X123.587 Y148.672
G1 F1200 X123.791 Y148.693 E1.35621
G1 X124.376 Y148.693 E1.37567
G1 X124.727 Y148.629 E1.38754
G1 X125.149 Y148.47 E1.40254
G1 X125.51 Y148.32 E1.41554
G1 X125.787 Y148.148 E1.42638
G1 X126.5 Y147.521 E1.45796
G1 X126.5 Y153.548 E1.65842
G1 X126.035 Y153.045 E1.68121
G1 X125.772 Y152.842 E1.69226
G1 X125.112 Y152.489 E1.71715
G1 X124.758 Y152.378 E1.72949
G1 X123.876 Y152.273 E1.75903
G1 X123.594 Y152.28 E1.76841
G1 X123.421 Y152.324 E1.77435
G1 X122.901 Y152.51 E1.79272
G1 X122.545 Y152.664 E1.80562
G1 X122.351 Y152.776 E1.81307
G1 X121.819 Y153.169 E1.83507
G1 X121.723 Y153.275 E1.83983
G1 X121.723 Y147.834 E2.0208
G1 X122.01 Y148.06 E2.03295
G1 X122.864 Y148.487 E2.0647
G1 X123.107 Y148.572 E2.07326
G1 X123.587 Y148.672 E2.08957
G0 F6000 X123.669 Y148.28
G1 F1200 X123.791 Y148.293 E2.09365
G1 X124.376 Y148.293 E2.11311
G1 X124.587 Y148.255 E2.12024
G1 X124.995 Y148.101 E2.13475
G1 X125.356 Y147.951 E2.14775
G1 X125.522 Y147.847 E2.15426
G1 X126.395 Y147.079 E2.19294
G1 X126.53 Y146.908 E2.20018
G1 X126.596 Y146.688 E2.20782
G1 X126.72 Y145.429 E2.2499
G1 X126.694 Y145.186 E2.25803
G1 X126.476 Y144.509 E2.28168
G1 X126.408 Y144.366 E2.28695
G1 X125.886 Y143.562 E2.31883
G1 X125.716 Y143.39 E2.32688
G1 X125.385 Y143.169 E2.34011
G1 X125.16 Y143.078 E2.34818
G1 X123.96 Y142.858 E2.38876
G1 X123.661 Y142.879 E2.39873
G1 X123.283 Y143.006 E2.41199
G1 X122.365 Y143.219 E2.44334
G1 X122.08 Y143.376 E2.45416
G1 X121.797 Y143.655 E2.46738
G1 X121.635 Y143.94 E2.47828
G1 X121.323 Y145.223 E2.5222
G1 X121.323 Y140.9 E2.66598
G1 X126.9 Y140.9 E2.85147
G1 X126.9 Y159.1 E3.45681
G1 X121.323 Y159.1 E3.6423
G1 X121.323 Y155.957 E3.74684
G1 X121.371 Y156.159 E3.75374
G1 X121.645 Y156.706 E3.77409
G1 X121.679 Y156.766 E3.77638
G1 X122.088 Y157.39 E3.8012
G1 X122.348 Y157.61 E3.81253
G1 X123.073 Y157.93 E3.83889
G1 X123.16 Y157.961 E3.84196
G1 X123.579 Y158.073 E3.85638
G1 X123.734 Y158.093 E3.86158
G1 X124.35 Y158.093 E3.88207
G1 X124.547 Y158.06 E3.88871
G1 X125.052 Y157.884 E3.9065
G1 X125.146 Y157.842 E3.90992
G1 X125.534 Y157.627 E3.92468
G1 X125.655 Y157.538 E3.92967
G1 X126.454 Y156.784 E3.96621
G1 X126.583 Y156.608 E3.97347
G1 X126.641 Y156.38 E3.9813
G1 X126.712 Y155.056 E4.0254
G1 X126.664 Y154.786 E4.03452
G1 X126.324 Y153.998 E4.06306
G1 X126.214 Y153.829 E4.06977
G1 X125.741 Y153.317 E4.09295
G1 X125.583 Y153.195 E4.09959
G1 X124.923 Y152.842 E4.12449
G1 X124.711 Y152.775 E4.13188
G1 X123.829 Y152.67 E4.16142
G1 X123.556 Y152.701 E4.17056
G1 X122.998 Y152.902 E4.19029
G1 X122.705 Y153.03 E4.20092
G1 X122.588 Y153.097 E4.20541
G1 X122.056 Y153.49 E4.22741
G1 X121.897 Y153.668 E4.23534
G1 X121.599 Y154.172 E4.25482
G1 X121.558 Y154.254 E4.25787
G1 X121.41 Y154.624 E4.27112
G1 X121.373 Y154.759 E4.27578
G1 X121.323 Y155.097 E4.28714
G1 X121.323 Y146.035 E4.58854
G1 X121.627 Y147.036 E4.62334
G1 X121.742 Y147.248 E4.63136
G1 X121.998 Y147.552 E4.64458
G1 X122.189 Y147.703 E4.65268
G1 X123.043 Y148.13 E4.68443
G1 X123.189 Y148.18 E4.68957
G1 X123.669 Y148.28 E4.70588
G0 F6000 X123.75 Y147.889
G1 F1200 X123.791 Y147.893 E4.70725
G1 X124.376 Y147.893 E4.7267
G1 X124.446 Y147.88 E4.72907
G1 X124.842 Y147.732 E4.74313
G1 X125.203 Y147.582 E4.75613
G1 X125.258 Y147.547 E4.7583
G1 X126.131 Y146.779 E4.79697
G1 X126.198 Y146.649 E4.80184
G1 X126.322 Y145.39 E4.84392
G1 X126.313 Y145.309 E4.84663
G1 X126.095 Y144.632 E4.87028
G1 X126.073 Y144.584 E4.87204
G1 X125.551 Y143.78 E4.90392
G1 X125.494 Y143.723 E4.9066
G1 X125.163 Y143.502 E4.91984
G1 X125.088 Y143.471 E4.92254
G1 X123.888 Y143.251 E4.96312
G1 X123.788 Y143.258 E4.96645
G1 X123.394 Y143.39 E4.98027
G1 X122.456 Y143.608 E5.0123
G1 X122.361 Y143.661 E5.01592
G1 X122.078 Y143.94 E5.02914
G1 X122.024 Y144.035 E5.03277
G1 X121.641 Y145.61 E5.08668
G1 X121.644 Y145.715 E5.09018
G1 X122.01 Y146.92 E5.13206
G1 X122.048 Y146.991 E5.13474
G1 X122.304 Y147.295 E5.14796
G1 X122.368 Y147.345 E5.15066
G1 X123.222 Y147.772 E5.18242
G1 X123.27 Y147.789 E5.18411
G1 X123.75 Y147.889 E5.20042
G0 F6000 X126.5 Y143.772
G1 F1200 X126.222 Y143.344 E5.21739
G1 X125.938 Y143.057 E5.23082
G1 X125.607 Y142.836 E5.24406
G1 X125.232 Y142.684 E5.25752
G1 X124.032 Y142.464 E5.2981
G1 X123.75 Y142.453 E5.30748
G1 X123.534 Y142.5 E5.31483
G1 X123.179 Y142.619 E5.32729
G1 X122.275 Y142.829 E5.35816
G1 X122.012 Y142.931 E5.36754
G1 X121.799 Y143.091 E5.3764
G1 X121.723 Y143.166 E5.37995
G1 X121.723 Y141.3 E5.44201
G1 X126.5 Y141.3 E5.6009
G1 X126.5 Y143.772 E5.68312
G0 F6000 X122.123 Y142.461
G1 F1200 X122.123 Y141.7 E5.70843
G1 X126.1 Y141.7 E5.8407
G1 X126.1 Y142.685 E5.87346
G1 X125.829 Y142.504 E5.8843
G1 X125.531 Y142.353 E5.89541
G1 X125.304 Y142.291 E5.90324
G1 X124.104 Y142.071 E5.94382
G1 X123.771 Y142.05 E5.95492
G1 X123.407 Y142.121 E5.96725
G1 X123.078 Y142.231 E5.97879
G1 X122.184 Y142.439 E6.00932
G1 X122.123 Y142.461 E6.01147
G0 F6000 X123.691 Y153.078
G1 F1200 X123.158 Y153.269 E6.03031
G1 X122.865 Y153.397 E6.04094
G1 X122.826 Y153.419 E6.04243
G1 X122.294 Y153.812 E6.06443
G1 X122.241 Y153.871 E6.06707
G1 X121.943 Y154.375 E6.08654
G1 X121.929 Y154.403 E6.08758
G1 X121.781 Y154.773 E6.10084
G1 X121.769 Y154.818 E6.10238
G1 X121.709 Y155.223 E6.116
G1 X121.707 Y155.252 E6.11697
G1 X121.707 Y155.89 E6.13819
G1 X121.728 Y155.98 E6.14126
G1 X122.002 Y156.527 E6.16161
G1 X122.423 Y157.171 E6.1872
G1 X122.509 Y157.244 E6.19095
G1 X123.234 Y157.564 E6.21731
G1 X123.263 Y157.574 E6.21833
G1 X123.682 Y157.686 E6.23276
G1 X123.734 Y157.693 E6.2345
G1 X124.35 Y157.693 E6.25499
G1 X124.416 Y157.682 E6.25721
G1 X124.921 Y157.506 E6.275
G1 X124.952 Y157.492 E6.27613
G1 X125.34 Y157.277 E6.29089
G1 X125.38 Y157.247 E6.29255
G1 X126.179 Y156.493 E6.32909
G1 X126.242 Y156.359 E6.33401
G1 X126.313 Y155.035 E6.37811
G1 X126.297 Y154.945 E6.38115
G1 X125.957 Y154.157 E6.4097
G1 X125.92 Y154.1 E6.41196
G1 X125.447 Y153.588 E6.43514
G1 X125.394 Y153.548 E6.43735
G1 X124.734 Y153.195 E6.46225
G1 X124.664 Y153.172 E6.4647
G1 X123.782 Y153.067 E6.49424
G1 X123.691 Y153.078 E6.49729
G0 F6000 X121.723 Y157.562
G1 F1200 X121.754 Y157.609 E6.49916
G1 X121.94 Y157.821 E6.50854
G1 X122.186 Y157.976 E6.51821
G1 X122.911 Y158.296 E6.54457
G1 X123.057 Y158.347 E6.54971
G1 X123.476 Y158.459 E6.56414
G1 X123.734 Y158.493 E6.57279
G1 X124.35 Y158.493 E6.59328
G1 X124.679 Y158.437 E6.60438
G1 X125.184 Y158.261 E6.62217
G1 X125.34 Y158.192 E6.62784
G1 X125.728 Y157.977 E6.6426
G1 X125.929 Y157.829 E6.6509
G1 X126.5 Y157.29 E6.67701
G1 X126.5 Y158.7 E6.72391
G1 X121.723 Y158.7 E6.8828
G1 X121.723 Y157.562 E6.92065
G0 F6000 X120.923 Y159.5
G1 F1200 X120.923 Y140.5 E7.55259
G1 X127.3 Y140.5 E7.76469
G1 X127.3 Y159.5 E8.39663
G1 X120.923 Y159.5 E8.60873
G0 F6000 X126.1 Y158.196
G1 F1200 X126.1 Y158.3 E8.61219
G1 X125.959 Y158.3 E8.61688
G1 X126.1 Y158.196 E8.62271
G1 F1500 E2.12271
G0 F6000 X169.7 Y154.465
G1 F1500 E8.62271
G1 F1200 X170.9 Y154.465 E8.66262
G1 X170.798 Y154.68 E8.67053
G1 X170.673 Y155.433 E8.69592
G1 X170.675 Y155.511 E8.69852
G1 X170.904 Y156.499 E8.73225
G1 X170.958 Y156.595 E8.73591
G1 X171.288 Y156.925 E8.75143
G1 X171.482 Y157.144 E8.76116
G1 X172.198 Y157.621 E8.78978
G1 X172.301 Y157.655 E8.79339
G1 X172.886 Y157.678 E8.81286
G1 X173.376 Y157.706 E8.82918
G1 X173.464 Y157.691 E8.83215
G1 X174.228 Y157.372 E8.85969
G1 X174.287 Y157.334 E8.86202
G1 X174.937 Y156.731 E8.89151
G1 X174.99 Y156.651 E8.89471
G1 X175.264 Y155.876 E8.92205
G1 X175.275 Y155.818 E8.92401
G1 X175.304 Y155.183 E8.94515
G1 X175.297 Y155.121 E8.94723
G1 X175.141 Y154.553 E8.96682
G1 X175.099 Y154.465 E8.97006
G1 X176.426 Y154.465 E9.0142
G1 X176.426 Y159.5 E9.18166
G1 X169.7 Y159.5 E9.40537
G1 X169.7 Y154.465 E9.57283
G0 F6000 X170.1 Y154.865
G1 F1200 X170.361 Y154.865 E9.58151
G1 X170.278 Y155.368 E9.59847
G1 X170.285 Y155.601 E9.60622
G1 X170.514 Y156.589 E9.63996
G1 X170.675 Y156.878 E9.65096
G1 X170.996 Y157.199 E9.66606
G1 X171.26 Y157.477 E9.67881
G1 X171.976 Y157.954 E9.70742
G1 X172.286 Y158.055 E9.71827
G1 X172.869 Y158.078 E9.73767
G1 X173.354 Y158.105 E9.75383
G1 X173.618 Y158.06 E9.76274
G1 X174.382 Y157.741 E9.79027
G1 X174.559 Y157.627 E9.79728
G1 X175.209 Y157.024 E9.82677
G1 X175.367 Y156.784 E9.83632
G1 X175.641 Y156.009 E9.86366
G1 X175.674 Y155.836 E9.86952
G1 X175.703 Y155.201 E9.89066
G1 X175.642 Y154.865 E9.90202
G1 X176.026 Y154.865 E9.91479
G1 X176.026 Y159.1 E10.05565
G1 X170.1 Y159.1 E10.25275
G1 X170.1 Y154.865 E10.39361
G0 F6000 X170.5 Y157.269
G1 F1200 X170.699 Y157.468 E10.40297
G1 X170.825 Y157.619 E10.40951
G1 X171.039 Y157.81 E10.41905
G1 X171.755 Y158.287 E10.44766
G1 X172.009 Y158.409 E10.45704
G1 X172.27 Y158.454 E10.46584
G1 X172.832 Y158.476 E10.48455
G1 X173.332 Y158.504 E10.50121
G1 X173.613 Y158.48 E10.51059
G1 X173.772 Y158.429 E10.51614
G1 X174.536 Y158.11 E10.54368
G1 X174.831 Y157.92 E10.55535
G1 X175.481 Y157.317 E10.58484
G1 X175.626 Y157.139 E10.59247
G1 X175.626 Y158.7 E10.64439
G1 X170.5 Y158.7 E10.81488
G1 X170.5 Y157.269 E10.86248
G0 F6000 X170.9 Y158.198
G1 F1200 X171.053 Y158.3 E10.8686
G1 X170.9 Y158.3 E10.87368
G1 X170.9 Y158.198 E10.87708
G0 F6000 X174.968 Y158.3
G1 F1200 X175.226 Y158.099 E10.88795
G1 X175.226 Y158.3 E10.89464
G1 X174.968 Y158.3 E10.90322
G0 F6000 X169.7 Y146.579
G1 F1200 X169.7 Y140.523 E11.10464
G1 X176.426 Y140.523 E11.32835
G1 X176.426 Y146.579 E11.52978
G1 X175.095 Y146.579 E11.57404
G1 X175.295 Y146.279 E11.58604
G1 X175.329 Y146.156 E11.59028
G1 X175.261 Y145.037 E11.62757
G1 X175.241 Y144.961 E11.63018
G1 X174.765 Y143.989 E11.66618
G1 X174.716 Y143.926 E11.66883
G1 X174.415 Y143.665 E11.68208
G1 X174.346 Y143.626 E11.68472
G1 X173.405 Y143.32 E11.71763
G1 X173.343 Y143.31 E11.71972
G1 X172.501 Y143.31 E11.74773
G1 X172.411 Y143.331 E11.7508
G1 X171.62 Y143.727 E11.78022
G1 X171.561 Y143.772 E11.78269
G1 X171.174 Y144.201 E11.80191
G1 X171.152 Y144.231 E11.80314
G1 X170.799 Y144.81 E11.8257
G1 X170.771 Y144.892 E11.82858
G1 X170.705 Y145.484 E11.84839
G1 X170.704 Y145.513 E11.84936
G1 X170.716 Y145.874 E11.86137
G1 X170.721 Y145.91 E11.86258
G1 X170.833 Y146.414 E11.87975
G1 X170.919 Y146.579 E11.88594
G1 X169.7 Y146.579 E11.92648
G0 F6000 X170.1 Y146.179
G1 F1200 X170.1 Y140.923 E12.1013
G1 X176.026 Y140.923 E12.2984
G1 X176.026 Y146.179 E12.47321
G1 X175.724 Y146.179 E12.48326
G1 X175.728 Y146.132 E12.48483
G1 X175.66 Y145.013 E12.52211
G1 X175.6 Y144.785 E12.52996
G1 X175.124 Y143.813 E12.56595
G1 X174.978 Y143.624 E12.5739
G1 X174.677 Y143.363 E12.58715
G1 X174.47 Y143.245 E12.59507
G1 X173.529 Y142.939 E12.62798
G1 X173.343 Y142.91 E12.63424
G1 X172.501 Y142.91 E12.66225
G1 X172.232 Y142.973 E12.67144
G1 X171.441 Y143.369 E12.70086
G1 X171.264 Y143.504 E12.70826
G1 X170.877 Y143.933 E12.72748
G1 X170.811 Y144.023 E12.73119
G1 X170.458 Y144.602 E12.75375
G1 X170.374 Y144.848 E12.76239
G1 X170.308 Y145.44 E12.7822
G1 X170.304 Y145.526 E12.78507
G1 X170.316 Y145.887 E12.79708
G1 X170.37 Y146.179 E12.80696
G1 X170.1 Y146.179 E12.81594
G0 F6000 X170.5 Y143.772
G1 F1200 X170.5 Y141.323 E12.89739
G1 X175.626 Y141.323 E13.06788
G1 X175.626 Y143.929 E13.15456
G1 X175.483 Y143.637 E13.16537
G1 X175.24 Y143.321 E13.17863
G1 X174.939 Y143.06 E13.19188
G1 X174.593 Y142.865 E13.20509
G1 X173.652 Y142.559 E13.238
G1 X173.343 Y142.51 E13.24841
G1 X172.501 Y142.51 E13.27641
G1 X172.222 Y142.55 E13.28579
G1 X172.053 Y142.616 E13.29182
G1 X171.262 Y143.012 E13.32124
G1 X170.967 Y143.236 E13.33356
G1 X170.58 Y143.665 E13.35278
G1 X170.5 Y143.772 E13.35722
G0 F6000 X170.9 Y142.775
G1 F1200 X170.9 Y141.723 E13.39221
G1 X175.226 Y141.723 E13.5361
G1 X175.226 Y142.78 E13.57125
G1 X175.201 Y142.758 E13.57236
G1 X174.924 Y142.571 E13.58348
G1 X174.717 Y142.485 E13.59093
G1 X173.776 Y142.179 E13.62384
G1 X173.343 Y142.11 E13.63843
G1 X172.501 Y142.11 E13.66643
G1 X172.169 Y142.15 E13.67755
G1 X171.874 Y142.258 E13.688
G1 X171.083 Y142.654 E13.71742
G1 X170.9 Y142.775 E13.72472
G1 F1500 E7.22472
;MESH:MG996RSlot.STL
G0 F6000 X120.588 Y142.775
G0 X119.503 Y142.775
G0 X119.323 Y156.986
;TYPE:WALL-INNER
G1 F1500 E13.72472
G1 F1200 X118.926 Y154.518 E13.80786
G1 X118.686 Y151.513 E13.90813
G1 X118.686 Y148.487 E14.00877
G1 X118.926 Y145.482 E14.10904
G1 X119.323 Y143.014 E14.19218
G1 X119.323 Y145.482 E14.23289
G1 X119.323 Y154.518 E14.53343
G1 X119.323 Y156.986 E14.57414
G1 F1500 E8.07414
G0 F6000 X119.521 Y158.809
G0 X120.081 Y160.911
G1 F1500 E14.57414
G0 F6000 X119.723 Y160.494
;TYPE:WALL-OUTER
G1 F1200 X119.012 Y157.572 E14.67416
G1 X118.528 Y154.564 E14.7755
G1 X118.286 Y151.532 E14.87666
G1 X118.286 Y148.468 E14.97857
